ncols        260
nrows        153
xllcorner    2678950
yllcorner    1140310
cellsize     10
NODATA_value  -9999
2677.90 2679.53 2679.68 2674.65 2674.03 2676.92 2674.62 2672.86 2668.03 2666.54 2666.05 2666.40 2671.68 2674.03 2677.53 2676.70 2680.22 2679.23 2680.82 2684.71 2686.76 2686.83 2688.03 2688.75 2690.47 2689.73 2691.31 2691.47 2692.14 2690.96 2695.28 2699.77 2707.50 2712.98 2717.67 2732.17 2765.09 2788.98 2791.70 2792.73 2794.83 2795.55 2796.04 2795.17 2793.56 2791.62 2788.21 2785.80 2784.91 2783.46 2779.68 2776.51 2774.95 2771.17 2768.71 2765.94 2762.93 2759.79 2758.77 2760.81 2761.10 2760.92 2757.81 2759.11 2760.97 2759.39 2759.64 2758.77 2759.37 2759.00 2758.37 2757.73 2756.36 2755.63 2754.18 2751.89 2749.33 2746.39 2741.89 2732.35 2728.63 2719.88 2715.31 2711.28 2707.96 2704.96 2702.38 2699.77 2697.24 2695.84 2694.10 2693.09 2692.31 2691.35 2689.62 2686.59 2683.54 2680.88 2677.78 2674.52 2671.49 2666.80 2664.97 2663.16 2661.88 2657.99 2656.39 2654.10 2651.82 2650.16 2648.50 2647.12 2645.11 2644.32 2642.30 2637.48 2631.90 2626.50 2622.57 2616.02 2617.41 2613.40 2609.78 2605.34 2601.22 2598.15 2592.11 2588.01 2585.96 2583.40 2582.05 2582.14 2580.32 2578.09 2575.25 2574.48 2572.06 2570.85 2569.76 2567.45 2564.01 2561.94 2562.16 2559.04 2556.40 2553.08 2550.00 2547.05 2544.75 2542.38 2540.46 2537.53 2534.72 2532.19 2530.02 2527.33 2523.77 2523.10 2521.62 2521.34 2520.15 2517.00 2515.27 2514.60 2512.12 2508.61 2506.94 2504.69 2502.13 2500.11 2498.10 2496.65 2495.86 2495.50 2494.77 2494.91 2494.72 2491.59 2488.22 2487.26 2485.47 2482.29 2478.96 2476.49 2473.89 2471.19 2469.56 2466.98 2464.34 2462.15 2460.07 2457.57 2455.90 2454.34 2453.07 2451.38 2449.17 2446.63 2442.61 2439.26 2435.65 2431.00 2427.61 2426.48 2420.56 2413.39 2404.81 2399.09 2395.30 2394.33 2393.45 2392.64 2392.29 2390.03 2388.63 2387.53 2385.84 2386.04 2384.00 2382.22 2381.67 2382.10 2382.56 2383.98 2383.82 2381.32 2377.15 2372.19 2370.27 2369.51 2368.53 2365.81 2363.58 2362.32 2361.53 2359.68 2355.49 2355.95 2354.69 2352.46 2348.94 2347.31 2348.70 2348.33 2346.91 2345.52 2344.05 2342.55 2341.26 2339.07 2339.91 2340.50 2341.47 2343.38 2343.41 2343.90 2344.49 2345.50 2347.01 2349.38
2684.13 2684.25 2680.63 2680.09 2681.50 2680.85 2679.51 2677.62 2674.13 2671.78 2671.11 2674.43 2677.75 2679.78 2684.24 2683.85 2685.33 2686.74 2685.62 2688.06 2691.65 2692.24 2693.75 2691.86 2692.87 2692.87 2694.50 2695.07 2695.48 2695.57 2700.40 2708.00 2713.65 2719.56 2723.95 2736.59 2779.88 2793.21 2794.73 2794.68 2796.29 2797.86 2798.99 2797.86 2797.13 2795.92 2792.84 2792.55 2791.36 2789.07 2787.61 2783.49 2781.01 2779.18 2775.81 2774.87 2770.21 2767.09 2766.51 2761.11 2761.31 2762.09 2761.64 2763.60 2763.12 2762.64 2762.18 2760.94 2761.24 2760.70 2760.47 2759.74 2758.61 2756.92 2755.93 2752.76 2750.87 2748.60 2745.13 2736.85 2727.95 2722.27 2717.15 2712.59 2708.61 2705.71 2702.50 2700.16 2698.79 2696.66 2695.78 2694.65 2693.51 2691.89 2689.52 2687.57 2686.09 2682.91 2680.74 2676.17 2673.24 2669.13 2667.29 2665.86 2664.04 2661.72 2658.50 2655.37 2653.58 2652.12 2650.76 2648.90 2647.94 2646.69 2645.70 2642.22 2637.80 2632.03 2627.40 2624.25 2621.32 2617.06 2612.52 2609.29 2605.12 2602.58 2598.96 2591.98 2586.17 2583.42 2582.16 2582.85 2580.71 2578.74 2576.53 2573.78 2571.31 2571.22 2569.89 2568.35 2566.57 2564.58 2562.61 2560.39 2557.19 2554.38 2550.77 2547.93 2545.94 2544.19 2541.77 2539.66 2537.30 2534.47 2532.18 2530.13 2527.29 2525.90 2523.40 2521.37 2520.32 2519.31 2516.83 2515.27 2512.90 2510.14 2508.08 2507.26 2505.73 2500.85 2499.53 2499.78 2498.23 2497.83 2498.00 2497.41 2495.96 2494.32 2492.53 2489.87 2485.23 2481.75 2479.17 2476.53 2474.71 2472.66 2469.95 2467.57 2465.39 2463.32 2461.28 2459.70 2458.27 2456.54 2454.68 2452.59 2450.47 2447.51 2442.30 2440.11 2437.30 2434.49 2433.16 2431.04 2428.21 2420.99 2411.88 2403.38 2399.60 2397.67 2395.11 2394.59 2395.49 2394.54 2394.11 2392.38 2391.07 2390.16 2389.00 2388.54 2384.38 2384.52 2383.18 2382.47 2384.48 2383.65 2380.82 2374.46 2372.66 2371.66 2369.90 2369.00 2367.88 2367.98 2366.71 2365.30 2362.72 2360.33 2357.71 2356.33 2355.96 2355.69 2354.03 2353.07 2352.62 2351.96 2350.53 2348.44 2346.70 2346.29 2346.03 2346.43 2348.60 2349.35 2349.68 2350.14 2349.74 2351.84 2355.56 2356.13
2686.43 2686.01 2685.98 2686.72 2685.35 2687.14 2684.37 2680.39 2677.43 2675.93 2676.36 2683.03 2683.05 2687.21 2688.39 2688.97 2690.15 2693.50 2693.37 2695.25 2697.17 2698.90 2697.02 2697.16 2694.81 2696.42 2697.66 2697.97 2699.16 2700.30 2704.73 2713.53 2718.66 2723.95 2733.44 2745.60 2790.10 2795.51 2796.14 2796.13 2798.57 2800.55 2800.70 2800.38 2799.73 2799.22 2797.14 2795.51 2795.13 2793.20 2792.11 2790.76 2786.89 2786.72 2781.86 2780.59 2776.85 2773.60 2772.81 2767.94 2764.06 2764.05 2763.99 2765.85 2766.39 2766.26 2764.64 2763.19 2764.07 2762.94 2762.09 2762.21 2761.20 2758.28 2756.35 2753.17 2750.73 2748.93 2747.34 2743.75 2733.12 2724.92 2719.58 2715.08 2709.72 2705.95 2703.25 2700.51 2698.39 2697.67 2696.84 2695.89 2694.29 2691.53 2690.14 2688.92 2687.45 2684.92 2682.80 2679.16 2675.16 2672.37 2670.11 2668.89 2666.32 2663.54 2659.85 2657.25 2655.64 2654.27 2652.50 2650.95 2649.89 2649.28 2647.27 2644.74 2641.74 2635.67 2632.08 2627.13 2625.11 2622.96 2617.22 2612.88 2609.17 2605.94 2601.44 2598.03 2593.52 2588.94 2582.95 2580.79 2581.68 2580.94 2578.97 2574.77 2570.98 2570.11 2569.61 2569.52 2570.27 2568.30 2564.62 2561.14 2558.54 2555.54 2552.45 2548.99 2547.71 2546.47 2544.19 2542.29 2538.88 2537.23 2535.63 2533.32 2530.06 2528.17 2526.41 2524.50 2522.77 2521.40 2519.67 2517.74 2516.43 2513.91 2512.14 2509.21 2508.53 2505.71 2503.07 2500.66 2501.15 2500.58 2499.52 2498.75 2496.82 2495.87 2493.58 2490.59 2487.50 2483.96 2481.36 2479.26 2476.83 2474.30 2471.56 2468.72 2466.91 2464.78 2463.16 2460.79 2459.10 2457.65 2455.66 2453.38 2450.97 2447.18 2444.54 2441.89 2439.82 2438.23 2436.71 2435.05 2432.69 2427.26 2415.58 2408.32 2403.28 2397.81 2396.17 2395.98 2397.77 2398.91 2397.70 2396.25 2396.01 2395.04 2392.77 2391.65 2389.33 2385.94 2386.72 2388.78 2389.33 2387.41 2385.10 2378.05 2374.94 2376.82 2374.71 2373.06 2373.08 2371.93 2369.70 2367.24 2364.08 2363.43 2363.53 2361.54 2360.60 2359.53 2358.51 2358.53 2358.40 2357.68 2355.61 2353.18 2353.26 2352.46 2351.66 2353.75 2354.84 2354.87 2354.10 2355.13 2355.89 2358.53 2359.93 2360.31
2691.06 2691.16 2691.44 2692.01 2690.90 2690.27 2689.47 2683.18 2681.05 2681.10 2682.67 2688.42 2689.07 2691.03 2691.62 2694.85 2699.71 2700.74 2701.97 2702.38 2702.81 2702.77 2702.05 2700.86 2698.20 2698.79 2699.46 2700.40 2703.46 2704.49 2707.62 2717.07 2721.92 2732.37 2741.00 2773.12 2786.92 2792.66 2796.98 2797.02 2800.07 2801.69 2802.12 2803.40 2803.47 2801.31 2801.12 2798.45 2798.33 2796.15 2794.59 2794.31 2794.22 2789.50 2789.70 2786.74 2781.70 2777.42 2779.26 2776.23 2772.55 2767.74 2766.48 2769.30 2768.90 2768.83 2768.91 2767.03 2764.74 2764.81 2763.44 2762.92 2761.53 2759.68 2757.42 2753.09 2751.84 2749.14 2748.08 2744.42 2739.12 2730.71 2721.95 2716.96 2712.23 2707.42 2704.74 2702.92 2701.14 2700.23 2698.32 2696.23 2694.08 2692.45 2691.14 2689.81 2688.26 2687.20 2684.34 2682.21 2679.23 2674.21 2672.10 2670.30 2666.59 2663.66 2661.70 2658.91 2657.59 2656.01 2654.01 2652.43 2651.32 2650.52 2648.63 2646.66 2644.42 2640.94 2635.33 2630.56 2628.68 2626.32 2623.24 2618.07 2615.60 2611.94 2608.72 2604.07 2598.95 2593.28 2591.77 2582.32 2579.20 2579.79 2578.28 2574.45 2572.66 2571.33 2571.44 2572.11 2570.53 2567.96 2565.61 2562.35 2559.29 2556.44 2553.77 2552.44 2550.62 2551.03 2547.20 2543.96 2541.60 2539.67 2538.61 2536.40 2533.42 2530.06 2527.79 2526.31 2524.58 2523.61 2520.83 2519.36 2517.65 2515.92 2515.27 2513.63 2511.35 2509.64 2504.96 2503.38 2504.31 2502.91 2502.38 2500.72 2499.26 2497.38 2493.91 2491.38 2488.07 2485.50 2483.53 2481.97 2480.30 2477.04 2474.47 2472.16 2469.69 2467.72 2464.55 2462.19 2460.72 2458.68 2456.73 2454.69 2452.30 2448.91 2446.69 2444.56 2442.99 2441.33 2439.61 2438.53 2435.66 2430.86 2422.64 2413.50 2408.48 2404.04 2398.35 2398.95 2399.54 2402.01 2400.45 2399.69 2398.51 2398.74 2396.63 2392.63 2390.55 2391.00 2390.39 2392.23 2391.73 2390.60 2389.00 2386.35 2379.99 2382.37 2380.23 2377.75 2375.22 2373.07 2371.36 2369.39 2369.90 2369.56 2367.46 2365.61 2364.28 2364.04 2364.18 2363.95 2363.29 2361.56 2360.29 2359.09 2358.29 2357.94 2359.44 2359.53 2360.75 2359.33 2360.67 2361.50 2361.64 2364.29 2365.81 2365.03
2696.61 2697.29 2696.36 2697.57 2698.01 2695.42 2689.99 2686.27 2685.20 2686.13 2691.72 2693.03 2693.88 2694.66 2697.66 2702.82 2706.22 2707.22 2709.29 2708.71 2708.64 2707.60 2705.83 2704.66 2702.29 2702.43 2702.88 2703.67 2706.86 2709.25 2713.34 2722.00 2729.50 2738.72 2751.06 2773.94 2785.02 2789.74 2793.99 2797.02 2799.93 2802.98 2803.63 2803.73 2805.32 2804.23 2802.56 2800.53 2800.15 2798.70 2798.22 2797.91 2798.71 2797.29 2794.68 2793.86 2790.42 2785.29 2785.20 2782.92 2780.34 2776.29 2770.43 2771.07 2771.62 2771.18 2771.09 2769.53 2768.22 2765.52 2765.16 2763.36 2761.97 2759.92 2759.18 2755.88 2752.91 2750.65 2747.54 2743.93 2739.62 2735.94 2726.56 2720.11 2715.21 2711.72 2707.41 2706.02 2705.10 2701.15 2699.46 2696.06 2694.78 2692.95 2691.50 2690.33 2689.23 2686.58 2685.65 2683.91 2682.50 2679.74 2673.79 2669.54 2667.20 2664.57 2662.97 2661.16 2658.93 2657.43 2655.17 2653.71 2653.16 2651.91 2649.70 2648.38 2646.95 2641.97 2638.26 2633.97 2630.44 2627.87 2626.34 2622.88 2619.46 2616.17 2612.69 2607.13 2603.63 2600.03 2595.69 2589.22 2582.75 2579.46 2575.79 2573.27 2572.32 2574.12 2573.06 2572.35 2571.76 2570.33 2568.35 2563.70 2560.38 2558.51 2557.08 2555.52 2554.85 2552.65 2549.20 2547.23 2544.34 2543.24 2541.75 2539.62 2536.07 2532.66 2530.08 2527.28 2526.85 2525.11 2523.63 2522.05 2519.87 2518.96 2517.08 2515.62 2514.22 2512.57 2509.40 2504.86 2506.83 2504.97 2503.73 2502.03 2499.51 2496.78 2494.78 2491.79 2489.31 2487.79 2486.82 2484.43 2482.46 2480.34 2477.23 2474.98 2472.45 2469.71 2467.49 2465.67 2461.70 2460.08 2458.58 2456.18 2453.28 2451.25 2449.29 2447.80 2445.86 2444.20 2443.45 2442.45 2439.22 2435.16 2427.01 2419.33 2411.54 2415.21 2405.17 2401.66 2402.23 2403.41 2404.21 2402.41 2400.40 2399.96 2397.64 2396.41 2393.25 2392.60 2396.30 2395.09 2394.36 2393.01 2393.63 2391.90 2385.63 2382.22 2381.94 2377.32 2378.13 2376.46 2374.14 2373.35 2373.06 2372.45 2369.71 2369.38 2368.90 2369.38 2369.77 2369.63 2367.44 2366.44 2364.83 2363.83 2363.93 2364.63 2365.12 2364.10 2363.03 2363.71 2365.37 2366.98 2366.20 2367.61 2368.57 2367.66
2704.08 2704.12 2700.87 2701.52 2703.40 2697.70 2693.04 2690.16 2690.39 2691.44 2695.97 2698.64 2698.62 2701.34 2707.19 2708.99 2714.44 2715.57 2715.12 2714.14 2713.06 2712.00 2710.13 2708.14 2706.07 2706.19 2706.85 2707.74 2710.81 2713.58 2719.26 2727.90 2737.65 2745.12 2761.94 2777.73 2788.28 2788.36 2791.76 2798.07 2800.53 2802.40 2804.17 2805.33 2803.14 2802.75 2804.26 2803.33 2801.12 2800.43 2799.73 2799.56 2799.82 2801.19 2799.58 2798.00 2797.51 2793.68 2791.93 2789.13 2785.64 2783.31 2779.77 2774.01 2775.39 2774.50 2772.67 2772.27 2771.48 2769.97 2765.68 2764.87 2763.26 2759.29 2758.15 2756.59 2754.48 2751.36 2748.78 2746.99 2741.73 2737.77 2732.08 2725.48 2717.95 2714.27 2710.79 2708.01 2705.92 2702.56 2700.43 2697.65 2695.41 2694.34 2692.22 2691.12 2689.52 2687.98 2686.67 2685.88 2683.67 2680.37 2676.99 2670.16 2667.28 2665.02 2663.78 2662.79 2661.01 2658.54 2656.64 2655.12 2654.28 2652.41 2651.01 2648.68 2645.56 2642.77 2639.12 2634.23 2631.85 2630.16 2627.56 2624.72 2621.69 2618.79 2617.83 2613.56 2608.91 2603.88 2600.02 2594.49 2586.84 2583.25 2580.34 2574.01 2572.61 2572.34 2573.85 2573.35 2574.53 2571.57 2569.51 2567.23 2563.88 2562.99 2560.91 2559.82 2557.15 2554.75 2551.96 2550.39 2549.34 2546.23 2544.01 2541.23 2538.81 2536.17 2533.48 2530.72 2529.08 2526.21 2524.56 2523.32 2522.02 2520.90 2519.14 2518.03 2516.51 2514.86 2513.26 2508.69 2508.56 2506.52 2505.38 2502.85 2499.31 2498.65 2495.68 2493.79 2491.82 2490.58 2488.16 2486.39 2485.13 2483.10 2480.43 2478.04 2475.23 2473.24 2471.20 2468.33 2465.74 2462.20 2460.00 2458.41 2456.02 2454.54 2453.26 2449.76 2448.36 2447.52 2447.79 2446.43 2443.73 2439.02 2430.36 2422.76 2415.69 2421.29 2416.76 2406.76 2404.37 2405.11 2403.31 2402.30 2401.16 2402.38 2402.06 2400.26 2397.75 2397.11 2398.17 2399.09 2396.81 2395.25 2395.26 2392.17 2388.92 2383.66 2385.07 2382.60 2380.40 2379.06 2377.80 2379.47 2378.20 2376.42 2373.24 2373.17 2374.64 2375.52 2374.79 2373.72 2371.67 2370.19 2369.09 2369.15 2368.45 2367.36 2367.29 2366.47 2367.14 2368.95 2370.58 2373.04 2373.75 2373.04 2372.42 2371.88
2709.44 2708.74 2706.21 2704.36 2703.10 2701.09 2696.20 2696.05 2695.00 2697.03 2703.42 2706.09 2708.81 2711.84 2714.11 2717.19 2720.52 2720.85 2717.41 2719.39 2717.49 2715.06 2714.52 2713.78 2711.35 2710.15 2711.02 2712.42 2715.37 2720.07 2724.88 2732.35 2741.58 2750.41 2764.89 2782.80 2788.93 2789.43 2791.02 2796.39 2804.34 2804.79 2804.87 2806.08 2804.53 2803.57 2803.61 2804.29 2803.96 2802.56 2801.54 2800.83 2801.13 2801.14 2801.31 2800.83 2800.39 2798.61 2797.61 2794.81 2790.25 2788.08 2784.39 2781.22 2776.80 2776.60 2773.82 2774.44 2772.96 2772.80 2771.02 2767.98 2764.67 2762.34 2759.52 2758.20 2755.92 2752.64 2749.56 2748.30 2743.65 2740.97 2735.05 2730.68 2721.63 2715.92 2711.96 2707.68 2706.08 2703.83 2700.45 2698.66 2696.20 2694.57 2692.80 2691.53 2690.86 2689.08 2688.48 2686.78 2684.20 2681.10 2677.21 2671.86 2668.69 2665.92 2664.92 2663.63 2662.37 2660.32 2658.32 2657.15 2655.07 2653.55 2651.50 2647.62 2645.78 2643.25 2640.36 2637.37 2633.70 2631.24 2628.79 2626.33 2623.84 2620.94 2618.84 2617.19 2613.68 2608.48 2603.05 2599.30 2593.26 2588.84 2583.83 2580.41 2573.05 2572.34 2572.40 2574.55 2576.36 2573.72 2572.13 2570.53 2568.94 2565.61 2562.25 2562.02 2558.82 2555.95 2552.90 2552.43 2549.56 2547.75 2544.93 2543.53 2541.02 2538.98 2536.26 2533.43 2531.15 2529.21 2527.20 2525.54 2524.50 2522.86 2521.52 2520.89 2518.51 2519.45 2518.25 2511.88 2508.59 2508.49 2506.75 2504.67 2502.74 2500.01 2498.54 2497.03 2494.80 2492.44 2491.24 2489.84 2487.03 2485.75 2483.03 2480.61 2478.31 2475.99 2473.89 2470.74 2467.68 2465.66 2463.41 2461.02 2459.65 2458.02 2456.50 2454.97 2452.13 2451.88 2450.86 2448.76 2446.28 2443.84 2432.67 2426.33 2429.40 2424.33 2420.84 2414.94 2407.98 2405.06 2405.19 2402.05 2401.33 2401.17 2401.42 2400.07 2400.53 2400.89 2400.69 2404.40 2402.32 2397.75 2397.29 2395.77 2395.92 2388.62 2386.85 2384.75 2383.29 2383.19 2385.13 2383.52 2381.89 2380.19 2380.50 2380.46 2378.49 2379.89 2378.43 2376.82 2375.64 2374.88 2372.16 2371.51 2372.49 2369.69 2371.40 2372.59 2373.46 2374.39 2375.06 2378.04 2376.52 2376.30 2374.84 2373.20
2714.27 2713.30 2710.64 2709.06 2706.84 2703.02 2702.13 2701.33 2701.33 2704.19 2709.54 2712.84 2715.13 2719.45 2720.43 2722.22 2724.34 2726.13 2723.18 2722.33 2721.95 2720.06 2719.47 2719.29 2716.42 2714.38 2715.47 2716.67 2719.93 2724.41 2731.42 2735.29 2745.36 2752.94 2766.04 2778.56 2787.57 2791.34 2794.35 2797.93 2803.56 2806.86 2806.90 2806.59 2805.82 2804.77 2804.92 2804.67 2805.88 2804.50 2803.25 2802.93 2803.54 2802.91 2804.70 2802.94 2803.86 2802.02 2803.22 2801.59 2797.55 2791.28 2789.37 2784.37 2780.93 2778.67 2777.49 2776.77 2775.77 2775.61 2773.33 2771.00 2767.06 2763.51 2762.50 2760.14 2757.25 2754.43 2751.87 2749.06 2746.37 2741.48 2738.81 2734.64 2725.87 2718.92 2713.93 2709.62 2706.00 2704.43 2702.10 2699.58 2697.65 2695.12 2693.72 2693.38 2691.54 2690.51 2688.85 2685.15 2682.88 2680.56 2677.72 2673.31 2670.05 2667.03 2665.71 2664.90 2663.49 2661.76 2660.47 2658.33 2656.18 2654.01 2651.19 2648.34 2646.36 2643.99 2641.97 2639.62 2636.63 2633.22 2630.87 2628.09 2625.56 2622.62 2621.75 2620.03 2616.86 2613.59 2607.59 2602.65 2597.72 2593.17 2588.03 2581.21 2578.46 2573.31 2572.32 2572.39 2576.51 2574.68 2573.12 2572.36 2570.05 2568.52 2568.27 2565.68 2562.80 2558.07 2553.32 2551.60 2549.36 2551.45 2549.41 2545.48 2542.92 2541.06 2538.51 2536.38 2533.59 2531.66 2529.60 2527.94 2526.68 2525.41 2525.02 2524.22 2522.52 2520.70 2518.69 2514.82 2511.52 2510.06 2508.62 2506.01 2504.08 2502.61 2500.58 2498.45 2496.37 2494.79 2493.43 2492.16 2490.10 2486.97 2484.86 2483.57 2480.98 2478.92 2476.21 2473.21 2470.84 2468.32 2466.09 2464.84 2462.71 2459.06 2458.39 2456.46 2454.97 2454.45 2451.75 2450.48 2447.83 2444.10 2439.31 2434.80 2433.24 2429.28 2426.07 2418.19 2413.51 2409.21 2410.87 2408.23 2407.20 2406.68 2408.67 2408.67 2408.61 2409.71 2411.33 2407.99 2407.03 2404.28 2399.48 2401.60 2399.04 2393.63 2388.86 2389.51 2388.33 2385.77 2390.20 2388.45 2385.22 2386.01 2384.91 2383.64 2382.67 2383.09 2380.99 2378.00 2375.69 2375.04 2375.63 2373.98 2376.86 2376.10 2376.68 2377.04 2376.85 2376.67 2378.17 2378.88 2375.87 2374.95 2373.33 2372.49
2717.29 2718.26 2718.30 2714.35 2711.25 2709.25 2706.73 2705.95 2706.29 2708.15 2712.99 2719.64 2722.71 2725.95 2726.71 2727.27 2728.66 2730.10 2727.60 2724.21 2724.66 2725.18 2723.71 2723.21 2721.30 2719.42 2719.92 2721.19 2723.29 2728.56 2733.38 2738.76 2748.43 2756.60 2766.54 2781.33 2788.37 2792.44 2793.89 2800.63 2805.06 2809.88 2809.99 2809.22 2809.69 2807.16 2806.28 2807.11 2807.61 2806.59 2805.50 2804.98 2804.99 2807.39 2808.30 2807.64 2806.69 2805.74 2808.14 2806.80 2803.95 2797.84 2792.99 2788.75 2784.98 2782.22 2780.54 2779.70 2779.26 2778.31 2776.24 2774.71 2770.34 2766.23 2763.21 2761.76 2760.16 2755.74 2753.56 2749.97 2746.00 2743.95 2740.14 2737.64 2728.55 2721.66 2716.66 2711.78 2707.93 2705.80 2702.86 2701.10 2699.83 2697.52 2695.83 2694.57 2693.86 2690.82 2687.76 2685.66 2682.14 2679.52 2677.05 2674.15 2671.85 2667.34 2666.96 2666.28 2664.96 2663.89 2661.39 2658.91 2657.01 2654.52 2651.48 2649.20 2646.71 2644.90 2642.67 2640.70 2638.37 2634.91 2632.20 2629.35 2626.93 2623.99 2623.58 2620.93 2617.78 2614.70 2612.36 2608.52 2602.88 2598.66 2594.75 2591.08 2584.98 2578.69 2575.99 2573.86 2577.36 2578.15 2577.71 2574.41 2574.39 2572.21 2569.55 2567.92 2563.36 2558.32 2557.52 2557.99 2552.37 2553.28 2551.00 2547.06 2545.71 2543.45 2541.03 2538.74 2537.02 2535.52 2533.00 2530.77 2530.03 2529.71 2528.59 2526.27 2525.74 2523.18 2520.55 2517.47 2515.64 2511.92 2507.64 2505.97 2505.53 2503.20 2501.39 2499.40 2499.21 2498.09 2495.90 2494.35 2491.98 2490.24 2489.03 2486.46 2484.34 2481.38 2478.82 2477.26 2473.70 2471.44 2468.73 2467.29 2464.47 2461.21 2458.94 2456.68 2454.21 2453.91 2454.95 2453.83 2452.27 2449.91 2444.51 2437.94 2437.31 2431.43 2432.16 2424.28 2421.64 2420.86 2417.40 2414.47 2412.86 2413.56 2414.43 2415.39 2416.94 2419.22 2420.08 2419.88 2414.64 2408.80 2401.86 2402.92 2401.29 2398.34 2396.08 2395.34 2393.86 2391.51 2391.01 2391.51 2389.66 2389.54 2385.52 2383.29 2383.22 2384.49 2382.81 2379.29 2379.19 2379.52 2378.75 2379.21 2381.71 2381.26 2380.48 2380.54 2376.68 2375.45 2375.72 2375.07 2374.91 2373.69 2373.89 2374.80
2723.02 2721.78 2722.54 2719.64 2715.87 2714.03 2711.62 2710.73 2710.78 2713.45 2716.89 2720.57 2727.94 2729.09 2729.43 2730.15 2731.63 2732.61 2730.99 2727.70 2727.89 2729.09 2728.26 2727.29 2725.63 2723.58 2724.14 2725.69 2727.77 2731.20 2736.80 2744.58 2751.36 2761.10 2767.55 2781.95 2791.89 2793.20 2797.25 2800.18 2806.16 2810.88 2812.80 2812.76 2810.58 2810.10 2808.75 2807.58 2809.95 2809.72 2809.27 2809.21 2808.23 2808.28 2810.59 2811.12 2810.69 2810.97 2811.08 2809.66 2808.40 2804.77 2799.90 2795.15 2791.05 2787.24 2784.61 2784.60 2783.10 2780.40 2778.00 2776.84 2773.86 2769.96 2768.45 2764.25 2761.84 2758.53 2753.97 2751.76 2749.62 2744.79 2742.44 2739.20 2733.01 2728.95 2723.27 2716.98 2709.90 2708.05 2704.93 2702.72 2701.60 2699.96 2697.72 2696.59 2693.22 2690.19 2687.72 2685.94 2681.82 2679.48 2677.36 2674.92 2673.07 2670.87 2667.91 2668.10 2666.87 2665.60 2662.77 2659.88 2657.48 2654.65 2652.78 2649.99 2647.89 2646.01 2643.99 2641.35 2639.15 2635.91 2632.65 2630.82 2628.13 2626.32 2624.32 2621.24 2618.34 2616.25 2613.65 2612.51 2609.85 2605.30 2601.62 2598.39 2594.30 2590.40 2584.06 2577.40 2579.07 2578.06 2575.69 2573.28 2573.05 2572.41 2571.07 2567.96 2562.09 2560.26 2558.46 2556.80 2556.22 2554.58 2552.11 2549.51 2549.03 2546.76 2544.43 2542.61 2540.85 2538.60 2535.80 2534.52 2533.97 2532.68 2530.73 2528.79 2527.33 2525.43 2522.36 2520.12 2517.33 2512.41 2509.70 2507.60 2506.34 2505.11 2502.69 2501.99 2500.79 2499.68 2497.99 2495.76 2494.03 2492.95 2491.43 2489.19 2486.01 2483.00 2481.78 2478.97 2474.85 2471.25 2471.71 2469.92 2468.69 2467.11 2465.17 2464.00 2462.11 2460.92 2457.46 2456.42 2455.14 2452.21 2449.42 2442.52 2441.58 2440.08 2437.33 2432.66 2434.62 2430.25 2424.30 2419.17 2416.91 2418.56 2420.34 2422.07 2424.39 2426.48 2422.64 2420.71 2415.99 2413.11 2407.75 2405.45 2404.12 2400.83 2397.96 2397.48 2396.05 2391.79 2390.53 2388.49 2390.29 2388.49 2388.14 2387.53 2385.50 2386.82 2384.20 2383.94 2386.18 2386.19 2386.12 2388.37 2388.71 2389.78 2387.47 2385.46 2383.81 2381.51 2379.87 2378.63 2378.00 2380.12 2379.83 2378.16
2729.78 2727.74 2726.54 2724.83 2721.22 2716.60 2714.75 2714.72 2716.33 2720.43 2730.55 2729.50 2728.34 2731.81 2731.43 2732.07 2734.29 2735.06 2733.47 2730.80 2731.03 2732.69 2732.34 2731.83 2731.27 2729.27 2729.17 2730.38 2732.23 2735.36 2739.49 2747.31 2755.64 2764.29 2771.32 2785.55 2796.33 2797.20 2798.78 2798.78 2806.32 2810.73 2813.48 2815.02 2815.15 2814.17 2812.63 2812.58 2810.44 2812.14 2811.65 2811.52 2811.05 2809.55 2811.99 2812.47 2812.61 2812.52 2812.74 2812.52 2810.84 2809.25 2805.22 2801.06 2796.90 2792.95 2789.68 2788.09 2787.60 2784.36 2783.97 2781.67 2778.96 2774.02 2771.20 2765.58 2761.60 2760.43 2757.82 2754.19 2750.00 2744.79 2743.43 2739.05 2737.03 2733.23 2730.85 2725.25 2716.21 2710.53 2708.93 2705.71 2703.66 2701.66 2699.78 2697.83 2692.56 2690.64 2687.82 2684.84 2682.55 2680.20 2677.79 2676.01 2674.78 2673.30 2672.25 2669.54 2667.54 2665.75 2663.81 2660.12 2657.25 2654.92 2653.56 2651.10 2649.14 2646.61 2644.30 2641.34 2639.31 2635.94 2633.05 2631.78 2630.09 2628.33 2625.52 2622.08 2620.12 2618.05 2617.14 2615.27 2613.05 2611.84 2608.96 2606.41 2602.41 2600.41 2599.32 2593.92 2586.46 2577.92 2574.88 2572.86 2573.00 2572.11 2570.61 2568.75 2566.66 2563.00 2561.31 2558.61 2556.81 2555.08 2553.58 2551.39 2551.79 2550.04 2547.85 2545.51 2544.47 2540.88 2539.16 2537.57 2535.47 2534.85 2532.97 2531.48 2530.86 2528.95 2525.80 2521.86 2519.43 2517.50 2513.46 2509.52 2508.57 2506.70 2505.03 2504.48 2503.62 2501.75 2500.06 2497.98 2496.84 2495.94 2494.08 2490.68 2486.69 2485.09 2482.15 2479.55 2476.78 2477.07 2474.37 2473.36 2472.48 2470.93 2469.19 2467.94 2466.12 2464.14 2462.67 2460.39 2457.14 2455.39 2451.37 2445.99 2443.88 2442.66 2442.18 2440.52 2439.68 2436.86 2432.97 2428.48 2425.14 2422.20 2424.33 2427.18 2427.64 2427.82 2427.73 2424.51 2421.49 2417.48 2412.77 2404.36 2406.47 2401.18 2396.61 2394.83 2392.88 2391.51 2391.13 2391.79 2392.08 2388.63 2391.43 2392.06 2390.92 2389.04 2391.41 2392.04 2394.68 2391.07 2393.42 2393.65 2393.39 2393.66 2392.13 2389.88 2388.25 2386.09 2386.20 2387.60 2388.16 2386.28 2385.68 2386.28
2734.25 2733.96 2732.23 2729.56 2724.64 2719.71 2718.86 2719.75 2723.73 2732.14 2736.71 2733.81 2734.19 2732.83 2733.25 2735.54 2737.63 2738.82 2735.25 2733.66 2734.67 2735.13 2735.09 2734.99 2734.44 2733.64 2734.20 2735.21 2736.99 2739.63 2743.48 2752.95 2755.81 2767.67 2774.49 2791.16 2795.42 2800.60 2799.32 2802.01 2803.18 2810.83 2811.39 2813.38 2815.49 2816.54 2815.78 2815.65 2813.30 2813.65 2814.59 2814.39 2813.80 2812.40 2812.64 2813.49 2813.61 2813.28 2814.66 2814.99 2814.53 2813.02 2810.14 2806.21 2801.76 2798.80 2795.87 2791.39 2790.32 2787.07 2787.31 2785.59 2784.33 2778.85 2774.92 2770.77 2765.16 2760.82 2757.71 2754.45 2751.21 2747.30 2744.13 2742.23 2739.69 2737.20 2733.84 2731.09 2726.27 2716.68 2712.34 2710.49 2704.24 2703.00 2700.92 2698.34 2695.05 2690.93 2688.16 2685.74 2683.46 2681.85 2679.47 2678.44 2676.87 2676.44 2674.48 2672.02 2668.70 2666.20 2664.03 2660.96 2657.28 2656.01 2654.43 2652.70 2649.09 2647.13 2644.43 2641.95 2639.62 2637.03 2635.18 2633.14 2630.71 2628.63 2626.21 2623.85 2622.80 2621.70 2620.88 2619.41 2617.59 2615.86 2613.64 2611.37 2608.71 2605.90 2603.40 2597.97 2593.72 2585.89 2578.61 2577.02 2572.32 2571.40 2571.42 2567.21 2564.06 2561.47 2559.07 2556.59 2556.89 2556.16 2554.55 2554.27 2552.44 2551.92 2550.56 2548.50 2546.42 2543.97 2541.99 2540.49 2539.57 2537.13 2536.37 2534.99 2534.56 2533.34 2528.35 2524.67 2520.60 2517.42 2515.18 2512.04 2510.45 2508.39 2508.52 2507.14 2505.29 2503.59 2501.40 2500.18 2498.98 2497.73 2492.77 2490.58 2487.21 2484.41 2483.62 2482.54 2481.75 2479.92 2478.73 2476.03 2474.86 2473.56 2471.98 2470.58 2469.57 2467.96 2467.11 2466.29 2464.06 2460.05 2457.26 2451.28 2448.05 2446.16 2446.16 2446.61 2442.58 2441.77 2439.40 2434.57 2430.69 2427.28 2427.94 2429.97 2432.47 2430.68 2428.24 2425.80 2422.81 2417.77 2413.92 2410.89 2402.85 2399.77 2397.15 2394.39 2392.36 2393.29 2390.49 2391.07 2393.29 2393.16 2394.97 2391.68 2393.77 2392.41 2397.34 2400.48 2399.71 2396.66 2396.08 2396.72 2396.82 2395.83 2393.78 2393.29 2391.90 2392.44 2392.26 2391.36 2391.27 2391.22 2390.98 2391.98
2739.27 2739.23 2738.22 2733.10 2727.55 2725.80 2725.93 2727.82 2729.93 2738.35 2739.18 2740.75 2738.78 2737.29 2736.63 2736.96 2738.94 2739.14 2738.36 2739.08 2739.59 2738.63 2738.62 2738.68 2738.51 2738.66 2739.24 2740.05 2741.99 2744.54 2748.12 2756.06 2761.22 2774.31 2782.20 2794.81 2797.71 2802.51 2803.30 2805.14 2805.43 2808.61 2811.75 2813.56 2814.67 2816.59 2815.86 2815.79 2814.95 2815.17 2816.10 2816.39 2816.14 2816.02 2814.01 2814.07 2813.24 2813.81 2814.78 2817.16 2816.50 2816.55 2815.04 2810.64 2805.84 2803.62 2799.63 2796.77 2791.75 2790.51 2789.24 2789.02 2785.37 2783.34 2779.78 2775.58 2769.86 2764.83 2759.84 2756.39 2752.92 2749.94 2746.09 2743.42 2740.82 2737.93 2735.54 2733.05 2728.29 2722.74 2712.98 2711.83 2709.51 2704.24 2701.60 2700.01 2696.82 2693.00 2689.65 2687.56 2686.55 2684.62 2682.72 2680.73 2680.17 2677.87 2675.80 2673.49 2670.14 2667.38 2664.96 2661.59 2658.39 2656.81 2654.59 2652.51 2650.10 2647.75 2645.38 2644.41 2641.21 2639.76 2637.11 2634.42 2632.24 2629.99 2627.25 2626.39 2625.48 2624.76 2623.57 2622.38 2620.94 2619.25 2618.15 2615.40 2612.13 2610.21 2606.87 2602.13 2597.26 2591.34 2584.37 2579.99 2578.06 2577.96 2579.29 2575.30 2572.76 2566.09 2563.90 2560.10 2557.58 2554.21 2554.90 2553.39 2553.93 2551.73 2551.06 2549.10 2547.67 2545.65 2544.87 2543.88 2543.07 2539.86 2538.65 2538.64 2536.77 2534.19 2530.44 2525.94 2521.46 2519.79 2517.89 2516.18 2514.09 2513.32 2511.65 2509.04 2507.61 2505.15 2502.90 2501.62 2500.04 2495.26 2492.32 2490.40 2488.03 2485.43 2483.74 2483.56 2481.89 2481.62 2479.76 2478.53 2477.02 2476.51 2475.18 2474.17 2473.61 2472.92 2470.68 2469.23 2465.96 2463.71 2461.55 2457.10 2454.56 2454.12 2454.44 2454.46 2452.25 2449.35 2446.32 2439.58 2434.64 2432.83 2430.43 2434.36 2432.94 2430.13 2428.84 2424.63 2421.35 2419.82 2412.37 2408.37 2404.87 2402.90 2398.48 2395.38 2396.58 2396.32 2396.98 2393.52 2396.91 2397.56 2398.76 2400.27 2399.66 2399.02 2400.16 2401.06 2396.96 2395.37 2396.46 2397.81 2398.92 2398.16 2398.50 2398.27 2398.35 2397.80 2397.00 2397.50 2397.55 2398.12 2398.11 2399.01
2744.14 2743.60 2743.72 2741.13 2737.08 2732.07 2732.20 2734.80 2737.22 2739.85 2741.77 2741.74 2742.64 2740.43 2743.79 2740.82 2742.53 2742.95 2742.28 2742.72 2742.63 2742.59 2742.89 2743.39 2743.46 2743.63 2744.21 2745.24 2747.12 2749.55 2754.13 2759.79 2766.83 2777.81 2796.80 2796.45 2800.69 2803.31 2805.90 2806.38 2806.86 2808.55 2811.11 2812.46 2814.12 2817.67 2817.93 2817.56 2818.27 2817.46 2817.31 2819.45 2819.98 2818.74 2817.39 2815.39 2814.19 2815.08 2816.00 2816.79 2817.68 2817.58 2816.41 2814.62 2808.76 2807.42 2804.13 2801.77 2796.33 2791.89 2793.11 2790.75 2787.72 2784.55 2782.02 2778.22 2772.64 2768.23 2764.43 2758.95 2754.98 2751.30 2747.84 2744.62 2742.80 2739.41 2738.37 2735.52 2731.50 2726.27 2720.36 2713.08 2710.59 2707.88 2705.50 2701.01 2698.29 2695.39 2691.41 2690.41 2689.02 2686.77 2684.78 2683.56 2681.42 2679.82 2677.33 2673.80 2671.62 2667.96 2665.67 2663.42 2660.58 2656.71 2654.90 2653.90 2651.69 2649.21 2647.56 2645.62 2644.96 2642.23 2639.30 2636.98 2634.41 2631.36 2629.66 2628.37 2628.11 2628.06 2626.06 2624.53 2623.69 2622.98 2620.47 2617.19 2615.83 2613.10 2609.77 2606.76 2603.15 2599.63 2591.27 2584.20 2581.92 2580.71 2580.36 2579.79 2577.02 2573.83 2571.68 2569.54 2565.78 2561.69 2561.62 2556.86 2553.85 2552.17 2551.62 2547.86 2547.81 2548.54 2547.54 2547.04 2544.83 2541.83 2538.81 2538.78 2536.77 2535.03 2531.64 2527.65 2525.32 2522.33 2520.39 2518.98 2518.34 2515.27 2513.28 2510.84 2507.63 2503.08 2499.83 2498.57 2497.58 2495.99 2494.15 2492.21 2488.91 2488.58 2487.44 2482.84 2483.11 2482.67 2481.76 2481.58 2480.57 2479.76 2478.61 2478.17 2477.52 2476.29 2473.26 2470.83 2468.94 2467.67 2465.00 2462.80 2463.08 2462.20 2461.56 2459.84 2458.59 2457.33 2451.82 2448.20 2439.59 2436.80 2435.50 2434.15 2433.58 2431.75 2427.32 2422.15 2420.01 2416.31 2414.11 2414.28 2412.87 2410.17 2404.12 2398.48 2402.32 2402.36 2397.63 2396.17 2397.85 2403.10 2403.02 2404.37 2403.21 2403.98 2402.77 2403.60 2401.75 2404.31 2401.06 2402.43 2402.42 2401.36 2401.89 2402.76 2402.68 2402.11 2401.69 2402.21 2402.39 2403.40 2403.68 2405.08
2747.10 2746.58 2746.98 2747.17 2746.68 2742.51 2740.23 2741.31 2744.06 2744.16 2746.83 2747.83 2745.26 2744.86 2746.84 2746.06 2747.11 2747.37 2747.03 2747.07 2747.33 2747.71 2748.23 2748.34 2748.49 2748.94 2749.73 2750.46 2752.26 2754.61 2758.73 2764.16 2774.98 2787.88 2803.02 2805.30 2804.59 2805.84 2808.15 2808.86 2809.22 2812.12 2814.15 2812.95 2813.97 2816.82 2818.47 2821.18 2820.43 2819.74 2819.51 2821.67 2823.13 2821.80 2819.85 2817.20 2816.81 2816.53 2816.28 2817.43 2817.95 2818.22 2818.77 2817.70 2813.31 2810.71 2806.35 2802.20 2800.08 2795.81 2794.72 2793.02 2790.61 2785.99 2785.13 2781.42 2777.44 2772.12 2768.38 2761.25 2757.18 2753.52 2750.85 2747.13 2745.63 2742.89 2739.55 2738.20 2734.61 2729.61 2724.46 2717.90 2713.17 2711.96 2706.96 2702.20 2699.64 2697.36 2694.73 2692.32 2690.73 2689.03 2687.19 2685.32 2682.52 2680.14 2677.06 2674.41 2672.47 2670.21 2666.75 2665.75 2662.00 2658.62 2656.08 2654.89 2653.25 2651.32 2651.85 2650.79 2647.33 2643.95 2641.67 2638.84 2636.33 2635.27 2631.80 2631.38 2631.80 2630.56 2629.07 2627.70 2626.19 2624.42 2620.81 2619.98 2618.56 2616.14 2613.29 2609.78 2606.52 2603.49 2601.46 2592.43 2584.88 2582.08 2580.62 2579.72 2578.62 2577.30 2575.43 2573.40 2572.56 2570.40 2567.70 2563.47 2560.08 2558.89 2553.77 2550.48 2548.97 2550.08 2552.17 2549.86 2547.37 2545.15 2540.69 2539.59 2538.77 2535.34 2533.52 2531.18 2528.14 2524.44 2523.27 2520.98 2519.26 2515.24 2513.04 2508.37 2504.12 2507.49 2505.45 2502.68 2498.73 2498.08 2496.83 2494.74 2493.01 2492.51 2490.65 2488.66 2485.11 2482.95 2483.13 2484.73 2483.71 2481.92 2480.85 2479.65 2479.28 2478.37 2475.56 2473.69 2471.71 2471.66 2470.93 2471.88 2470.03 2469.06 2467.93 2464.12 2462.47 2458.33 2452.13 2448.50 2444.51 2443.64 2443.82 2437.18 2432.22 2430.45 2428.12 2425.56 2424.71 2424.05 2422.34 2422.07 2419.60 2416.00 2411.01 2407.66 2404.32 2404.51 2402.53 2402.08 2406.29 2407.59 2407.48 2408.70 2407.44 2409.49 2407.43 2404.69 2404.81 2407.72 2407.07 2406.27 2405.95 2406.19 2406.88 2406.63 2406.10 2406.58 2406.94 2406.79 2407.93 2408.23 2408.40 2408.88
2751.83 2752.54 2752.36 2752.71 2755.37 2753.20 2750.05 2749.65 2750.93 2750.25 2751.26 2751.17 2749.94 2751.08 2750.68 2751.42 2752.15 2751.96 2751.68 2751.93 2752.22 2752.68 2753.12 2753.28 2753.73 2754.28 2755.06 2756.21 2757.62 2760.56 2763.89 2773.56 2782.28 2798.63 2809.84 2812.69 2810.08 2810.32 2810.65 2812.09 2813.59 2817.55 2818.49 2816.83 2815.43 2816.28 2817.61 2820.29 2822.94 2823.00 2822.35 2822.25 2823.45 2823.65 2823.66 2821.37 2819.60 2818.94 2817.81 2818.70 2818.45 2818.98 2818.87 2819.12 2817.56 2815.38 2812.13 2806.02 2801.86 2799.63 2795.81 2796.56 2792.06 2790.52 2786.95 2783.54 2780.23 2774.60 2768.93 2765.76 2760.24 2755.71 2752.94 2749.53 2747.36 2745.57 2740.55 2739.33 2735.73 2731.26 2726.11 2722.24 2716.67 2711.68 2708.39 2705.88 2701.48 2697.88 2695.98 2694.24 2692.44 2690.36 2688.26 2686.62 2684.14 2680.88 2677.31 2674.94 2673.59 2671.79 2669.90 2667.62 2663.48 2659.76 2658.11 2657.76 2655.53 2656.73 2655.06 2652.36 2648.96 2646.81 2643.91 2641.85 2640.13 2638.55 2636.58 2634.04 2634.06 2633.76 2631.36 2628.77 2626.56 2624.91 2624.15 2623.04 2621.05 2618.08 2615.17 2612.00 2610.86 2608.29 2605.58 2601.20 2595.74 2585.62 2582.70 2579.96 2579.60 2579.45 2578.56 2578.21 2576.96 2574.23 2572.34 2570.36 2566.94 2564.07 2560.24 2558.06 2560.60 2556.68 2553.40 2549.56 2547.84 2546.35 2542.51 2540.00 2540.97 2537.97 2534.59 2530.23 2527.69 2525.10 2522.34 2518.68 2516.33 2513.87 2511.25 2511.75 2510.38 2507.62 2504.79 2502.39 2500.79 2500.86 2499.31 2497.60 2497.57 2495.66 2493.63 2491.97 2490.85 2487.87 2484.47 2485.66 2485.39 2485.06 2485.87 2485.08 2484.28 2481.98 2479.55 2476.25 2477.02 2479.72 2480.21 2478.52 2476.58 2474.71 2471.05 2465.52 2459.30 2455.83 2451.59 2447.91 2446.32 2443.52 2439.50 2436.75 2434.09 2431.82 2429.09 2428.47 2428.01 2427.88 2427.15 2426.82 2422.15 2420.18 2419.96 2415.84 2412.51 2409.75 2406.55 2409.27 2410.48 2411.45 2411.54 2412.22 2411.21 2411.14 2409.73 2408.01 2407.51 2410.10 2411.53 2411.96 2407.70 2408.97 2409.31 2410.31 2410.99 2411.66 2411.64 2411.60 2412.53 2412.57 2412.46 2413.53
2756.53 2757.69 2759.62 2760.46 2763.21 2762.18 2759.88 2757.56 2757.14 2756.66 2756.90 2756.19 2755.75 2755.63 2755.86 2756.55 2756.84 2756.80 2756.70 2757.11 2757.46 2757.84 2758.12 2758.50 2758.88 2759.60 2760.48 2761.51 2763.58 2765.91 2769.53 2782.27 2794.89 2805.92 2812.54 2817.35 2815.56 2813.60 2814.59 2815.96 2817.56 2818.39 2820.51 2818.97 2818.90 2818.64 2818.19 2819.26 2821.03 2824.25 2823.50 2824.80 2824.82 2825.50 2825.77 2825.60 2822.27 2821.81 2818.50 2819.09 2819.20 2818.50 2819.80 2819.20 2820.40 2819.76 2817.29 2813.61 2807.06 2801.70 2800.37 2795.85 2793.65 2792.68 2788.53 2785.93 2782.24 2777.85 2772.61 2767.71 2764.32 2759.16 2755.38 2751.07 2749.50 2747.51 2745.01 2740.46 2736.93 2734.33 2728.74 2724.08 2720.64 2715.28 2710.26 2706.52 2703.21 2699.50 2698.53 2696.35 2694.43 2691.84 2689.90 2688.22 2685.58 2681.50 2678.46 2676.27 2674.66 2674.53 2672.20 2668.37 2664.92 2661.76 2660.42 2661.02 2660.27 2657.90 2656.20 2654.25 2651.79 2650.25 2648.24 2645.38 2644.02 2640.80 2638.58 2638.15 2636.95 2636.41 2634.97 2631.04 2628.44 2628.45 2627.52 2624.48 2621.95 2619.55 2617.69 2615.51 2612.91 2610.26 2607.25 2605.48 2597.63 2590.12 2586.53 2585.20 2581.00 2583.62 2582.39 2580.31 2579.55 2577.95 2575.78 2575.15 2572.55 2569.98 2567.07 2564.89 2564.86 2563.93 2561.83 2559.77 2556.94 2554.19 2551.91 2548.25 2544.27 2540.71 2537.05 2534.54 2529.56 2526.01 2523.29 2522.27 2520.44 2517.54 2514.77 2509.36 2506.85 2506.84 2505.42 2503.10 2502.93 2503.07 2500.99 2500.22 2498.78 2497.55 2494.77 2495.34 2493.45 2488.79 2487.26 2485.59 2488.26 2489.41 2489.43 2488.09 2487.46 2486.74 2481.80 2484.55 2488.10 2487.47 2484.92 2481.68 2480.61 2477.27 2469.17 2459.46 2458.78 2459.02 2455.74 2448.76 2445.55 2447.17 2445.13 2441.73 2439.32 2431.46 2431.19 2430.84 2431.74 2431.45 2429.79 2429.02 2428.70 2428.35 2426.57 2420.96 2416.96 2416.20 2411.83 2410.49 2410.61 2414.05 2412.85 2416.26 2414.67 2413.14 2414.86 2413.34 2411.35 2411.97 2414.56 2414.92 2413.90 2413.73 2414.16 2414.93 2415.98 2415.47 2415.58 2414.26 2414.79 2415.73 2416.21 2418.06
2760.92 2763.34 2765.35 2766.90 2768.60 2769.49 2767.66 2766.11 2764.56 2763.79 2763.59 2762.49 2761.83 2761.81 2761.79 2761.90 2761.94 2761.86 2761.76 2762.25 2762.44 2763.08 2763.38 2763.75 2764.28 2764.90 2765.87 2767.18 2769.06 2771.31 2775.11 2794.26 2804.56 2811.52 2818.29 2821.63 2819.16 2815.79 2817.57 2818.39 2821.27 2821.91 2823.47 2822.98 2823.00 2822.01 2820.96 2820.51 2820.31 2822.83 2824.76 2825.59 2827.51 2829.56 2829.71 2828.89 2826.33 2821.99 2819.82 2818.83 2820.52 2819.68 2820.55 2820.61 2821.65 2822.07 2821.10 2816.53 2811.92 2805.46 2804.43 2801.88 2795.51 2793.86 2789.49 2786.29 2784.63 2779.43 2777.40 2773.51 2767.25 2764.77 2758.98 2754.48 2753.27 2749.65 2747.05 2743.33 2738.46 2737.34 2732.92 2727.97 2722.81 2719.66 2715.02 2708.61 2706.06 2702.48 2698.87 2697.65 2695.69 2694.12 2691.86 2689.36 2685.78 2682.51 2679.61 2677.91 2678.11 2676.55 2673.93 2671.04 2667.36 2665.12 2664.13 2663.47 2660.47 2661.26 2658.36 2657.12 2655.85 2654.15 2651.11 2649.57 2647.67 2644.37 2643.13 2640.77 2639.76 2638.51 2635.65 2633.12 2632.13 2631.20 2629.01 2626.45 2624.32 2621.84 2619.87 2617.62 2615.19 2612.54 2609.75 2608.06 2603.13 2594.22 2590.29 2588.18 2586.80 2581.89 2582.55 2583.19 2581.19 2579.43 2579.32 2578.19 2576.64 2575.59 2574.21 2572.20 2571.80 2569.63 2567.23 2563.59 2558.53 2554.77 2552.54 2550.61 2548.14 2544.72 2542.42 2536.03 2531.74 2529.44 2528.36 2527.16 2525.83 2523.80 2517.24 2512.65 2511.41 2512.26 2510.17 2506.07 2503.19 2502.18 2500.39 2499.21 2497.93 2497.91 2495.43 2495.12 2492.03 2488.80 2487.63 2488.11 2489.91 2490.85 2491.39 2492.55 2493.99 2490.54 2486.44 2491.54 2490.04 2487.90 2486.62 2484.82 2477.32 2469.57 2462.41 2466.13 2464.93 2463.96 2458.21 2453.06 2446.96 2448.82 2447.39 2444.08 2442.10 2435.90 2435.36 2436.87 2434.49 2434.46 2433.81 2435.13 2431.48 2428.71 2427.83 2427.07 2422.69 2420.99 2418.29 2419.00 2413.13 2414.42 2417.12 2415.18 2418.32 2416.27 2415.91 2417.40 2415.52 2414.98 2416.65 2417.22 2416.57 2417.65 2417.69 2419.25 2420.26 2419.02 2418.26 2418.49 2419.17 2419.13 2419.65 2420.89
2764.49 2769.47 2771.04 2771.91 2773.42 2775.09 2774.69 2774.51 2773.27 2771.93 2770.04 2768.03 2767.67 2767.46 2767.20 2767.00 2766.88 2766.70 2766.83 2767.24 2767.52 2768.10 2768.62 2769.08 2769.56 2770.14 2771.28 2772.89 2774.59 2777.09 2781.85 2806.12 2811.27 2816.03 2822.42 2825.80 2823.19 2821.38 2819.63 2823.08 2823.00 2825.89 2826.51 2826.74 2826.78 2825.95 2824.14 2823.40 2822.54 2821.99 2823.91 2825.19 2827.31 2829.46 2832.94 2831.79 2829.22 2824.22 2821.93 2820.30 2820.82 2820.99 2820.28 2821.45 2821.68 2822.47 2822.37 2819.46 2815.91 2810.57 2806.97 2804.66 2801.93 2796.42 2791.60 2788.76 2786.66 2782.75 2779.72 2777.64 2771.67 2766.84 2763.04 2758.25 2753.95 2751.72 2749.18 2745.99 2741.96 2738.13 2736.71 2731.65 2726.89 2723.12 2721.09 2714.90 2708.33 2705.82 2701.82 2698.33 2697.89 2696.18 2693.03 2689.67 2686.19 2683.32 2682.37 2681.16 2680.84 2678.25 2675.64 2673.35 2671.63 2667.76 2666.17 2664.68 2663.22 2662.58 2663.11 2661.27 2658.29 2655.34 2654.64 2652.91 2650.64 2650.31 2647.99 2646.08 2642.81 2641.99 2640.05 2635.41 2635.23 2632.97 2631.47 2629.32 2626.14 2624.37 2622.03 2619.94 2618.46 2616.18 2614.10 2613.00 2611.67 2603.52 2597.22 2590.95 2592.35 2588.81 2584.42 2584.73 2584.40 2584.70 2582.84 2583.94 2581.99 2580.48 2578.60 2578.46 2575.57 2573.05 2570.81 2566.17 2562.45 2559.10 2557.14 2554.47 2551.45 2547.73 2543.42 2537.49 2534.11 2537.13 2534.20 2532.43 2528.90 2525.07 2520.84 2516.85 2512.82 2509.38 2508.11 2507.13 2507.88 2505.86 2505.43 2501.48 2499.03 2499.82 2495.59 2495.37 2495.43 2489.66 2489.07 2492.43 2495.18 2496.06 2496.72 2496.58 2496.49 2495.24 2492.66 2490.58 2490.22 2487.10 2482.16 2477.27 2469.96 2467.45 2466.90 2469.75 2464.48 2461.52 2460.31 2456.09 2453.62 2451.62 2449.18 2448.08 2445.97 2443.25 2443.42 2440.12 2437.74 2437.06 2436.99 2437.72 2435.30 2431.96 2432.23 2431.34 2428.72 2430.34 2428.14 2423.86 2419.77 2415.50 2415.93 2415.66 2419.45 2420.69 2419.83 2420.85 2419.92 2419.33 2417.31 2419.23 2419.53 2419.42 2420.76 2422.39 2420.90 2421.37 2420.42 2422.31 2422.72 2421.63 2420.39 2420.38
2770.35 2773.66 2775.79 2776.98 2778.53 2779.75 2780.61 2780.72 2780.03 2778.77 2777.27 2775.62 2774.48 2774.07 2773.08 2772.66 2772.37 2772.17 2772.03 2772.24 2772.58 2773.39 2773.77 2774.18 2774.67 2775.52 2776.63 2778.18 2779.66 2781.94 2811.61 2815.65 2818.51 2821.08 2827.07 2829.25 2826.87 2825.69 2824.19 2825.21 2826.60 2828.43 2829.96 2831.12 2830.69 2831.57 2830.74 2827.23 2825.56 2824.50 2824.19 2825.45 2826.99 2829.83 2831.19 2833.65 2832.88 2829.05 2823.84 2822.01 2820.34 2821.22 2822.87 2822.73 2823.27 2822.96 2822.44 2821.09 2818.61 2814.00 2808.58 2805.32 2803.83 2801.56 2795.88 2790.70 2788.82 2785.71 2780.45 2777.99 2775.13 2771.94 2766.70 2763.78 2758.72 2754.40 2752.59 2749.76 2746.31 2741.70 2737.62 2736.60 2729.79 2730.83 2726.68 2720.59 2713.68 2706.54 2703.93 2700.32 2698.90 2696.14 2693.31 2689.80 2687.05 2685.05 2684.49 2682.07 2681.43 2679.55 2679.22 2677.04 2674.22 2670.35 2669.49 2668.44 2667.84 2665.60 2665.18 2662.88 2661.07 2660.41 2658.89 2657.84 2656.00 2654.11 2651.54 2649.63 2646.77 2644.43 2641.64 2638.77 2635.69 2636.69 2634.23 2631.21 2629.27 2626.82 2624.79 2623.08 2621.33 2619.54 2618.39 2617.46 2614.13 2611.07 2607.53 2598.61 2596.04 2593.54 2586.36 2587.22 2586.46 2587.72 2588.28 2587.10 2586.13 2582.30 2583.11 2580.48 2578.64 2575.26 2573.43 2569.64 2566.35 2563.30 2560.25 2556.68 2553.49 2545.55 2543.01 2542.49 2542.31 2539.65 2536.87 2535.17 2531.62 2525.48 2520.70 2517.65 2515.32 2517.18 2517.24 2514.81 2511.87 2508.38 2506.92 2505.46 2504.49 2500.24 2498.05 2495.17 2493.02 2491.76 2490.30 2491.92 2496.85 2499.81 2497.65 2498.33 2495.85 2494.15 2490.22 2488.27 2485.08 2479.37 2475.86 2473.59 2471.62 2468.64 2473.42 2472.43 2470.04 2467.56 2462.96 2460.28 2461.83 2458.07 2456.26 2452.36 2451.18 2448.98 2446.40 2445.51 2443.48 2442.71 2440.31 2437.33 2438.16 2437.42 2437.83 2435.34 2435.76 2435.36 2431.51 2427.82 2425.32 2424.29 2418.75 2419.06 2421.61 2425.04 2423.96 2420.56 2421.30 2420.84 2419.42 2418.18 2420.60 2420.23 2421.13 2421.62 2422.84 2423.80 2423.07 2422.94 2422.94 2420.43 2421.00 2420.51
2776.58 2779.26 2780.84 2781.84 2783.22 2784.22 2785.34 2786.32 2785.44 2784.43 2784.28 2783.77 2782.75 2781.56 2780.41 2779.51 2778.30 2777.69 2777.44 2777.34 2777.53 2778.20 2779.00 2779.53 2780.03 2780.74 2781.67 2783.07 2784.87 2788.54 2822.55 2823.76 2825.36 2826.69 2832.66 2831.87 2830.32 2828.86 2826.84 2827.11 2828.37 2828.91 2831.14 2834.92 2834.74 2834.34 2833.35 2833.32 2832.17 2830.97 2826.89 2826.35 2826.34 2827.85 2831.73 2833.75 2832.66 2830.84 2826.92 2823.72 2821.54 2820.67 2823.44 2824.06 2824.87 2824.76 2822.02 2821.41 2819.67 2815.34 2812.21 2807.83 2804.81 2803.73 2800.27 2797.18 2789.64 2786.22 2783.07 2779.06 2776.21 2773.46 2769.90 2766.24 2764.45 2759.50 2755.21 2753.13 2749.29 2745.38 2741.15 2738.57 2736.03 2733.09 2729.14 2725.60 2720.50 2711.07 2707.14 2704.89 2701.38 2697.86 2693.93 2691.23 2689.01 2688.55 2687.24 2683.44 2681.78 2682.55 2681.80 2681.82 2677.40 2672.42 2672.73 2671.84 2670.74 2668.57 2667.36 2667.09 2665.64 2664.14 2663.45 2660.51 2658.80 2656.83 2653.37 2651.37 2650.27 2648.38 2645.84 2644.84 2640.28 2640.52 2637.82 2635.25 2633.66 2631.91 2629.41 2627.88 2626.97 2625.39 2621.60 2619.41 2617.44 2614.24 2611.19 2603.57 2597.43 2596.96 2590.34 2587.51 2589.07 2590.86 2590.00 2590.19 2586.51 2586.86 2586.23 2583.58 2582.09 2580.08 2576.48 2572.23 2567.94 2563.51 2557.85 2553.33 2549.63 2545.53 2543.26 2544.34 2542.46 2539.97 2539.44 2536.06 2528.94 2526.40 2524.94 2524.15 2524.87 2517.97 2517.57 2512.70 2511.39 2510.43 2509.06 2507.25 2504.20 2500.95 2498.28 2496.44 2496.37 2494.86 2493.68 2493.70 2493.98 2491.30 2490.60 2489.47 2490.61 2486.28 2483.04 2481.01 2482.66 2482.64 2480.53 2477.87 2476.49 2475.77 2476.87 2474.67 2472.77 2469.20 2467.58 2465.34 2463.73 2462.95 2458.10 2457.13 2455.47 2455.18 2450.12 2448.65 2448.44 2446.73 2445.24 2443.47 2440.54 2440.78 2439.58 2438.77 2436.93 2436.96 2435.68 2436.28 2434.28 2427.61 2423.63 2420.90 2420.21 2424.17 2425.95 2424.19 2421.07 2418.78 2418.21 2417.97 2421.24 2421.72 2422.29 2424.48 2421.33 2419.95 2420.94 2422.31 2422.53 2422.92 2423.54 2420.80
2782.18 2784.19 2785.70 2786.65 2787.09 2787.81 2789.97 2790.36 2790.10 2789.31 2789.54 2789.78 2789.49 2788.43 2787.15 2785.98 2784.51 2783.52 2782.93 2782.59 2782.91 2783.18 2783.83 2784.51 2784.80 2785.59 2786.67 2788.20 2790.31 2810.18 2825.08 2837.62 2834.03 2834.87 2837.30 2835.56 2833.30 2831.31 2829.82 2832.10 2831.23 2832.90 2832.14 2835.42 2836.93 2838.02 2838.66 2837.86 2836.73 2835.95 2834.79 2829.92 2828.49 2829.23 2830.26 2832.16 2834.11 2831.16 2828.33 2825.26 2823.17 2821.17 2820.79 2824.22 2824.33 2824.29 2824.69 2821.02 2819.80 2817.29 2814.62 2812.92 2808.62 2806.74 2803.40 2800.08 2796.49 2789.19 2784.83 2781.24 2777.68 2774.22 2771.56 2770.01 2766.78 2763.57 2757.71 2754.04 2750.56 2746.73 2743.17 2740.57 2737.88 2734.74 2731.99 2728.55 2724.60 2719.26 2711.43 2706.67 2702.55 2698.95 2696.18 2693.49 2691.77 2691.30 2687.85 2686.65 2685.33 2685.05 2685.97 2683.57 2679.59 2676.13 2675.19 2676.09 2674.49 2673.62 2671.78 2669.89 2669.46 2668.10 2665.26 2664.15 2660.11 2659.27 2657.39 2655.10 2653.55 2650.86 2650.03 2648.44 2645.95 2642.66 2640.72 2639.41 2636.98 2635.76 2633.70 2632.33 2630.70 2626.82 2624.46 2620.83 2619.14 2616.01 2613.36 2611.99 2601.11 2597.68 2595.85 2590.91 2592.26 2594.80 2594.47 2591.48 2587.49 2587.21 2585.79 2585.11 2583.56 2579.78 2574.12 2570.80 2566.80 2562.42 2557.08 2552.52 2552.73 2546.27 2546.16 2543.67 2543.54 2540.92 2536.41 2536.15 2533.84 2531.84 2532.98 2530.11 2525.25 2518.46 2516.95 2518.13 2515.77 2513.45 2512.47 2513.06 2509.63 2506.77 2505.09 2502.97 2499.64 2498.15 2494.92 2491.11 2489.88 2487.89 2485.36 2485.16 2484.73 2486.61 2489.93 2491.06 2491.09 2488.83 2487.43 2486.67 2486.18 2484.73 2483.03 2483.51 2481.80 2476.87 2475.29 2471.59 2467.05 2465.59 2461.74 2460.54 2460.25 2456.99 2454.76 2452.38 2452.61 2450.75 2449.56 2446.77 2444.52 2441.65 2440.19 2438.94 2440.11 2440.62 2440.03 2438.26 2436.59 2435.68 2432.63 2430.38 2426.75 2423.15 2421.57 2423.41 2419.91 2417.79 2418.72 2419.75 2418.39 2421.30 2420.86 2421.86 2422.92 2423.76 2421.56 2423.65 2423.33 2422.05 2420.53 2420.53
2789.24 2789.35 2790.07 2790.40 2789.73 2792.18 2793.10 2794.21 2794.49 2794.56 2794.83 2794.87 2794.45 2793.82 2793.17 2791.97 2790.68 2789.58 2788.63 2788.01 2787.84 2788.01 2788.54 2789.22 2789.71 2790.40 2791.46 2793.08 2800.31 2811.37 2823.29 2834.34 2843.04 2843.16 2841.16 2838.51 2835.17 2833.35 2834.09 2834.46 2834.22 2835.50 2834.50 2836.48 2837.85 2840.96 2842.06 2840.82 2839.64 2837.85 2838.92 2836.16 2831.79 2830.29 2829.58 2830.18 2831.48 2831.81 2829.55 2826.74 2824.56 2822.33 2820.21 2822.04 2823.98 2824.68 2824.34 2823.72 2820.37 2820.45 2817.64 2815.34 2812.90 2809.15 2804.23 2803.31 2798.78 2795.57 2789.07 2783.28 2779.85 2776.18 2773.15 2772.36 2768.62 2765.18 2761.76 2756.48 2753.01 2749.40 2745.69 2743.14 2739.26 2736.62 2734.58 2731.89 2728.07 2722.42 2717.62 2709.99 2705.97 2702.08 2699.76 2696.50 2695.67 2693.29 2689.31 2689.33 2688.87 2688.46 2690.15 2687.35 2685.91 2682.31 2679.22 2678.97 2677.59 2674.84 2674.26 2674.13 2672.81 2671.08 2668.73 2666.53 2666.56 2662.46 2659.79 2658.88 2657.04 2655.49 2653.66 2651.72 2649.91 2646.14 2644.19 2642.97 2642.03 2639.58 2637.68 2636.08 2634.41 2632.97 2630.02 2628.40 2625.94 2624.13 2622.12 2618.12 2605.30 2601.84 2596.97 2593.69 2592.96 2595.13 2593.43 2590.62 2588.05 2587.11 2585.72 2582.08 2576.19 2576.62 2577.30 2576.45 2572.69 2569.17 2565.40 2563.95 2560.22 2556.25 2552.58 2552.23 2548.15 2543.99 2542.42 2541.44 2539.57 2537.46 2533.66 2532.80 2527.04 2522.01 2519.89 2523.04 2520.22 2519.12 2520.07 2516.60 2513.77 2512.04 2509.72 2507.88 2500.56 2498.20 2496.31 2493.27 2489.49 2489.60 2490.75 2488.49 2492.43 2498.33 2496.61 2496.04 2498.54 2494.54 2495.49 2494.84 2491.83 2491.73 2492.80 2493.09 2486.93 2485.72 2484.39 2476.47 2476.53 2471.16 2469.92 2466.07 2465.05 2460.51 2459.90 2455.87 2456.15 2454.91 2451.54 2448.87 2446.52 2448.00 2443.48 2441.41 2440.17 2444.36 2442.96 2441.61 2442.68 2441.92 2438.18 2434.03 2434.60 2428.13 2425.93 2422.53 2420.92 2419.79 2421.22 2420.68 2417.93 2420.34 2423.38 2421.97 2421.49 2421.02 2420.53 2420.53 2420.53 2420.53 2420.53 2420.53
2795.30 2794.23 2793.61 2793.44 2794.28 2795.00 2796.34 2798.28 2799.71 2800.63 2800.55 2800.72 2799.82 2799.01 2798.39 2797.13 2796.15 2794.80 2793.70 2792.92 2792.65 2792.52 2793.23 2793.81 2794.33 2794.96 2795.93 2798.07 2800.92 2808.30 2819.24 2829.27 2840.32 2846.88 2844.07 2840.18 2837.24 2837.45 2838.23 2838.44 2837.71 2836.58 2838.02 2836.70 2839.35 2841.56 2844.80 2843.79 2842.71 2840.33 2839.11 2839.03 2837.23 2832.99 2831.80 2830.74 2831.03 2835.14 2833.59 2827.68 2825.89 2823.67 2821.38 2820.36 2824.28 2824.36 2824.47 2823.99 2823.87 2822.41 2819.43 2817.16 2814.16 2811.32 2806.35 2804.37 2800.11 2798.47 2794.19 2785.46 2782.27 2778.45 2775.03 2772.55 2771.38 2767.04 2764.27 2759.76 2755.64 2752.27 2748.78 2745.30 2742.53 2738.60 2736.08 2733.85 2731.45 2724.52 2722.70 2715.33 2708.64 2705.77 2702.02 2699.70 2698.48 2697.17 2693.77 2692.70 2695.61 2694.29 2693.53 2693.99 2692.38 2689.11 2683.10 2681.50 2678.84 2677.68 2676.39 2676.76 2675.32 2673.33 2672.78 2671.02 2669.07 2666.49 2664.73 2662.44 2662.46 2660.76 2658.48 2656.75 2653.49 2652.00 2650.75 2649.00 2646.03 2644.35 2642.22 2641.62 2639.69 2637.95 2635.72 2633.54 2632.40 2630.15 2627.35 2614.86 2608.97 2604.41 2599.73 2595.95 2592.96 2589.71 2588.36 2586.45 2583.86 2579.59 2578.08 2579.64 2580.94 2578.50 2579.00 2578.49 2575.26 2570.24 2565.91 2563.25 2561.45 2560.72 2560.05 2556.06 2547.85 2546.29 2543.05 2538.82 2537.16 2535.39 2532.33 2529.01 2526.49 2523.56 2523.18 2522.14 2524.60 2524.49 2518.95 2517.13 2512.02 2509.89 2510.30 2508.02 2505.91 2502.53 2496.99 2493.24 2492.79 2494.53 2497.38 2497.40 2499.02 2497.59 2500.82 2498.55 2498.34 2498.37 2499.56 2498.33 2499.83 2502.73 2501.54 2499.26 2492.51 2489.83 2488.65 2486.97 2484.60 2480.85 2480.48 2470.40 2467.64 2467.00 2468.01 2465.75 2463.07 2460.65 2455.75 2454.13 2453.49 2449.84 2446.73 2444.78 2447.10 2447.49 2446.18 2445.48 2445.89 2446.97 2443.20 2438.91 2436.46 2431.68 2427.47 2425.67 2424.64 2424.27 2425.34 2425.83 2422.18 2422.28 2421.25 2420.51 2421.01 2420.56 2420.39 2424.59 2420.53 2420.53 2420.53 2420.53
2801.76 2798.89 2798.02 2797.52 2797.47 2798.26 2800.22 2803.36 2806.13 2806.61 2808.27 2807.38 2806.25 2805.12 2803.94 2802.60 2801.23 2799.75 2798.81 2797.91 2797.37 2797.51 2797.64 2798.15 2798.87 2799.60 2800.69 2802.69 2805.61 2810.80 2821.74 2833.59 2844.74 2847.48 2845.48 2841.83 2840.06 2839.21 2840.84 2840.84 2840.45 2839.61 2839.62 2841.10 2841.25 2842.28 2844.80 2846.27 2845.85 2844.85 2842.12 2842.59 2842.00 2838.12 2834.38 2832.92 2832.05 2834.94 2835.09 2833.70 2827.20 2824.82 2822.58 2820.84 2823.92 2825.62 2823.65 2825.28 2825.19 2823.99 2821.51 2816.81 2816.22 2812.76 2807.92 2806.25 2803.56 2799.98 2795.98 2793.45 2786.58 2781.25 2777.31 2773.95 2773.31 2772.41 2766.14 2762.96 2758.42 2755.04 2752.71 2748.15 2745.97 2743.53 2739.25 2736.72 2733.97 2729.95 2726.69 2722.29 2718.74 2711.30 2706.10 2704.68 2701.22 2699.01 2697.69 2698.13 2698.41 2698.05 2699.20 2696.90 2696.29 2694.08 2688.22 2682.69 2681.48 2680.98 2679.55 2678.41 2676.57 2676.17 2674.11 2673.44 2670.77 2669.70 2667.30 2666.84 2666.42 2665.21 2664.37 2662.07 2658.62 2657.94 2656.64 2652.51 2650.13 2649.86 2647.74 2646.08 2643.73 2641.96 2639.40 2637.28 2639.53 2631.32 2629.50 2623.70 2616.84 2606.63 2601.96 2597.72 2593.92 2590.30 2586.05 2580.65 2578.98 2579.05 2582.25 2582.81 2581.49 2579.96 2578.11 2577.51 2575.94 2577.22 2576.99 2573.88 2570.16 2569.81 2568.24 2562.97 2558.64 2554.26 2548.99 2548.02 2543.85 2542.63 2540.15 2538.40 2534.49 2529.56 2535.29 2531.05 2524.62 2526.52 2523.39 2521.57 2518.62 2518.21 2513.95 2508.74 2505.55 2502.00 2501.13 2506.60 2504.76 2506.39 2506.07 2501.53 2500.51 2498.76 2499.75 2501.30 2501.61 2502.41 2504.82 2506.68 2508.71 2507.23 2504.39 2499.66 2500.48 2500.40 2495.32 2490.55 2487.24 2486.25 2480.74 2476.26 2474.70 2474.06 2476.16 2474.32 2470.10 2466.91 2464.55 2461.26 2456.14 2456.22 2455.28 2454.93 2451.88 2452.29 2452.67 2452.72 2454.89 2451.87 2444.66 2441.94 2441.48 2433.94 2432.09 2430.06 2427.80 2427.83 2426.56 2426.13 2422.77 2423.44 2422.13 2421.47 2423.28 2422.81 2420.67 2422.13 2420.53 2420.53 2420.53 2421.16
2806.57 2804.81 2803.25 2802.30 2801.77 2802.58 2804.77 2807.95 2810.74 2812.90 2813.46 2813.15 2812.30 2811.06 2809.86 2808.36 2806.95 2805.23 2803.86 2802.90 2802.42 2802.41 2802.50 2802.85 2803.35 2804.02 2805.25 2807.05 2809.50 2813.58 2824.03 2838.37 2850.91 2851.20 2847.02 2844.10 2844.09 2842.74 2844.42 2845.13 2844.08 2842.26 2841.81 2843.62 2843.40 2844.35 2845.51 2847.32 2848.61 2847.25 2846.47 2843.83 2844.37 2842.95 2837.55 2835.54 2833.79 2832.87 2834.58 2831.53 2828.49 2826.28 2823.75 2821.44 2820.56 2824.21 2825.29 2824.81 2824.81 2823.39 2821.75 2816.21 2817.19 2812.24 2808.65 2806.35 2805.98 2805.92 2803.33 2794.88 2790.33 2784.86 2780.24 2776.64 2775.62 2775.05 2771.32 2765.16 2760.95 2758.13 2756.34 2754.42 2751.46 2748.22 2744.91 2741.06 2738.61 2734.84 2731.53 2728.66 2724.21 2718.39 2710.70 2708.20 2705.01 2702.04 2701.10 2702.41 2701.31 2701.78 2700.49 2700.64 2699.73 2696.05 2691.22 2686.79 2683.75 2682.10 2680.92 2679.49 2679.78 2676.26 2675.84 2674.27 2673.65 2672.18 2670.57 2669.61 2669.53 2667.29 2667.58 2663.47 2663.24 2663.04 2659.47 2655.64 2653.71 2653.65 2652.42 2649.01 2646.65 2644.36 2641.36 2645.21 2640.55 2634.84 2631.54 2626.90 2619.82 2613.47 2604.91 2599.62 2594.58 2588.91 2582.61 2579.53 2579.09 2580.96 2583.18 2583.90 2583.42 2584.24 2582.67 2583.41 2584.44 2583.92 2580.03 2578.90 2577.88 2575.59 2572.26 2567.28 2563.37 2554.71 2555.66 2555.54 2550.71 2544.95 2543.65 2543.02 2543.52 2543.89 2542.05 2537.39 2531.32 2530.31 2527.87 2525.06 2520.71 2516.65 2513.89 2509.12 2510.32 2515.87 2510.64 2508.39 2508.82 2513.17 2511.26 2504.44 2504.01 2502.94 2504.01 2507.33 2509.78 2512.74 2515.03 2515.60 2513.45 2511.00 2509.41 2509.65 2509.96 2502.17 2500.28 2498.29 2497.36 2496.53 2495.98 2498.17 2495.53 2492.43 2480.59 2482.65 2478.18 2475.45 2471.03 2466.67 2465.29 2461.90 2464.49 2463.02 2461.17 2459.38 2460.84 2460.97 2458.53 2454.52 2451.61 2446.20 2443.44 2441.80 2438.56 2434.85 2432.56 2429.53 2427.90 2427.05 2424.22 2424.22 2422.95 2422.66 2420.74 2420.48 2422.16 2422.61 2423.49 2423.69 2423.98 2424.00
2811.89 2810.38 2809.25 2808.41 2807.80 2808.09 2809.80 2813.77 2816.40 2817.55 2817.94 2817.95 2817.18 2816.18 2814.84 2813.52 2812.04 2810.39 2808.74 2807.89 2807.67 2807.43 2807.41 2807.44 2807.87 2808.56 2809.71 2811.74 2814.41 2817.65 2828.34 2844.71 2852.84 2853.14 2849.41 2846.98 2847.06 2848.12 2844.91 2847.63 2848.03 2846.20 2844.42 2846.77 2847.00 2846.01 2848.06 2846.36 2849.07 2849.91 2848.98 2847.56 2845.51 2843.87 2840.86 2838.36 2836.46 2834.58 2832.62 2831.17 2829.38 2827.73 2824.96 2822.96 2822.75 2824.09 2824.84 2823.86 2822.77 2823.05 2819.16 2816.49 2814.56 2812.11 2810.29 2807.23 2806.21 2807.32 2805.72 2802.08 2795.67 2788.80 2783.19 2779.64 2776.39 2775.27 2775.50 2770.46 2763.84 2763.28 2759.45 2757.53 2755.47 2753.82 2751.76 2748.85 2744.95 2742.44 2738.86 2733.66 2728.90 2724.84 2717.06 2712.38 2710.34 2708.47 2706.37 2704.75 2704.98 2704.38 2704.62 2704.36 2701.00 2697.93 2695.31 2691.25 2686.82 2684.52 2682.94 2681.33 2679.34 2679.13 2677.95 2678.27 2676.73 2675.60 2674.71 2673.23 2672.83 2671.54 2668.94 2666.56 2666.30 2665.70 2658.30 2658.48 2655.19 2654.94 2653.40 2651.47 2648.70 2647.42 2646.31 2643.05 2641.88 2638.74 2636.11 2631.60 2626.57 2618.09 2607.76 2603.60 2596.19 2590.04 2584.66 2581.71 2580.97 2587.53 2589.93 2587.98 2586.87 2587.98 2587.94 2587.23 2585.42 2584.16 2582.40 2579.25 2578.73 2573.91 2568.62 2565.20 2562.46 2560.78 2559.55 2557.40 2553.28 2552.24 2550.55 2551.07 2550.98 2548.24 2545.27 2540.60 2536.29 2529.91 2526.49 2523.73 2520.57 2516.29 2522.22 2519.85 2520.67 2522.11 2521.54 2521.68 2520.22 2515.26 2511.06 2510.11 2510.93 2514.44 2514.60 2518.29 2519.36 2520.76 2521.90 2521.53 2518.83 2517.26 2515.60 2514.84 2511.85 2508.97 2507.03 2507.78 2508.29 2507.95 2508.99 2506.96 2507.51 2505.28 2493.64 2489.94 2487.64 2479.04 2476.83 2473.87 2474.05 2474.70 2474.48 2471.88 2471.66 2470.37 2468.26 2465.28 2458.27 2456.02 2453.44 2450.23 2448.87 2447.43 2447.31 2442.60 2440.30 2437.65 2430.69 2429.43 2425.07 2423.26 2422.70 2420.50 2420.50 2424.47 2424.13 2423.44 2424.73 2423.10 2424.89 2430.41
2816.92 2815.99 2815.78 2815.64 2814.61 2814.40 2814.73 2820.82 2822.76 2822.88 2822.71 2822.05 2821.52 2820.65 2819.49 2818.45 2817.29 2815.80 2814.35 2813.21 2812.69 2812.19 2812.34 2812.29 2812.57 2813.17 2814.53 2816.37 2818.90 2821.92 2830.74 2849.24 2854.38 2853.96 2851.40 2849.63 2850.53 2850.62 2847.69 2847.87 2849.77 2847.85 2847.68 2847.57 2850.41 2850.29 2849.36 2848.01 2848.45 2851.62 2852.36 2850.85 2848.52 2847.75 2845.56 2842.65 2839.34 2838.62 2835.01 2832.82 2830.43 2828.79 2826.42 2824.22 2822.59 2825.29 2820.82 2820.00 2821.45 2818.29 2817.39 2816.04 2814.72 2812.33 2810.53 2808.41 2807.51 2807.40 2806.34 2803.79 2798.41 2794.66 2790.97 2782.89 2779.17 2777.45 2776.09 2772.77 2767.54 2765.00 2761.13 2758.91 2757.74 2756.86 2757.36 2754.65 2752.85 2749.39 2745.73 2741.97 2737.06 2730.86 2724.38 2716.97 2714.83 2713.51 2710.89 2708.80 2706.58 2706.86 2705.82 2703.60 2701.97 2700.44 2697.87 2694.58 2690.58 2688.09 2685.79 2683.93 2683.25 2684.49 2683.75 2682.76 2681.13 2679.42 2677.51 2676.39 2673.77 2671.74 2669.96 2670.50 2669.61 2667.23 2665.50 2662.83 2659.93 2658.50 2656.06 2652.42 2650.49 2647.54 2646.95 2645.53 2643.37 2638.76 2633.87 2627.37 2622.60 2616.65 2610.79 2605.29 2598.54 2599.82 2595.44 2590.87 2585.19 2588.03 2588.71 2590.52 2588.38 2586.89 2586.40 2587.76 2586.37 2584.04 2582.69 2578.60 2574.06 2571.67 2570.23 2567.24 2566.97 2563.54 2562.12 2557.25 2558.96 2559.24 2555.70 2554.71 2554.08 2551.58 2545.09 2540.09 2536.53 2533.16 2529.81 2526.18 2529.15 2526.54 2525.54 2528.48 2526.14 2525.29 2524.39 2523.10 2520.92 2522.23 2520.38 2526.27 2519.49 2524.95 2528.21 2528.98 2527.59 2526.21 2524.87 2525.64 2526.06 2520.60 2522.03 2521.27 2518.44 2517.21 2516.41 2517.92 2518.48 2519.92 2519.90 2517.86 2517.26 2515.13 2507.28 2494.48 2487.67 2487.32 2483.21 2482.73 2483.52 2484.27 2483.29 2481.44 2477.03 2478.34 2475.61 2472.73 2464.58 2458.99 2459.78 2459.29 2454.94 2451.20 2447.58 2446.32 2442.61 2435.08 2430.76 2428.24 2423.32 2420.50 2420.50 2420.50 2422.72 2426.35 2426.23 2427.07 2426.04 2427.68 2428.85 2431.28
2822.46 2822.41 2822.34 2822.66 2822.47 2822.61 2824.39 2829.13 2829.10 2828.76 2827.50 2826.87 2826.24 2825.46 2824.44 2823.60 2822.39 2821.33 2819.77 2818.53 2817.84 2817.44 2817.28 2816.94 2817.22 2817.83 2819.38 2821.22 2823.42 2827.04 2835.74 2854.17 2855.64 2855.86 2854.10 2851.49 2852.67 2853.39 2852.67 2850.32 2851.69 2850.99 2852.09 2850.27 2852.32 2854.51 2853.01 2852.52 2850.52 2852.93 2854.37 2854.77 2853.15 2852.04 2850.79 2849.57 2842.63 2841.67 2842.38 2837.08 2832.77 2830.31 2827.93 2825.78 2823.56 2823.55 2822.86 2819.06 2819.79 2817.04 2816.14 2814.92 2813.43 2811.82 2810.05 2810.11 2808.67 2808.18 2807.62 2806.17 2803.13 2796.97 2792.72 2789.44 2784.28 2778.05 2777.49 2775.43 2770.79 2766.04 2763.57 2760.73 2759.49 2759.46 2760.02 2758.93 2756.60 2753.84 2752.75 2747.30 2744.23 2739.11 2732.03 2724.24 2718.59 2715.35 2714.20 2710.92 2709.58 2707.88 2706.92 2704.93 2703.15 2701.86 2699.88 2697.02 2694.75 2693.36 2691.94 2692.28 2694.76 2692.20 2690.17 2689.18 2686.65 2684.08 2682.13 2680.88 2679.03 2673.81 2673.87 2670.42 2671.68 2670.86 2669.19 2667.23 2664.32 2660.89 2657.82 2654.06 2651.21 2649.21 2647.76 2644.10 2639.18 2634.18 2630.50 2626.61 2622.93 2620.69 2620.27 2609.73 2606.98 2606.12 2602.95 2597.62 2592.98 2588.42 2589.83 2588.89 2587.38 2586.47 2586.31 2585.77 2583.90 2581.24 2579.92 2574.82 2572.14 2569.52 2568.20 2567.15 2565.07 2562.85 2562.94 2562.81 2561.61 2561.32 2558.68 2555.53 2555.15 2552.22 2548.09 2545.76 2542.35 2537.42 2534.87 2533.50 2535.45 2533.32 2534.60 2533.36 2532.15 2532.19 2528.87 2533.21 2534.64 2535.47 2535.40 2533.34 2530.73 2531.52 2531.16 2526.88 2527.94 2528.84 2528.99 2529.94 2526.38 2526.62 2526.70 2525.90 2525.43 2524.95 2526.25 2527.20 2528.95 2529.09 2528.34 2526.74 2523.74 2517.90 2508.30 2501.28 2493.35 2491.96 2490.92 2490.29 2490.72 2490.75 2490.62 2486.33 2485.68 2481.01 2481.87 2477.98 2478.04 2472.05 2462.63 2460.30 2457.23 2451.11 2447.90 2442.27 2437.98 2433.18 2428.51 2424.28 2420.50 2420.50 2420.50 2422.78 2423.40 2426.46 2430.73 2430.90 2431.30 2429.85 2432.88 2432.88
2828.72 2828.88 2829.02 2829.61 2830.61 2831.18 2831.30 2837.12 2835.35 2834.32 2833.93 2832.77 2831.95 2830.87 2829.67 2828.59 2827.47 2826.25 2825.07 2823.83 2822.84 2822.33 2822.00 2821.86 2822.01 2822.51 2823.47 2825.60 2828.15 2832.17 2838.14 2857.29 2860.05 2858.64 2856.43 2854.11 2853.56 2857.28 2855.34 2854.36 2853.63 2858.94 2857.74 2854.57 2854.38 2857.91 2859.05 2856.25 2854.80 2852.96 2855.19 2857.45 2856.96 2854.68 2852.57 2852.30 2849.86 2843.88 2843.28 2840.86 2837.87 2835.15 2831.64 2828.21 2825.28 2824.16 2824.31 2819.71 2818.67 2817.39 2815.96 2813.96 2812.38 2810.39 2809.41 2808.93 2809.96 2809.98 2809.60 2808.24 2804.36 2799.78 2794.96 2792.31 2788.72 2784.00 2779.74 2776.99 2774.17 2768.06 2765.02 2762.34 2759.95 2759.29 2759.25 2759.60 2761.72 2759.69 2756.53 2751.24 2746.37 2743.00 2739.62 2731.14 2723.89 2720.29 2716.99 2715.98 2713.92 2712.43 2709.06 2707.45 2706.80 2705.18 2703.80 2704.27 2702.69 2703.62 2703.44 2703.78 2701.35 2698.28 2695.05 2692.81 2690.49 2689.84 2687.64 2685.88 2683.55 2678.27 2674.28 2674.97 2674.49 2672.70 2669.81 2668.91 2665.69 2661.49 2658.06 2655.33 2651.97 2647.93 2646.72 2639.58 2637.94 2637.96 2636.00 2635.50 2633.43 2630.80 2626.39 2613.31 2612.28 2610.12 2605.91 2601.96 2596.47 2591.59 2589.27 2587.86 2590.59 2592.87 2591.79 2590.96 2584.45 2579.52 2576.14 2573.92 2573.07 2573.26 2572.63 2572.44 2574.24 2576.74 2577.39 2576.01 2569.04 2565.79 2565.32 2561.99 2559.35 2557.73 2550.17 2547.61 2544.17 2540.24 2540.19 2546.31 2544.96 2542.37 2541.76 2539.37 2536.28 2538.54 2541.03 2542.00 2543.30 2541.49 2538.13 2536.22 2534.89 2534.60 2535.74 2534.32 2531.93 2529.83 2529.45 2531.70 2531.07 2532.21 2532.46 2533.53 2532.44 2532.96 2534.54 2533.85 2535.08 2533.18 2531.76 2527.81 2521.15 2517.30 2520.99 2510.55 2498.06 2496.04 2497.50 2497.57 2497.42 2497.78 2495.33 2491.27 2491.07 2493.66 2491.25 2486.17 2485.05 2472.00 2466.58 2458.31 2453.15 2449.04 2444.03 2439.40 2435.21 2428.23 2424.31 2421.76 2420.50 2420.50 2422.03 2423.62 2425.00 2434.06 2430.00 2431.29 2433.89 2435.82 2438.16 2436.92
2835.13 2835.29 2835.70 2836.54 2837.35 2839.99 2836.36 2843.16 2841.61 2840.15 2840.33 2838.92 2837.83 2836.38 2835.09 2833.40 2832.42 2831.27 2830.02 2828.91 2828.07 2827.11 2826.60 2826.55 2826.85 2827.48 2828.78 2830.83 2833.27 2836.51 2841.88 2860.44 2864.21 2863.13 2860.63 2857.35 2855.81 2856.82 2858.95 2858.39 2859.44 2858.89 2861.38 2857.79 2858.19 2857.74 2861.61 2859.83 2857.80 2856.53 2856.20 2858.60 2858.93 2858.86 2857.16 2855.94 2853.20 2847.69 2844.51 2842.50 2840.43 2839.28 2838.52 2832.03 2828.52 2825.52 2825.76 2824.37 2818.87 2817.21 2815.43 2813.54 2811.25 2809.69 2809.94 2808.59 2808.99 2812.18 2809.72 2806.55 2804.92 2802.88 2799.76 2794.63 2791.26 2788.21 2784.96 2780.60 2776.95 2774.60 2767.71 2764.52 2761.78 2760.49 2760.97 2761.12 2761.84 2761.45 2759.87 2756.62 2751.42 2747.05 2743.01 2738.77 2735.39 2731.13 2727.78 2721.28 2720.20 2717.49 2715.62 2713.49 2711.70 2710.69 2712.10 2710.66 2712.48 2714.13 2711.85 2709.28 2706.80 2703.24 2697.98 2695.82 2694.12 2693.13 2690.83 2689.07 2681.83 2683.53 2681.40 2679.95 2677.17 2675.38 2672.93 2670.55 2665.74 2661.97 2658.00 2653.70 2650.35 2647.60 2646.32 2647.36 2646.49 2645.67 2645.64 2645.19 2643.03 2639.83 2637.55 2617.79 2614.06 2613.17 2609.41 2606.11 2601.49 2598.07 2592.24 2590.83 2589.96 2592.22 2592.79 2586.87 2582.51 2580.69 2584.51 2580.51 2580.75 2579.34 2583.16 2585.06 2585.74 2584.60 2583.97 2583.24 2578.58 2574.69 2571.98 2566.53 2560.13 2561.77 2561.62 2558.15 2558.04 2556.15 2555.30 2553.55 2550.99 2549.87 2545.91 2544.38 2545.72 2545.26 2545.75 2546.21 2543.74 2541.78 2544.36 2543.11 2542.36 2537.12 2536.64 2536.37 2533.95 2532.07 2534.27 2534.50 2535.96 2537.68 2537.45 2537.29 2536.89 2537.68 2537.70 2537.20 2536.49 2532.94 2532.01 2530.89 2531.46 2527.99 2527.23 2510.70 2505.14 2504.06 2504.05 2503.88 2501.48 2500.19 2495.96 2499.09 2500.20 2499.98 2497.72 2494.41 2487.78 2474.06 2459.31 2452.52 2448.85 2445.62 2441.31 2436.39 2431.23 2427.29 2424.41 2421.82 2420.88 2423.42 2424.30 2425.86 2430.57 2430.69 2431.93 2433.85 2434.54 2435.17 2436.69 2436.10
2840.44 2840.91 2841.38 2842.24 2841.87 2840.55 2846.30 2847.85 2844.08 2846.10 2845.04 2843.99 2842.60 2841.00 2839.61 2838.02 2837.39 2836.15 2834.88 2833.68 2832.40 2831.67 2831.02 2830.52 2831.26 2831.86 2833.60 2835.58 2838.18 2841.98 2846.41 2863.73 2867.42 2866.15 2863.55 2861.51 2858.91 2860.27 2861.14 2861.92 2864.04 2861.85 2860.95 2860.37 2862.46 2862.00 2860.44 2862.71 2860.19 2860.41 2858.66 2858.79 2859.38 2860.72 2860.25 2858.87 2857.07 2851.87 2848.17 2845.53 2843.89 2842.94 2842.86 2837.81 2830.67 2827.92 2825.87 2826.00 2820.62 2818.47 2816.46 2814.12 2812.23 2810.21 2808.10 2808.41 2808.15 2808.30 2808.91 2808.86 2805.54 2804.07 2801.62 2798.51 2795.29 2790.26 2788.17 2785.67 2779.14 2774.00 2770.34 2766.94 2764.11 2762.48 2761.70 2762.89 2763.53 2762.58 2762.00 2758.12 2754.89 2752.90 2749.63 2743.86 2743.64 2739.70 2733.21 2729.50 2727.39 2725.07 2721.67 2720.14 2719.51 2718.33 2718.78 2720.47 2721.01 2718.33 2714.65 2711.46 2708.82 2706.08 2700.40 2696.93 2695.42 2693.56 2689.96 2688.71 2687.22 2685.70 2684.01 2680.85 2678.78 2673.74 2671.13 2666.47 2663.15 2658.64 2656.23 2654.47 2654.73 2652.62 2651.08 2652.37 2651.22 2651.35 2651.33 2651.30 2652.19 2651.00 2646.57 2629.37 2620.28 2616.87 2610.80 2607.40 2605.89 2602.66 2596.52 2593.78 2591.81 2590.51 2590.71 2589.90 2588.55 2593.91 2592.05 2592.03 2590.38 2593.28 2592.19 2592.13 2592.75 2590.16 2588.26 2585.53 2576.54 2574.60 2572.55 2571.44 2571.34 2570.30 2566.24 2566.30 2564.62 2565.35 2561.54 2553.54 2551.50 2552.17 2550.89 2551.14 2550.99 2551.12 2549.05 2547.57 2549.25 2549.21 2548.62 2547.92 2547.10 2544.07 2540.22 2539.63 2537.63 2540.95 2540.33 2540.86 2542.28 2541.68 2540.60 2539.98 2538.97 2539.56 2540.76 2538.33 2535.31 2538.17 2537.92 2536.87 2533.44 2532.02 2516.00 2513.00 2510.89 2507.73 2506.29 2506.37 2504.17 2504.61 2506.55 2506.34 2504.20 2502.19 2500.70 2495.86 2485.07 2468.48 2455.31 2451.22 2445.98 2439.94 2436.09 2433.12 2430.03 2427.49 2425.65 2424.08 2425.03 2424.76 2426.98 2428.58 2430.82 2432.48 2430.00 2430.43 2434.34 2436.51 2435.69 2435.00
2844.81 2845.24 2845.46 2846.36 2846.72 2847.75 2845.82 2850.60 2850.21 2849.53 2849.23 2847.35 2846.67 2845.32 2843.94 2841.94 2841.57 2840.77 2839.50 2838.25 2836.77 2836.13 2835.41 2835.32 2835.78 2837.03 2838.08 2840.22 2842.78 2847.18 2851.68 2867.24 2869.91 2869.49 2866.81 2865.14 2862.33 2864.14 2863.60 2864.69 2865.10 2867.01 2862.38 2863.80 2865.22 2864.56 2864.47 2863.35 2862.96 2861.05 2860.39 2860.47 2860.34 2861.15 2862.19 2862.35 2860.40 2855.28 2851.25 2848.67 2846.99 2847.45 2847.66 2843.10 2835.51 2831.01 2828.06 2825.38 2822.72 2820.30 2818.21 2816.04 2813.86 2811.63 2809.62 2808.51 2808.00 2808.49 2810.93 2809.60 2806.41 2805.28 2803.84 2801.24 2798.88 2796.63 2790.97 2787.44 2782.85 2779.38 2773.29 2769.64 2766.34 2763.83 2762.19 2762.91 2762.64 2763.64 2759.91 2759.38 2758.97 2757.98 2753.69 2750.16 2746.90 2743.54 2739.18 2736.89 2733.33 2732.22 2728.77 2727.10 2725.16 2724.50 2725.03 2724.01 2721.30 2721.09 2718.73 2715.32 2712.20 2708.57 2702.86 2699.55 2694.56 2691.13 2692.19 2690.40 2688.65 2686.32 2685.36 2681.38 2675.52 2670.30 2666.18 2663.44 2661.60 2659.26 2661.99 2659.24 2660.74 2659.71 2658.50 2660.25 2660.46 2659.38 2659.20 2660.90 2658.90 2657.27 2651.24 2634.17 2625.01 2620.49 2615.77 2610.18 2606.33 2604.20 2601.71 2599.02 2594.97 2595.39 2597.30 2598.37 2600.67 2598.94 2601.76 2604.70 2601.06 2601.14 2601.54 2601.08 2599.36 2595.61 2588.05 2582.77 2581.77 2581.89 2580.25 2576.38 2576.02 2574.64 2573.89 2573.40 2573.92 2571.48 2566.92 2557.02 2556.53 2555.37 2556.47 2554.47 2550.46 2548.29 2553.12 2553.31 2553.48 2551.84 2551.33 2549.99 2546.91 2547.29 2542.10 2545.92 2546.05 2546.25 2545.55 2545.75 2545.30 2544.13 2542.88 2542.43 2542.19 2542.08 2540.38 2545.19 2544.61 2542.71 2540.26 2538.41 2535.32 2521.27 2519.99 2517.19 2512.61 2510.63 2509.58 2508.66 2511.00 2510.28 2508.94 2508.69 2506.89 2504.01 2497.42 2485.78 2474.03 2465.87 2458.04 2450.51 2446.87 2441.02 2435.75 2432.01 2430.76 2429.36 2429.84 2424.83 2425.03 2426.22 2425.72 2426.69 2426.82 2429.82 2428.98 2429.16 2429.54 2433.38 2431.99 2432.76
2847.49 2847.63 2845.19 2846.20 2848.41 2847.95 2851.12 2851.79 2852.00 2852.55 2852.14 2851.21 2849.91 2848.55 2847.23 2846.21 2845.57 2844.76 2843.95 2842.56 2840.94 2840.49 2839.57 2839.82 2840.65 2841.20 2842.50 2844.94 2847.95 2851.22 2857.02 2872.17 2876.95 2877.04 2871.81 2868.05 2866.12 2867.37 2866.99 2867.59 2867.62 2867.22 2865.46 2865.35 2868.18 2866.99 2865.93 2864.61 2864.26 2865.08 2863.41 2863.32 2861.94 2861.83 2865.22 2865.25 2863.56 2857.83 2854.47 2854.82 2849.98 2850.41 2849.99 2846.18 2841.31 2834.84 2831.30 2828.20 2825.17 2822.56 2820.33 2817.74 2816.13 2814.01 2811.86 2810.55 2808.51 2808.94 2810.81 2810.00 2807.19 2805.46 2802.79 2802.28 2800.05 2798.19 2795.43 2789.99 2787.98 2783.94 2778.01 2772.62 2769.22 2766.29 2763.95 2764.36 2764.16 2762.99 2761.73 2761.22 2759.91 2757.79 2755.35 2751.69 2748.66 2747.97 2746.57 2741.34 2737.11 2734.45 2733.01 2730.30 2726.20 2727.01 2725.05 2723.20 2722.94 2721.18 2718.21 2714.86 2710.08 2706.41 2701.84 2698.45 2698.51 2695.81 2691.05 2688.63 2687.54 2685.07 2681.87 2677.02 2668.48 2665.02 2662.87 2660.81 2662.11 2662.04 2665.00 2666.29 2664.69 2664.60 2664.65 2664.64 2663.19 2663.43 2662.54 2660.80 2660.01 2657.55 2649.83 2640.44 2625.53 2621.42 2616.55 2614.13 2611.20 2609.03 2607.33 2603.44 2601.56 2601.27 2601.69 2607.82 2610.55 2614.50 2615.55 2613.30 2608.97 2608.79 2607.13 2605.16 2598.08 2588.69 2584.89 2586.92 2586.88 2586.18 2586.42 2583.13 2581.50 2580.39 2580.70 2578.33 2575.51 2574.00 2569.37 2561.97 2560.86 2559.01 2557.12 2556.92 2558.42 2558.00 2557.69 2556.95 2555.41 2552.48 2549.53 2549.25 2550.18 2551.48 2549.68 2550.68 2550.00 2549.13 2548.49 2548.21 2547.44 2545.91 2544.38 2544.37 2542.66 2544.47 2547.12 2547.38 2547.10 2545.18 2542.71 2538.80 2527.67 2523.61 2518.61 2515.11 2517.13 2515.61 2516.07 2514.98 2513.42 2511.67 2513.73 2513.43 2506.75 2500.42 2492.86 2488.66 2482.96 2469.23 2462.78 2452.45 2447.23 2441.58 2436.98 2435.56 2434.05 2435.15 2430.17 2426.52 2426.43 2425.89 2427.48 2426.18 2427.99 2429.00 2430.49 2431.75 2432.23 2429.98 2432.90 2436.01
2849.67 2848.68 2848.03 2848.89 2849.97 2850.57 2850.76 2850.64 2850.11 2851.00 2852.63 2853.07 2852.41 2851.22 2850.06 2849.31 2849.00 2848.36 2847.64 2846.31 2845.04 2844.25 2843.33 2843.82 2844.56 2845.73 2847.55 2849.78 2852.59 2857.16 2863.15 2881.01 2884.27 2883.30 2878.34 2872.54 2871.00 2870.40 2873.14 2872.60 2872.81 2870.41 2869.03 2867.94 2868.05 2869.35 2869.15 2867.94 2866.32 2866.36 2865.22 2864.18 2863.89 2863.68 2866.51 2866.18 2863.90 2861.08 2859.72 2857.25 2853.38 2851.47 2852.53 2848.55 2845.91 2838.57 2835.16 2832.77 2828.85 2825.66 2822.93 2821.03 2818.85 2816.72 2814.55 2812.45 2810.56 2808.68 2810.99 2810.92 2808.70 2806.17 2803.37 2801.67 2801.73 2799.85 2798.51 2795.13 2790.56 2786.46 2782.60 2777.73 2773.60 2769.09 2769.38 2767.45 2764.36 2763.73 2762.79 2761.57 2759.59 2757.82 2756.03 2753.64 2751.89 2750.00 2748.49 2745.02 2738.55 2737.24 2733.66 2730.78 2729.08 2726.77 2721.68 2722.70 2721.74 2720.02 2716.97 2712.02 2707.82 2705.92 2705.84 2703.02 2700.12 2694.53 2689.74 2686.30 2682.87 2675.42 2669.85 2665.00 2662.79 2662.93 2661.66 2663.36 2669.11 2669.34 2668.43 2667.38 2666.83 2668.26 2666.16 2664.87 2665.37 2665.02 2661.36 2661.62 2660.03 2653.50 2647.81 2641.10 2632.35 2626.17 2622.00 2616.61 2613.28 2617.01 2616.44 2613.99 2616.25 2609.63 2616.58 2619.86 2620.84 2620.09 2621.42 2617.81 2614.22 2612.29 2606.40 2596.45 2593.66 2593.29 2594.93 2594.90 2595.65 2592.44 2590.91 2587.48 2584.14 2582.33 2582.62 2579.53 2577.98 2572.86 2570.02 2566.57 2563.70 2560.64 2564.10 2562.63 2560.26 2559.96 2559.70 2559.32 2557.24 2555.58 2553.45 2554.34 2556.15 2556.37 2555.25 2553.22 2553.21 2550.33 2550.77 2548.72 2548.77 2547.08 2546.37 2544.92 2545.44 2547.34 2548.74 2550.27 2549.83 2547.48 2541.02 2531.77 2525.21 2522.60 2524.93 2526.02 2523.59 2521.55 2518.68 2517.68 2515.32 2515.01 2510.45 2511.62 2508.83 2503.98 2499.96 2497.59 2484.31 2476.25 2466.20 2455.65 2454.74 2445.27 2440.86 2437.60 2434.08 2430.95 2429.58 2429.39 2428.04 2429.23 2432.44 2434.90 2431.12 2428.07 2428.07 2428.07 2428.07 2428.07 2430.21 2434.20
2852.34 2851.28 2851.37 2851.60 2852.12 2852.31 2852.38 2851.83 2851.94 2852.29 2853.28 2854.45 2854.66 2854.04 2853.04 2852.08 2851.95 2851.40 2850.74 2849.76 2848.41 2847.85 2847.24 2847.43 2848.92 2850.03 2852.39 2854.60 2857.71 2861.03 2875.54 2886.64 2888.36 2888.42 2883.76 2878.52 2876.04 2877.32 2876.78 2874.78 2878.69 2876.17 2873.40 2870.69 2870.12 2871.05 2872.38 2870.11 2869.49 2869.60 2868.68 2866.77 2866.10 2865.63 2865.38 2866.83 2866.35 2865.61 2865.06 2861.39 2857.36 2853.62 2851.64 2849.18 2847.54 2843.66 2839.04 2835.69 2833.21 2830.26 2826.41 2824.06 2821.85 2819.76 2817.46 2815.37 2813.33 2811.08 2809.31 2808.13 2806.53 2806.10 2805.29 2803.47 2799.75 2797.53 2797.27 2796.18 2793.95 2789.91 2786.65 2782.98 2781.02 2778.57 2773.09 2770.02 2767.72 2766.74 2766.80 2765.29 2763.97 2762.33 2759.11 2754.49 2755.01 2751.78 2748.58 2745.53 2741.91 2737.81 2733.77 2730.37 2728.25 2725.86 2722.05 2719.93 2718.23 2715.61 2712.17 2712.40 2710.37 2707.72 2703.99 2702.14 2698.33 2691.11 2686.98 2682.96 2673.97 2670.01 2667.28 2668.60 2670.51 2668.81 2667.31 2668.12 2666.88 2670.60 2669.11 2670.65 2669.09 2669.54 2667.67 2666.62 2665.03 2662.73 2664.29 2659.66 2661.39 2660.19 2653.96 2652.34 2647.88 2631.06 2628.21 2626.05 2621.15 2619.64 2622.23 2625.05 2626.45 2623.39 2622.99 2626.29 2627.35 2629.31 2629.22 2623.91 2620.09 2611.65 2610.06 2610.20 2604.52 2601.99 2601.09 2598.38 2594.40 2593.12 2589.49 2590.96 2584.79 2585.67 2585.52 2581.15 2576.97 2574.68 2571.84 2569.33 2570.73 2567.71 2565.95 2564.11 2563.17 2563.27 2560.96 2559.40 2558.73 2558.62 2558.48 2558.83 2559.68 2559.59 2556.98 2554.14 2552.72 2551.84 2551.22 2551.44 2548.73 2547.62 2547.29 2547.55 2547.47 2549.81 2550.94 2551.82 2549.91 2537.75 2532.13 2531.40 2531.26 2529.71 2531.61 2530.54 2528.90 2525.11 2521.57 2517.22 2513.52 2515.10 2518.57 2521.15 2518.64 2509.24 2507.20 2505.18 2492.00 2480.92 2464.59 2458.54 2452.09 2447.58 2442.55 2438.03 2435.55 2434.82 2431.28 2429.74 2428.42 2429.74 2432.62 2431.97 2428.07 2428.07 2428.07 2428.07 2428.07 2428.07 2429.67 2433.19
2855.69 2855.35 2855.46 2855.71 2855.43 2855.27 2854.89 2854.77 2854.69 2854.96 2855.44 2856.38 2857.25 2856.74 2855.61 2854.82 2854.51 2854.10 2853.74 2852.89 2851.93 2851.38 2851.06 2851.36 2852.45 2854.25 2856.41 2859.50 2863.57 2870.20 2884.03 2895.42 2895.21 2892.80 2888.37 2884.48 2882.64 2882.40 2880.78 2879.66 2881.22 2880.14 2877.14 2874.19 2872.77 2872.31 2872.42 2872.02 2871.83 2872.34 2873.28 2869.37 2869.30 2867.89 2868.19 2867.16 2869.64 2870.57 2868.80 2865.87 2861.94 2859.64 2853.93 2853.06 2848.22 2845.23 2842.07 2839.05 2835.86 2832.57 2829.71 2827.39 2825.11 2822.82 2820.63 2818.56 2816.38 2813.60 2811.75 2809.76 2807.89 2806.12 2804.35 2802.40 2800.26 2799.23 2799.24 2799.05 2796.67 2792.92 2789.22 2787.82 2785.35 2781.00 2776.76 2771.00 2768.60 2769.18 2767.82 2769.33 2768.24 2765.10 2761.49 2760.40 2758.65 2755.30 2750.56 2747.99 2744.22 2739.37 2736.41 2730.58 2727.96 2726.09 2724.58 2720.20 2716.10 2714.22 2715.83 2715.06 2712.44 2708.11 2701.85 2698.92 2695.49 2686.94 2680.73 2675.46 2676.29 2674.03 2672.14 2674.00 2672.19 2669.74 2667.96 2667.04 2666.92 2667.37 2669.25 2670.14 2669.45 2668.40 2667.44 2664.49 2663.38 2662.60 2664.85 2663.69 2661.77 2664.04 2661.99 2657.87 2652.79 2645.72 2636.30 2632.46 2633.23 2632.65 2633.64 2634.54 2633.64 2631.51 2631.91 2633.96 2635.54 2636.29 2628.38 2624.03 2621.31 2617.79 2614.39 2609.38 2604.81 2601.79 2599.92 2600.50 2598.52 2596.79 2596.29 2596.77 2595.28 2591.75 2587.89 2582.62 2582.02 2584.72 2583.34 2581.36 2577.01 2574.88 2574.00 2571.19 2569.77 2564.13 2562.79 2562.88 2563.13 2562.84 2562.98 2563.90 2562.33 2558.21 2556.64 2556.48 2554.13 2551.85 2549.40 2547.73 2549.21 2550.01 2549.52 2549.61 2550.59 2551.49 2551.12 2547.29 2543.67 2546.10 2542.93 2540.38 2533.98 2534.62 2533.49 2534.08 2527.98 2518.70 2516.53 2518.93 2521.66 2523.23 2526.06 2527.88 2523.19 2518.36 2514.52 2512.61 2495.82 2480.93 2471.83 2459.76 2454.30 2447.52 2442.95 2442.00 2441.03 2435.92 2433.28 2431.32 2430.38 2429.63 2429.51 2428.07 2428.07 2428.07 2428.07 2428.07 2428.07 2428.07 2429.67 2432.03
2859.75 2860.04 2861.06 2860.86 2860.21 2859.97 2859.23 2858.73 2858.34 2858.31 2858.39 2859.09 2859.67 2859.41 2858.02 2857.85 2857.29 2856.74 2856.27 2855.68 2854.56 2853.67 2853.94 2854.75 2855.94 2857.38 2860.25 2864.94 2868.79 2881.26 2893.59 2900.58 2899.84 2897.15 2893.89 2889.31 2887.27 2887.84 2885.81 2884.39 2883.85 2882.79 2880.75 2878.82 2877.82 2875.47 2874.44 2874.36 2874.89 2875.56 2876.08 2874.92 2872.44 2870.60 2870.05 2870.15 2869.65 2873.49 2871.43 2868.11 2866.44 2864.37 2857.90 2854.94 2854.79 2848.14 2845.34 2842.20 2839.22 2836.50 2836.80 2830.88 2828.36 2826.14 2823.93 2821.68 2819.40 2817.13 2814.68 2813.08 2810.86 2809.74 2808.19 2806.34 2803.55 2802.92 2799.61 2798.09 2797.17 2794.55 2789.96 2787.27 2783.32 2781.95 2780.40 2774.15 2771.58 2773.46 2770.45 2768.68 2767.18 2765.24 2762.60 2759.60 2759.00 2757.34 2754.09 2749.40 2746.52 2739.34 2735.67 2731.71 2728.48 2727.32 2723.28 2718.17 2714.19 2714.59 2716.34 2714.22 2711.17 2705.74 2700.80 2694.99 2690.38 2686.14 2694.31 2688.58 2690.31 2690.93 2689.76 2685.60 2680.03 2677.29 2675.54 2669.66 2666.85 2669.54 2670.01 2671.88 2671.82 2667.40 2666.36 2664.50 2662.94 2666.06 2666.58 2664.96 2667.54 2667.86 2664.65 2658.10 2655.83 2649.43 2642.64 2641.29 2641.97 2642.77 2642.86 2640.78 2637.32 2635.68 2635.11 2636.96 2639.69 2640.95 2633.45 2631.80 2626.97 2622.03 2619.01 2615.22 2612.61 2609.38 2608.07 2607.75 2608.22 2606.69 2606.00 2604.29 2594.27 2591.86 2591.78 2593.29 2594.28 2591.83 2589.68 2586.21 2582.05 2578.52 2577.40 2575.65 2570.86 2569.71 2569.68 2567.91 2566.48 2567.15 2567.50 2565.19 2562.85 2560.62 2559.22 2557.28 2553.46 2551.68 2549.30 2547.99 2551.16 2551.31 2550.21 2548.22 2549.99 2549.77 2551.63 2551.03 2552.95 2551.22 2549.93 2547.64 2543.06 2536.17 2534.87 2527.39 2523.09 2521.98 2522.63 2522.91 2528.33 2531.00 2533.26 2531.78 2526.66 2521.59 2520.72 2516.48 2503.88 2492.08 2482.39 2471.61 2461.33 2448.40 2444.84 2446.39 2443.83 2439.80 2437.41 2435.55 2432.15 2429.21 2428.64 2428.07 2428.07 2428.07 2428.07 2428.07 2428.07 2428.37 2429.51 2432.82
2864.90 2865.93 2866.59 2865.87 2866.00 2865.73 2865.21 2864.24 2863.24 2862.54 2862.16 2862.22 2861.54 2861.42 2860.50 2860.87 2860.21 2859.06 2858.20 2857.14 2856.59 2855.97 2856.35 2857.55 2859.05 2861.40 2865.26 2870.01 2875.72 2887.61 2902.11 2904.46 2903.68 2900.86 2897.00 2893.09 2891.50 2891.23 2891.71 2889.57 2886.95 2887.38 2884.61 2882.66 2882.29 2880.26 2878.66 2877.50 2878.59 2880.33 2879.65 2878.39 2877.10 2874.00 2872.41 2872.14 2871.13 2874.57 2873.62 2872.31 2870.11 2865.40 2862.34 2857.98 2855.64 2851.58 2848.45 2845.54 2842.91 2839.59 2839.41 2836.09 2831.68 2829.38 2827.33 2825.17 2822.81 2820.47 2818.01 2815.53 2813.02 2810.68 2808.23 2805.84 2803.35 2801.28 2798.95 2796.83 2795.32 2792.87 2790.69 2787.90 2785.25 2783.27 2778.77 2776.49 2773.40 2771.87 2770.38 2766.36 2764.81 2764.89 2761.78 2759.71 2758.62 2759.01 2753.76 2751.97 2744.90 2740.85 2736.61 2731.52 2728.32 2724.19 2719.64 2716.61 2715.32 2716.61 2714.26 2710.79 2706.67 2702.75 2700.42 2701.29 2704.11 2700.37 2701.28 2699.79 2697.89 2695.52 2692.08 2690.62 2688.87 2685.01 2682.60 2676.48 2672.90 2671.79 2671.50 2670.40 2668.99 2665.88 2666.77 2670.26 2671.12 2669.17 2671.89 2670.22 2668.04 2668.92 2669.94 2669.02 2664.70 2660.29 2654.44 2647.53 2647.51 2648.53 2645.02 2645.33 2640.70 2637.45 2637.55 2642.64 2646.90 2644.74 2643.85 2642.29 2634.85 2629.31 2627.67 2624.18 2621.82 2620.48 2617.64 2617.32 2616.74 2613.80 2608.39 2601.29 2601.85 2599.47 2600.62 2601.57 2599.45 2595.92 2592.69 2591.51 2586.45 2581.73 2580.40 2577.70 2576.70 2576.43 2574.92 2572.83 2570.70 2570.25 2567.22 2562.79 2559.40 2557.68 2556.19 2555.68 2555.45 2556.50 2552.65 2550.77 2549.19 2552.16 2553.53 2554.83 2554.99 2554.93 2552.10 2556.05 2554.16 2553.59 2552.23 2548.93 2543.18 2533.89 2530.58 2528.21 2526.29 2525.63 2526.71 2534.27 2535.02 2535.53 2537.22 2533.72 2528.93 2526.66 2525.27 2518.13 2511.68 2504.62 2488.96 2478.06 2472.37 2461.29 2447.91 2447.20 2444.29 2441.32 2438.56 2434.19 2430.99 2429.87 2430.53 2428.48 2428.41 2430.26 2429.82 2430.61 2433.42 2432.58 2435.98 2434.43
2870.75 2871.19 2872.27 2872.14 2871.72 2870.96 2870.87 2869.54 2868.78 2867.68 2866.69 2866.08 2865.69 2865.70 2865.15 2864.21 2863.08 2861.09 2859.77 2858.85 2857.88 2857.70 2859.15 2861.47 2864.29 2870.08 2878.20 2878.18 2881.33 2888.72 2906.40 2911.95 2908.63 2904.87 2901.36 2897.17 2895.29 2896.14 2895.40 2894.25 2893.45 2890.69 2887.74 2886.74 2887.51 2884.39 2883.77 2881.73 2881.53 2885.37 2881.96 2881.30 2880.85 2881.01 2875.87 2875.28 2873.17 2874.01 2875.93 2874.70 2871.75 2868.76 2868.12 2864.06 2857.89 2855.86 2851.89 2848.90 2846.06 2844.26 2840.75 2841.88 2838.99 2832.46 2830.79 2828.62 2826.06 2823.56 2821.09 2818.77 2816.27 2813.84 2811.18 2808.54 2805.91 2803.41 2800.89 2798.34 2795.72 2793.79 2791.19 2790.72 2788.72 2786.23 2782.11 2778.65 2774.70 2771.42 2768.69 2765.91 2763.19 2761.64 2761.29 2760.10 2759.35 2755.09 2752.41 2750.00 2745.51 2741.26 2736.09 2731.25 2726.88 2722.22 2718.67 2717.21 2715.74 2712.89 2710.96 2707.46 2704.73 2708.90 2709.46 2709.61 2708.39 2707.47 2705.74 2703.97 2701.79 2699.22 2696.08 2692.08 2688.90 2686.13 2685.66 2683.22 2681.44 2679.59 2674.40 2669.79 2668.27 2668.84 2676.14 2675.34 2673.35 2669.69 2669.09 2668.91 2673.22 2673.05 2675.74 2673.54 2673.41 2671.07 2659.15 2651.34 2650.80 2649.18 2647.89 2642.30 2641.46 2640.89 2649.94 2647.38 2650.65 2653.91 2651.19 2646.20 2643.06 2641.95 2638.09 2635.13 2633.88 2631.25 2628.28 2622.32 2616.90 2613.45 2613.91 2610.62 2608.89 2607.47 2606.46 2606.29 2602.95 2601.12 2598.92 2592.44 2591.29 2587.83 2582.89 2582.11 2581.58 2578.80 2576.57 2574.33 2568.49 2567.04 2565.11 2562.43 2560.40 2561.11 2560.62 2561.50 2560.92 2558.24 2555.61 2553.07 2553.77 2552.55 2556.69 2558.48 2557.40 2555.65 2555.97 2558.80 2556.40 2556.16 2553.59 2550.57 2539.33 2534.42 2531.47 2529.36 2530.72 2536.17 2540.24 2539.26 2539.81 2541.01 2538.87 2537.63 2534.13 2530.63 2525.35 2520.52 2515.85 2509.72 2499.77 2491.34 2482.57 2468.26 2454.33 2449.73 2452.16 2444.81 2438.28 2434.90 2433.24 2430.93 2430.28 2434.50 2435.69 2432.73 2432.67 2434.52 2436.51 2439.50 2442.40 2444.70
2875.93 2876.99 2877.43 2877.46 2875.77 2876.31 2875.81 2875.02 2874.03 2873.07 2871.79 2870.39 2869.22 2868.54 2868.10 2867.27 2866.16 2864.52 2862.52 2860.95 2860.04 2861.13 2863.58 2867.31 2873.17 2893.87 2902.10 2903.82 2904.21 2907.09 2910.30 2914.00 2911.97 2907.76 2903.95 2900.68 2899.21 2898.59 2900.55 2899.96 2896.55 2896.92 2892.85 2891.97 2891.64 2889.45 2889.00 2886.32 2885.13 2886.68 2885.89 2883.58 2884.62 2884.59 2882.27 2877.26 2877.20 2874.66 2876.56 2873.83 2872.30 2870.58 2869.64 2868.37 2863.64 2858.56 2855.57 2852.42 2849.63 2847.87 2844.31 2843.19 2845.13 2836.83 2834.37 2832.02 2829.74 2827.10 2824.53 2822.04 2819.43 2816.97 2814.24 2811.50 2808.92 2806.13 2804.05 2802.01 2799.31 2796.27 2794.70 2791.16 2787.96 2785.45 2783.69 2779.49 2777.96 2774.22 2769.76 2768.08 2768.11 2763.16 2758.01 2754.58 2752.66 2750.60 2748.52 2746.57 2743.76 2740.50 2736.76 2732.71 2728.66 2725.72 2722.09 2718.80 2722.41 2721.32 2720.36 2718.86 2717.84 2716.78 2714.08 2713.61 2712.89 2710.77 2709.33 2706.78 2701.46 2698.53 2696.90 2693.69 2692.87 2692.91 2685.99 2683.34 2680.49 2677.99 2675.51 2673.60 2673.68 2674.86 2674.63 2675.98 2675.90 2672.97 2671.40 2671.71 2680.06 2679.71 2680.64 2678.42 2672.04 2669.04 2661.54 2652.86 2649.80 2646.26 2644.55 2645.39 2646.99 2653.79 2654.89 2652.38 2655.57 2656.48 2654.79 2654.01 2654.07 2652.82 2649.67 2642.12 2637.86 2632.43 2626.48 2623.26 2622.96 2620.56 2618.20 2619.13 2613.70 2614.25 2611.69 2609.94 2606.26 2601.82 2601.72 2600.24 2595.70 2590.80 2587.83 2586.71 2584.50 2581.24 2574.98 2572.75 2570.84 2568.80 2568.46 2567.04 2566.83 2568.18 2567.47 2564.47 2563.37 2563.68 2560.48 2559.63 2559.07 2559.01 2559.05 2558.41 2559.36 2559.19 2559.57 2559.29 2555.13 2556.71 2543.42 2539.68 2536.52 2535.63 2535.38 2538.53 2544.28 2543.38 2544.08 2543.60 2542.27 2544.19 2545.82 2543.20 2538.39 2532.60 2526.02 2524.78 2520.26 2514.04 2507.06 2493.75 2486.46 2476.51 2461.65 2458.30 2455.83 2445.19 2440.08 2437.91 2435.14 2432.46 2431.52 2436.22 2435.49 2433.92 2434.04 2438.55 2443.42 2447.62 2448.45 2448.64
2881.79 2880.69 2881.75 2880.95 2881.02 2880.65 2880.37 2880.18 2879.35 2878.31 2876.91 2875.28 2873.55 2872.25 2871.46 2870.64 2869.78 2868.58 2866.88 2865.22 2864.45 2868.08 2875.83 2885.19 2891.84 2912.34 2918.19 2921.36 2921.83 2920.17 2915.13 2914.74 2913.00 2909.88 2905.93 2903.98 2903.40 2905.20 2905.21 2904.93 2903.50 2900.50 2896.87 2895.87 2893.53 2893.56 2893.19 2891.90 2890.55 2888.89 2888.78 2886.30 2884.79 2887.84 2885.16 2882.81 2878.99 2877.33 2876.29 2877.38 2875.20 2873.83 2871.04 2871.04 2866.45 2862.09 2859.16 2856.36 2853.36 2850.51 2847.84 2846.33 2847.47 2842.31 2838.32 2835.76 2833.23 2830.83 2827.88 2825.25 2822.68 2820.09 2817.46 2814.95 2812.04 2809.21 2806.38 2803.47 2800.79 2798.45 2797.59 2794.84 2792.10 2788.57 2786.25 2780.97 2779.85 2778.41 2775.78 2770.40 2771.38 2766.69 2764.12 2757.83 2753.03 2750.46 2748.07 2745.83 2743.56 2741.02 2738.08 2734.74 2732.13 2733.26 2732.47 2732.78 2732.10 2728.39 2724.61 2724.03 2723.52 2722.83 2721.28 2721.13 2717.87 2713.82 2710.54 2706.45 2708.92 2706.79 2703.61 2701.36 2700.30 2698.97 2698.02 2694.75 2690.53 2686.80 2681.35 2678.05 2676.01 2675.20 2675.53 2674.56 2675.56 2674.99 2676.67 2677.16 2679.40 2680.34 2678.41 2674.13 2670.83 2664.66 2657.94 2658.50 2650.69 2647.47 2648.87 2651.17 2653.76 2656.85 2653.96 2653.80 2655.37 2655.76 2658.77 2662.32 2659.66 2660.49 2658.37 2652.13 2644.51 2644.84 2639.72 2635.60 2632.77 2631.81 2627.79 2623.67 2623.03 2621.69 2614.26 2609.54 2612.73 2610.93 2607.91 2602.95 2597.82 2594.28 2591.48 2585.55 2583.57 2580.49 2578.50 2575.72 2573.73 2571.76 2571.24 2570.83 2572.46 2572.02 2570.60 2569.16 2568.77 2565.09 2566.63 2564.01 2562.35 2563.24 2561.87 2559.52 2558.41 2561.76 2561.73 2560.93 2548.57 2544.97 2542.77 2541.98 2544.70 2543.07 2546.16 2548.98 2552.61 2549.29 2547.50 2546.67 2549.30 2550.60 2547.20 2544.15 2540.83 2535.02 2531.13 2527.00 2522.52 2517.24 2511.29 2499.37 2490.69 2479.33 2468.33 2462.08 2457.44 2448.74 2444.25 2443.81 2441.00 2437.36 2434.07 2434.98 2436.63 2439.21 2442.29 2448.81 2451.72 2453.40 2454.14 2455.31
2887.25 2886.81 2886.45 2885.85 2885.25 2885.09 2884.83 2884.84 2884.58 2883.51 2882.45 2880.94 2878.99 2877.00 2875.43 2874.66 2874.11 2873.41 2870.07 2871.75 2874.52 2879.40 2887.12 2898.46 2905.83 2918.22 2925.26 2925.83 2924.16 2920.44 2914.96 2912.70 2912.28 2910.23 2908.45 2907.10 2907.45 2907.92 2910.19 2908.76 2909.67 2905.19 2902.23 2900.46 2897.34 2895.54 2895.33 2896.52 2895.95 2894.83 2891.50 2888.61 2887.51 2886.48 2888.78 2886.77 2883.38 2880.56 2878.95 2877.53 2878.95 2876.60 2872.57 2871.22 2868.12 2866.55 2862.62 2859.93 2857.00 2854.24 2853.11 2848.91 2849.43 2846.29 2841.75 2839.23 2836.60 2834.05 2831.41 2828.68 2825.98 2823.32 2820.70 2818.07 2815.43 2812.64 2809.96 2807.08 2804.27 2801.60 2799.95 2797.56 2795.30 2794.63 2792.27 2784.16 2781.81 2781.51 2778.56 2771.50 2769.79 2768.22 2762.40 2759.09 2756.11 2753.24 2750.39 2748.16 2745.48 2743.24 2740.51 2743.35 2743.81 2741.66 2738.23 2738.80 2736.24 2733.69 2730.15 2728.10 2726.30 2725.90 2724.67 2723.10 2721.31 2718.18 2717.24 2715.80 2714.65 2712.98 2709.53 2706.26 2705.18 2703.38 2699.90 2695.71 2692.74 2695.53 2692.47 2691.46 2687.76 2685.17 2679.73 2678.89 2679.51 2681.22 2683.02 2684.04 2680.49 2677.82 2678.31 2678.11 2673.52 2668.70 2670.46 2664.36 2654.80 2649.21 2650.56 2652.06 2656.91 2654.87 2652.92 2654.57 2657.29 2660.78 2663.61 2663.82 2662.41 2661.22 2658.90 2657.93 2657.01 2654.72 2647.29 2642.63 2642.67 2637.49 2632.81 2628.01 2622.70 2623.09 2621.33 2620.40 2617.38 2612.84 2608.67 2603.30 2598.00 2596.21 2592.49 2591.34 2588.73 2584.47 2581.98 2578.87 2576.66 2576.24 2576.47 2575.60 2575.46 2573.44 2572.74 2570.42 2567.90 2570.11 2569.64 2568.75 2566.82 2568.65 2567.34 2565.59 2563.68 2561.85 2556.05 2551.18 2550.01 2545.82 2549.42 2553.12 2550.81 2552.62 2554.00 2555.33 2554.03 2552.63 2551.50 2556.39 2557.31 2554.14 2549.53 2546.14 2542.95 2538.06 2533.56 2528.43 2522.68 2517.62 2510.92 2497.36 2486.95 2476.55 2469.72 2472.27 2460.12 2457.15 2456.68 2448.59 2445.78 2443.81 2441.24 2439.86 2439.33 2444.30 2451.37 2455.53 2458.08 2460.94 2460.20 2451.20
2892.97 2892.32 2891.63 2890.75 2890.07 2889.78 2889.65 2889.56 2889.39 2888.26 2887.54 2886.14 2884.28 2882.38 2880.63 2879.23 2878.48 2878.00 2877.30 2877.71 2878.60 2883.57 2898.16 2905.74 2913.32 2921.29 2925.60 2927.71 2924.82 2921.25 2917.17 2914.09 2912.18 2911.87 2910.51 2910.66 2911.27 2914.16 2913.55 2915.43 2915.03 2910.43 2907.59 2905.14 2901.30 2899.34 2898.08 2898.31 2899.95 2899.01 2893.15 2891.91 2890.45 2889.29 2888.38 2887.99 2885.50 2883.42 2881.80 2880.10 2880.18 2878.28 2876.06 2874.02 2873.49 2868.96 2866.14 2863.29 2860.60 2857.83 2855.21 2852.42 2850.00 2847.79 2844.79 2842.56 2840.16 2837.53 2834.82 2832.14 2829.47 2826.70 2824.03 2821.42 2818.63 2815.83 2813.23 2810.45 2807.80 2805.73 2806.47 2805.80 2801.07 2800.49 2793.34 2787.90 2785.05 2783.33 2780.66 2777.14 2772.07 2768.92 2765.76 2762.54 2759.73 2756.92 2754.03 2751.17 2749.13 2750.16 2748.89 2749.16 2749.19 2747.32 2742.72 2740.87 2738.91 2737.38 2736.27 2734.11 2731.01 2730.10 2729.87 2727.13 2726.18 2724.57 2723.64 2722.15 2719.16 2717.42 2714.42 2710.91 2706.26 2704.21 2701.88 2702.23 2701.61 2698.78 2697.40 2695.89 2693.09 2691.43 2688.20 2688.08 2689.05 2688.12 2684.42 2684.44 2685.89 2684.95 2681.89 2676.55 2674.54 2674.53 2670.22 2666.62 2657.92 2650.67 2650.89 2653.29 2653.42 2655.85 2654.64 2656.54 2661.74 2662.62 2660.88 2664.41 2662.51 2663.09 2661.81 2658.49 2659.93 2659.93 2651.49 2649.69 2641.70 2637.28 2632.78 2633.05 2632.39 2630.92 2627.41 2620.25 2614.90 2611.63 2608.30 2605.46 2604.26 2600.71 2596.64 2595.20 2592.03 2588.78 2585.25 2580.69 2578.52 2576.89 2577.64 2576.13 2575.01 2575.51 2573.82 2571.25 2573.64 2571.45 2571.23 2570.76 2569.25 2570.39 2569.28 2567.31 2563.42 2560.24 2557.48 2552.20 2553.48 2554.67 2556.32 2556.92 2558.23 2558.52 2557.49 2560.02 2557.01 2559.63 2563.66 2561.89 2562.54 2560.40 2555.95 2548.60 2546.24 2540.96 2534.87 2531.11 2526.92 2521.43 2503.94 2498.45 2484.70 2482.57 2483.73 2476.79 2466.11 2466.35 2462.42 2456.28 2454.49 2453.87 2450.01 2449.79 2455.46 2458.45 2460.79 2463.86 2466.02 2465.14 2458.34 2457.39
2898.38 2897.58 2896.67 2895.89 2895.10 2894.69 2894.93 2894.64 2894.03 2893.65 2892.57 2891.16 2889.40 2887.57 2885.70 2884.24 2883.19 2882.33 2882.14 2882.71 2883.74 2887.67 2899.30 2908.52 2916.15 2923.62 2928.34 2929.48 2929.46 2923.93 2921.44 2917.33 2913.62 2912.60 2912.14 2912.82 2913.55 2914.53 2917.02 2916.80 2917.41 2914.30 2912.21 2907.45 2906.10 2905.49 2905.09 2902.28 2902.73 2899.78 2896.38 2895.08 2893.61 2892.13 2890.60 2890.17 2887.81 2886.15 2884.89 2883.10 2882.09 2880.57 2880.31 2877.24 2874.47 2871.70 2869.31 2866.69 2863.96 2861.50 2858.78 2856.10 2853.38 2851.21 2850.44 2845.88 2843.41 2840.96 2838.11 2835.55 2832.78 2830.34 2827.56 2824.79 2822.04 2819.30 2816.51 2813.73 2811.01 2809.38 2811.11 2808.64 2806.09 2804.70 2795.11 2792.03 2787.56 2784.25 2781.13 2778.24 2775.32 2772.48 2769.66 2766.73 2763.80 2760.98 2760.93 2759.86 2757.40 2755.94 2757.45 2755.99 2754.08 2750.66 2747.86 2746.34 2743.55 2741.98 2740.82 2739.30 2737.18 2734.86 2733.67 2733.20 2732.10 2730.44 2728.03 2725.97 2725.02 2726.56 2721.71 2717.50 2713.31 2709.17 2706.74 2705.20 2704.65 2702.84 2705.72 2706.36 2702.59 2698.59 2697.70 2698.42 2693.90 2689.05 2690.81 2690.16 2689.99 2686.23 2683.13 2679.41 2676.88 2674.10 2670.71 2667.03 2664.16 2654.96 2651.56 2651.82 2655.30 2656.48 2657.26 2658.98 2660.40 2660.39 2665.69 2664.75 2664.89 2664.24 2665.66 2665.72 2663.17 2657.47 2654.21 2652.36 2643.46 2645.97 2642.87 2637.96 2632.58 2625.56 2622.70 2619.67 2616.77 2613.73 2610.53 2608.06 2605.20 2604.20 2601.22 2598.20 2595.26 2592.04 2586.69 2583.64 2581.01 2578.94 2577.16 2578.52 2577.43 2576.11 2576.53 2578.57 2577.94 2575.62 2570.78 2571.16 2572.24 2568.77 2565.82 2565.33 2562.34 2556.74 2554.54 2556.08 2558.15 2559.15 2560.68 2561.94 2562.72 2562.54 2561.37 2561.23 2565.87 2566.35 2568.06 2568.63 2566.41 2564.61 2559.89 2555.12 2546.03 2543.04 2537.23 2533.37 2527.40 2516.14 2506.01 2499.37 2496.53 2491.98 2488.64 2475.13 2476.49 2474.16 2468.98 2465.51 2464.56 2463.16 2460.10 2462.79 2465.23 2467.50 2469.94 2471.59 2471.12 2464.77 2463.59 2462.18
2903.13 2902.10 2900.93 2898.99 2900.23 2900.94 2900.28 2899.21 2899.45 2898.48 2897.29 2895.80 2894.39 2892.59 2890.81 2889.27 2888.13 2887.16 2887.06 2887.48 2888.57 2890.86 2900.58 2909.66 2916.39 2925.74 2930.01 2931.42 2929.28 2925.93 2922.03 2918.42 2915.63 2915.02 2913.74 2913.88 2913.95 2914.36 2915.14 2916.30 2918.24 2918.73 2918.95 2915.84 2909.97 2911.77 2908.83 2906.86 2903.57 2903.10 2900.03 2898.41 2896.99 2895.23 2893.83 2892.13 2891.39 2888.91 2887.74 2886.11 2884.65 2884.54 2882.12 2878.68 2876.78 2874.70 2872.49 2869.95 2867.28 2864.89 2862.17 2859.45 2856.64 2854.11 2852.84 2848.39 2846.56 2844.17 2841.61 2838.73 2836.15 2833.49 2830.80 2828.04 2825.37 2822.56 2819.83 2816.95 2814.38 2811.86 2809.59 2809.05 2806.54 2802.81 2798.66 2795.85 2791.34 2788.09 2784.66 2781.49 2778.76 2776.10 2773.59 2770.78 2768.42 2768.34 2768.06 2765.49 2763.77 2762.77 2762.15 2759.66 2757.21 2754.90 2753.87 2751.77 2750.81 2746.56 2746.03 2743.77 2741.90 2739.84 2737.27 2737.29 2735.60 2734.71 2732.28 2732.59 2732.28 2730.26 2726.36 2723.53 2724.22 2719.82 2716.62 2718.42 2717.06 2716.03 2715.69 2712.98 2709.42 2707.35 2704.64 2708.30 2709.65 2708.01 2707.78 2700.06 2694.10 2688.94 2688.11 2682.63 2679.53 2676.74 2673.73 2670.91 2666.85 2659.51 2653.04 2652.22 2653.94 2654.19 2659.14 2662.00 2663.60 2663.98 2665.00 2664.06 2663.24 2666.76 2665.56 2665.93 2663.46 2658.22 2654.55 2655.83 2653.56 2646.52 2640.96 2637.88 2634.03 2627.11 2623.51 2619.81 2616.22 2616.20 2614.71 2611.60 2608.77 2607.55 2603.11 2597.91 2597.17 2592.37 2589.72 2587.17 2584.22 2581.84 2579.65 2578.25 2578.73 2580.52 2581.84 2581.17 2579.84 2577.74 2574.43 2570.13 2570.19 2567.99 2566.58 2564.95 2558.72 2558.48 2560.20 2561.10 2562.00 2563.17 2564.19 2565.58 2566.62 2564.15 2566.40 2569.22 2571.02 2571.25 2573.11 2573.39 2571.83 2567.47 2563.76 2556.40 2549.16 2540.73 2539.92 2528.03 2523.49 2514.52 2507.60 2507.94 2501.46 2497.61 2485.85 2486.14 2483.55 2478.63 2475.99 2473.94 2475.57 2474.87 2474.03 2474.63 2473.55 2476.20 2475.52 2476.25 2473.28 2470.05 2468.19 2469.43
2907.11 2904.99 2901.44 2904.05 2904.14 2905.36 2906.47 2906.06 2905.22 2903.84 2902.39 2900.93 2899.36 2897.64 2895.84 2894.34 2893.13 2892.01 2891.80 2892.27 2893.47 2895.59 2900.69 2911.68 2918.30 2926.89 2932.92 2933.46 2932.88 2928.17 2923.68 2920.97 2919.64 2915.77 2915.49 2915.48 2916.01 2915.86 2916.07 2917.18 2918.77 2920.95 2920.74 2918.74 2916.77 2914.50 2913.24 2910.66 2907.26 2905.36 2904.04 2901.85 2900.24 2898.61 2897.01 2895.43 2893.99 2892.30 2890.80 2889.08 2887.49 2887.32 2884.21 2881.98 2880.04 2877.83 2875.48 2873.21 2870.68 2868.12 2865.73 2863.22 2860.32 2857.70 2855.23 2852.64 2849.91 2847.31 2844.75 2842.06 2839.34 2836.70 2833.94 2831.20 2828.50 2825.70 2823.06 2820.34 2817.75 2815.08 2812.25 2809.69 2808.41 2805.37 2804.97 2798.63 2795.19 2791.87 2788.70 2785.82 2782.99 2780.22 2777.77 2774.96 2773.98 2773.31 2772.48 2769.51 2767.65 2766.56 2765.27 2762.97 2760.32 2758.93 2757.25 2756.69 2753.39 2752.01 2748.94 2747.32 2746.31 2743.43 2741.39 2739.64 2737.20 2735.98 2735.87 2737.93 2735.56 2735.62 2731.25 2734.11 2728.98 2726.84 2728.02 2727.62 2725.55 2720.36 2717.07 2713.91 2714.69 2715.86 2716.55 2718.27 2717.66 2715.90 2709.27 2702.04 2699.24 2700.03 2701.66 2692.80 2686.13 2678.73 2675.74 2672.92 2671.11 2662.13 2656.39 2651.28 2650.91 2653.82 2657.90 2663.54 2664.90 2665.25 2665.93 2664.50 2663.54 2668.42 2669.11 2661.74 2659.96 2658.59 2659.11 2658.84 2652.03 2645.59 2641.56 2637.56 2635.26 2635.18 2632.23 2631.43 2627.26 2625.60 2618.81 2613.32 2609.77 2608.39 2605.32 2603.98 2598.83 2595.72 2592.47 2589.65 2587.14 2585.15 2583.29 2583.21 2583.59 2583.79 2583.96 2583.09 2581.42 2577.66 2576.87 2574.91 2570.63 2569.12 2567.39 2563.31 2560.95 2563.31 2565.04 2565.90 2566.98 2567.82 2567.26 2567.81 2569.48 2569.05 2568.98 2573.00 2575.14 2576.05 2574.02 2575.20 2574.24 2569.37 2563.93 2555.81 2546.71 2540.83 2535.70 2530.37 2522.30 2516.75 2518.87 2513.04 2506.55 2497.93 2496.09 2492.80 2487.73 2485.99 2483.97 2483.68 2482.70 2482.02 2482.12 2480.21 2481.02 2481.55 2481.86 2481.61 2478.20 2475.59 2475.76 2474.61
2911.52 2911.23 2911.77 2912.72 2912.26 2910.45 2911.74 2911.50 2910.38 2909.11 2907.36 2905.79 2904.02 2902.24 2900.67 2898.97 2897.44 2896.98 2896.65 2897.02 2898.16 2900.11 2904.05 2914.85 2919.65 2926.46 2935.21 2935.66 2933.25 2928.95 2926.94 2925.22 2924.20 2920.72 2919.01 2920.28 2917.62 2917.52 2917.54 2919.74 2920.92 2920.79 2921.92 2921.84 2917.69 2916.34 2917.70 2915.69 2913.53 2908.78 2907.14 2905.31 2903.42 2901.94 2900.31 2898.77 2897.07 2895.50 2893.88 2892.19 2890.59 2888.92 2886.91 2885.14 2883.17 2881.08 2878.57 2876.47 2874.03 2871.73 2869.13 2866.55 2864.02 2861.36 2858.64 2856.19 2853.27 2850.56 2847.87 2845.12 2842.46 2839.63 2837.12 2834.35 2831.81 2828.91 2826.23 2823.63 2820.92 2818.31 2815.63 2812.96 2810.27 2808.10 2804.81 2801.99 2798.95 2795.81 2792.80 2789.88 2787.07 2784.57 2781.86 2779.02 2777.61 2777.46 2777.48 2772.66 2771.04 2768.82 2767.00 2764.23 2763.02 2761.49 2759.64 2757.06 2755.70 2754.08 2751.65 2748.87 2749.02 2744.57 2741.22 2739.53 2738.00 2740.03 2742.90 2741.44 2738.36 2737.53 2736.11 2733.76 2733.32 2732.59 2732.25 2726.55 2725.64 2721.69 2719.05 2720.38 2724.15 2724.35 2723.31 2719.95 2717.97 2713.91 2707.73 2713.68 2714.73 2710.05 2704.25 2700.32 2695.14 2688.17 2686.28 2677.02 2667.95 2663.55 2659.77 2652.14 2652.17 2654.64 2655.58 2661.64 2664.26 2663.89 2666.26 2664.58 2664.52 2665.88 2664.31 2665.53 2664.55 2664.14 2662.44 2656.60 2652.44 2649.47 2646.13 2643.38 2641.29 2640.78 2637.21 2636.33 2632.64 2627.33 2622.16 2616.63 2612.64 2609.28 2606.96 2602.37 2599.96 2597.27 2594.60 2592.23 2590.84 2589.36 2589.43 2589.36 2588.09 2586.80 2585.76 2584.18 2583.15 2582.72 2579.91 2576.13 2571.97 2570.46 2568.29 2564.87 2566.25 2567.82 2569.57 2569.70 2570.61 2572.22 2571.31 2571.05 2569.76 2574.36 2577.88 2579.86 2576.60 2580.11 2575.25 2574.58 2575.14 2569.90 2560.57 2552.98 2547.78 2543.54 2537.39 2530.24 2525.13 2525.53 2522.44 2516.36 2508.57 2506.16 2502.22 2496.78 2494.54 2492.02 2491.27 2490.24 2490.32 2489.51 2488.36 2487.93 2488.85 2489.74 2488.96 2483.50 2481.89 2478.97 2478.05 2477.53
2915.63 2915.97 2916.53 2916.85 2916.14 2917.24 2917.78 2917.34 2916.25 2914.44 2912.19 2910.45 2908.45 2906.49 2905.06 2903.60 2902.47 2901.90 2901.51 2901.84 2902.65 2905.04 2908.52 2916.79 2922.89 2928.02 2936.99 2936.71 2933.07 2931.25 2930.32 2928.16 2926.86 2924.73 2925.41 2922.58 2922.82 2921.58 2920.83 2920.87 2922.77 2923.07 2923.05 2922.46 2920.18 2919.08 2919.14 2919.26 2918.03 2913.17 2910.84 2908.93 2907.01 2905.37 2903.83 2902.16 2900.50 2898.83 2897.25 2895.63 2893.76 2892.07 2890.35 2888.39 2886.36 2884.36 2881.92 2879.66 2877.27 2875.12 2872.41 2869.76 2867.19 2864.54 2861.83 2859.27 2856.38 2853.67 2851.08 2848.39 2845.72 2842.95 2840.10 2837.45 2834.68 2831.97 2829.31 2826.53 2824.00 2821.50 2818.73 2816.18 2813.48 2810.83 2808.16 2805.41 2802.47 2799.55 2796.64 2793.86 2791.24 2788.49 2785.79 2783.04 2780.73 2779.55 2777.00 2774.74 2772.00 2769.72 2767.00 2765.38 2764.62 2764.39 2762.30 2759.27 2757.00 2756.05 2752.82 2750.76 2748.95 2747.47 2743.39 2741.66 2740.99 2741.25 2741.17 2742.58 2741.60 2741.90 2739.07 2736.81 2736.26 2732.79 2728.78 2727.58 2723.77 2726.41 2728.48 2727.94 2724.07 2723.08 2722.34 2720.63 2716.47 2718.63 2719.41 2719.99 2716.82 2712.44 2708.76 2704.90 2700.83 2698.96 2690.70 2680.52 2670.39 2666.04 2662.71 2660.54 2659.06 2658.33 2658.17 2658.54 2660.33 2665.65 2665.86 2668.22 2669.75 2669.32 2669.52 2671.26 2675.04 2670.33 2667.17 2662.47 2659.08 2653.86 2649.72 2649.59 2646.04 2645.39 2642.01 2641.41 2637.38 2631.59 2625.61 2622.30 2617.54 2613.52 2607.88 2604.72 2601.19 2598.68 2596.60 2596.39 2593.34 2593.46 2593.60 2593.56 2591.70 2591.16 2588.13 2585.98 2585.37 2582.77 2578.52 2576.75 2574.50 2572.10 2568.87 2568.78 2569.42 2572.74 2573.38 2575.19 2575.07 2575.31 2574.93 2577.51 2579.94 2580.53 2579.91 2579.26 2581.61 2578.13 2575.87 2575.68 2572.36 2571.49 2570.30 2557.90 2550.18 2541.31 2536.36 2533.11 2528.77 2530.71 2526.81 2522.45 2516.35 2511.77 2507.55 2501.31 2498.79 2498.27 2497.58 2496.91 2497.11 2496.18 2496.61 2497.18 2497.55 2496.41 2492.39 2485.28 2486.17 2483.82 2482.83 2483.95
2920.09 2920.52 2920.84 2920.69 2921.03 2921.82 2922.03 2922.17 2920.61 2919.10 2917.31 2914.77 2913.43 2911.35 2909.70 2908.41 2907.33 2906.50 2906.17 2906.50 2908.13 2910.20 2913.47 2922.48 2929.52 2935.62 2940.36 2938.12 2936.69 2933.45 2932.05 2932.97 2933.07 2930.71 2929.83 2928.28 2927.29 2926.70 2924.76 2923.56 2922.89 2924.17 2922.65 2923.34 2922.14 2921.74 2920.54 2919.50 2918.00 2916.11 2914.47 2912.56 2910.80 2908.97 2907.41 2905.91 2904.12 2902.37 2900.81 2898.92 2897.29 2895.42 2893.66 2891.77 2889.73 2887.65 2885.14 2882.99 2880.63 2878.23 2875.49 2873.04 2870.41 2867.65 2864.98 2862.43 2859.64 2856.91 2854.29 2851.45 2848.81 2845.95 2843.22 2840.44 2837.73 2835.00 2832.28 2829.71 2827.02 2824.48 2821.88 2819.27 2816.58 2814.03 2811.57 2808.80 2806.13 2803.45 2800.78 2797.98 2795.32 2792.63 2790.98 2788.03 2784.59 2782.06 2779.69 2777.14 2774.89 2772.57 2771.03 2768.08 2767.80 2766.96 2764.63 2763.27 2760.44 2759.19 2755.31 2754.23 2751.02 2750.64 2746.04 2743.38 2741.54 2740.02 2740.81 2745.38 2744.09 2744.89 2743.17 2741.48 2738.75 2738.90 2735.84 2729.63 2732.52 2733.57 2729.97 2726.31 2724.18 2722.96 2722.74 2721.70 2722.68 2722.40 2721.37 2718.14 2715.55 2711.88 2708.75 2704.89 2701.91 2696.10 2687.27 2682.83 2674.57 2669.09 2666.46 2664.47 2663.21 2662.25 2661.71 2661.66 2663.74 2666.83 2665.75 2666.02 2670.60 2673.33 2674.41 2678.60 2679.22 2677.27 2676.30 2673.00 2665.60 2659.47 2655.34 2653.06 2650.74 2651.29 2651.11 2647.93 2643.92 2635.06 2628.88 2623.26 2618.25 2613.93 2611.94 2608.74 2605.54 2604.70 2602.05 2598.24 2598.08 2597.53 2597.06 2596.19 2596.25 2593.01 2589.35 2587.25 2589.33 2583.64 2580.85 2578.93 2576.79 2573.84 2576.47 2573.69 2574.42 2577.94 2578.41 2576.85 2578.14 2579.19 2581.75 2582.88 2585.07 2582.93 2581.90 2580.70 2581.22 2579.06 2581.01 2580.87 2583.84 2583.64 2580.58 2559.24 2550.55 2548.00 2541.13 2533.72 2533.20 2532.70 2529.48 2525.24 2520.47 2513.03 2509.75 2507.61 2505.69 2503.83 2503.29 2503.19 2502.51 2503.17 2504.47 2504.67 2504.13 2502.42 2492.51 2491.71 2491.14 2491.73 2493.16 2492.63
2924.32 2924.62 2924.59 2924.98 2925.66 2926.08 2926.24 2925.73 2924.72 2923.51 2922.05 2920.37 2918.27 2915.59 2914.87 2913.67 2912.25 2911.05 2911.02 2912.06 2913.42 2915.44 2918.56 2929.27 2936.88 2940.84 2943.26 2941.59 2940.33 2936.56 2935.17 2934.58 2935.24 2935.23 2935.21 2932.63 2932.43 2931.01 2929.01 2926.81 2925.71 2925.35 2924.65 2924.35 2923.94 2923.72 2922.98 2922.10 2920.88 2919.39 2917.81 2916.07 2914.38 2912.59 2911.02 2909.48 2907.77 2905.99 2904.24 2902.33 2900.60 2898.83 2896.85 2894.98 2892.98 2890.89 2888.37 2886.19 2883.80 2881.39 2878.82 2876.10 2873.41 2870.85 2868.11 2865.56 2862.80 2860.04 2857.39 2854.55 2851.78 2848.89 2846.30 2843.47 2840.90 2837.98 2835.32 2832.80 2830.04 2827.46 2825.00 2822.42 2819.84 2817.33 2814.89 2812.23 2809.70 2807.05 2804.51 2801.88 2799.01 2796.39 2795.29 2791.73 2788.64 2786.04 2783.51 2781.01 2778.54 2776.01 2773.85 2772.55 2771.53 2770.87 2768.74 2765.94 2764.44 2763.84 2761.19 2758.63 2755.30 2752.27 2751.68 2747.66 2743.71 2742.16 2745.53 2746.51 2747.65 2746.84 2744.90 2742.59 2739.59 2736.21 2735.83 2737.73 2736.98 2733.83 2729.07 2725.30 2724.01 2723.79 2725.52 2725.09 2724.44 2723.27 2718.60 2717.01 2714.10 2710.81 2707.31 2706.11 2703.61 2700.75 2695.98 2689.03 2679.25 2673.78 2670.86 2669.15 2667.70 2666.63 2665.91 2665.35 2665.51 2666.46 2666.21 2669.20 2672.60 2676.43 2679.56 2681.29 2682.52 2681.34 2680.37 2677.78 2673.02 2671.03 2664.46 2662.85 2663.06 2661.55 2657.92 2653.89 2644.92 2637.09 2631.53 2627.31 2624.24 2620.23 2616.22 2613.17 2609.52 2608.42 2604.39 2602.96 2601.85 2601.24 2599.83 2599.86 2594.88 2591.25 2589.77 2587.96 2587.30 2584.59 2582.57 2580.63 2579.75 2578.44 2580.64 2581.04 2581.15 2581.80 2581.12 2583.06 2585.00 2586.02 2585.91 2585.56 2583.82 2585.13 2584.31 2586.83 2583.78 2590.81 2590.82 2592.01 2593.35 2592.09 2581.64 2564.84 2556.58 2555.45 2539.15 2535.78 2533.61 2533.39 2530.57 2527.88 2524.23 2518.78 2515.79 2512.83 2511.33 2509.40 2508.14 2508.52 2508.86 2509.34 2509.44 2510.80 2508.85 2504.20 2499.50 2498.45 2498.91 2499.84 2499.39 2498.07
2928.55 2928.52 2928.85 2929.01 2929.51 2929.87 2929.82 2929.40 2928.49 2927.49 2925.79 2923.98 2922.55 2921.21 2919.69 2918.73 2917.85 2916.77 2916.49 2917.23 2918.78 2920.59 2923.98 2933.40 2942.25 2941.86 2945.53 2943.31 2941.17 2939.76 2938.72 2938.30 2940.32 2939.80 2939.70 2936.91 2935.30 2934.89 2931.77 2930.35 2929.27 2928.42 2927.71 2927.28 2926.66 2925.99 2925.35 2924.57 2923.53 2922.25 2920.94 2919.57 2917.80 2916.28 2914.61 2912.96 2911.12 2909.42 2907.51 2905.82 2904.11 2902.20 2900.18 2898.11 2895.93 2893.97 2891.53 2889.40 2887.01 2884.52 2881.85 2879.23 2876.64 2873.92 2871.34 2868.63 2865.95 2863.16 2860.30 2857.53 2854.78 2852.07 2849.23 2846.37 2843.50 2840.72 2838.07 2835.50 2832.92 2830.40 2827.91 2825.60 2823.00 2820.48 2818.09 2815.51 2813.09 2810.61 2808.22 2805.61 2802.90 2800.24 2797.62 2795.05 2792.42 2789.87 2787.44 2784.92 2782.32 2779.72 2777.29 2775.61 2776.09 2775.78 2773.17 2771.50 2767.75 2765.44 2764.38 2759.83 2756.84 2754.70 2752.71 2751.96 2750.95 2748.33 2746.31 2745.63 2745.03 2743.83 2741.59 2739.99 2739.41 2740.15 2740.05 2735.75 2732.15 2729.94 2726.88 2727.34 2725.96 2727.64 2725.93 2722.46 2721.01 2721.34 2721.29 2716.19 2718.88 2718.45 2715.29 2709.33 2707.52 2704.06 2698.77 2693.62 2683.93 2679.00 2675.81 2673.88 2672.54 2671.19 2670.28 2669.67 2669.22 2669.37 2670.48 2672.36 2675.75 2676.03 2680.46 2681.97 2684.05 2683.76 2683.22 2681.76 2680.31 2673.58 2672.44 2671.35 2670.18 2666.35 2662.85 2656.49 2643.11 2639.49 2635.60 2632.86 2626.03 2623.51 2620.21 2616.58 2614.57 2613.77 2611.09 2607.64 2605.55 2603.45 2602.01 2598.63 2594.51 2592.38 2593.88 2591.59 2587.63 2585.23 2582.51 2581.48 2581.18 2582.61 2583.08 2584.23 2586.18 2587.36 2588.56 2587.95 2589.55 2586.98 2587.12 2588.58 2589.95 2588.72 2592.45 2595.90 2597.60 2599.81 2600.57 2599.96 2601.40 2595.08 2574.02 2566.36 2562.04 2551.78 2541.52 2538.67 2538.75 2536.87 2534.33 2531.74 2527.00 2523.70 2520.81 2517.57 2514.58 2514.29 2513.18 2513.59 2513.35 2514.00 2513.78 2512.42 2510.59 2505.99 2506.34 2505.52 2505.17 2505.19 2504.02 2503.18
2932.84 2933.09 2933.24 2933.32 2933.57 2933.60 2933.19 2932.72 2931.81 2930.64 2929.14 2927.78 2926.46 2925.24 2924.19 2923.28 2922.23 2921.40 2921.65 2922.48 2923.76 2926.18 2929.36 2933.79 2945.63 2947.25 2947.56 2945.53 2944.36 2943.43 2943.54 2944.53 2943.54 2944.11 2943.53 2941.70 2940.70 2937.99 2935.98 2934.08 2932.92 2932.04 2931.07 2930.53 2929.63 2928.83 2928.10 2927.21 2926.44 2925.16 2923.96 2922.49 2921.22 2919.56 2917.85 2916.19 2914.44 2912.97 2910.99 2909.31 2907.47 2905.45 2903.52 2901.38 2899.13 2897.28 2894.90 2892.63 2890.10 2887.74 2884.82 2882.29 2879.54 2877.07 2874.49 2871.65 2868.93 2866.05 2863.15 2860.54 2857.74 2854.78 2852.06 2849.24 2846.48 2843.66 2840.82 2838.32 2835.69 2833.17 2830.73 2828.39 2825.94 2823.46 2821.06 2818.78 2816.52 2814.15 2811.69 2809.22 2806.64 2804.09 2801.47 2798.87 2796.31 2793.76 2791.10 2788.55 2786.00 2783.43 2780.83 2779.38 2779.89 2779.27 2776.54 2773.79 2771.01 2770.23 2764.62 2761.75 2759.45 2758.71 2755.62 2754.51 2754.58 2752.32 2749.59 2745.53 2744.03 2742.91 2743.49 2743.25 2740.83 2740.47 2737.43 2738.52 2733.66 2731.50 2729.70 2731.03 2727.67 2726.44 2722.40 2719.59 2718.00 2717.90 2718.14 2719.01 2719.60 2720.96 2716.61 2712.16 2709.77 2706.16 2700.00 2693.97 2689.17 2684.14 2680.88 2678.72 2677.13 2675.75 2674.73 2674.04 2673.46 2673.40 2673.75 2676.70 2678.97 2682.26 2682.26 2686.49 2687.35 2688.51 2687.63 2685.98 2683.88 2678.04 2675.14 2674.03 2673.84 2672.30 2666.23 2656.14 2647.40 2643.21 2640.16 2636.84 2632.00 2628.27 2626.42 2624.80 2622.48 2620.34 2615.07 2609.88 2608.55 2606.23 2604.02 2601.74 2597.68 2597.62 2594.40 2592.96 2589.98 2586.91 2584.41 2589.10 2586.98 2586.35 2586.34 2589.01 2590.40 2592.14 2592.10 2593.44 2593.38 2589.29 2590.51 2593.99 2595.00 2596.97 2600.65 2600.74 2601.64 2605.55 2605.56 2605.06 2604.74 2594.05 2575.40 2572.99 2564.77 2549.54 2547.51 2546.27 2544.23 2543.01 2538.56 2535.23 2531.73 2528.31 2525.12 2521.15 2519.85 2518.68 2518.08 2517.84 2517.82 2516.28 2516.25 2514.22 2511.40 2513.41 2512.68 2511.72 2511.18 2509.20 2508.01 2507.31
2937.64 2938.08 2938.07 2937.84 2937.75 2937.22 2936.70 2935.76 2934.69 2933.54 2932.54 2931.65 2930.38 2929.30 2928.35 2927.12 2924.66 2926.42 2926.84 2927.53 2929.23 2931.81 2937.80 2939.23 2947.22 2951.54 2952.20 2951.19 2949.05 2947.87 2950.17 2950.39 2949.01 2948.15 2947.67 2947.06 2944.36 2941.61 2939.59 2938.06 2936.73 2935.65 2934.77 2933.89 2933.03 2932.12 2931.20 2930.33 2929.20 2927.92 2926.93 2925.75 2924.34 2922.86 2921.31 2919.64 2917.87 2916.14 2914.45 2912.70 2910.80 2908.66 2906.55 2904.56 2902.37 2900.31 2897.97 2895.72 2893.13 2890.54 2887.89 2885.35 2882.74 2880.11 2877.34 2874.65 2871.73 2868.95 2866.18 2863.40 2860.60 2857.75 2854.82 2852.07 2849.16 2846.54 2843.59 2841.17 2838.59 2835.80 2833.56 2831.27 2828.78 2826.42 2824.01 2821.81 2819.59 2817.33 2815.01 2812.64 2810.14 2807.82 2805.18 2802.69 2800.08 2797.50 2794.96 2792.45 2789.87 2787.23 2784.58 2782.46 2781.07 2780.03 2779.29 2777.02 2774.70 2769.77 2767.43 2765.23 2763.71 2760.23 2759.04 2757.79 2753.86 2752.22 2750.63 2748.93 2747.15 2745.69 2744.07 2742.66 2741.27 2739.72 2738.32 2736.94 2735.38 2734.79 2731.46 2729.36 2726.66 2724.33 2722.32 2720.18 2718.89 2721.60 2721.77 2722.01 2723.10 2718.97 2716.74 2712.84 2708.05 2704.22 2700.36 2696.52 2692.20 2688.64 2685.56 2683.54 2681.67 2680.36 2679.30 2678.45 2677.72 2677.44 2678.01 2681.24 2680.67 2682.24 2684.32 2686.91 2687.47 2690.58 2689.67 2687.80 2690.12 2686.44 2683.84 2679.94 2678.66 2675.69 2668.11 2656.20 2652.26 2648.86 2645.38 2641.10 2637.75 2634.06 2633.00 2630.44 2623.56 2620.58 2615.64 2612.66 2609.41 2606.37 2604.19 2601.83 2599.38 2596.60 2594.28 2592.58 2591.19 2592.80 2593.33 2593.75 2593.72 2591.08 2595.25 2594.98 2595.96 2595.07 2597.39 2597.06 2596.72 2596.45 2596.39 2595.29 2599.20 2600.22 2603.50 2605.82 2607.37 2608.08 2608.90 2609.85 2606.47 2591.01 2581.23 2569.48 2559.57 2555.47 2554.36 2552.12 2549.02 2546.55 2542.96 2538.35 2534.13 2531.38 2527.30 2525.90 2524.30 2522.83 2521.46 2522.22 2519.38 2518.98 2519.78 2516.64 2519.37 2518.94 2518.24 2516.72 2513.60 2512.24 2511.73 2509.12
2942.80 2943.36 2943.27 2942.70 2942.13 2941.31 2940.37 2939.25 2937.79 2937.04 2936.34 2935.21 2934.54 2933.76 2932.72 2931.96 2931.54 2931.63 2931.61 2932.79 2934.76 2941.12 2947.17 2949.00 2951.80 2955.83 2958.02 2956.49 2954.59 2952.56 2954.35 2955.14 2953.38 2951.60 2952.28 2950.30 2947.52 2945.33 2943.28 2941.93 2940.83 2939.39 2938.38 2937.46 2936.44 2935.66 2934.80 2933.84 2932.50 2931.29 2930.23 2928.78 2927.53 2926.05 2924.57 2922.83 2921.00 2919.49 2917.55 2915.82 2913.94 2911.84 2909.89 2907.71 2905.45 2903.27 2901.07 2898.56 2896.05 2893.44 2890.98 2888.25 2885.68 2882.89 2880.10 2877.40 2874.71 2871.84 2868.96 2866.21 2863.35 2860.44 2857.63 2854.83 2851.97 2849.22 2846.65 2843.89 2841.27 2838.64 2836.33 2834.00 2831.60 2829.35 2827.12 2824.84 2822.56 2820.20 2817.97 2815.81 2813.36 2811.02 2808.64 2806.00 2803.59 2801.07 2798.61 2796.14 2793.62 2790.75 2788.39 2786.02 2783.43 2781.75 2779.59 2777.65 2775.60 2773.16 2771.05 2768.77 2766.09 2763.92 2761.68 2759.71 2758.06 2756.34 2754.67 2752.89 2751.43 2750.03 2748.51 2746.70 2745.03 2743.52 2741.66 2739.94 2738.25 2736.78 2735.19 2732.94 2730.75 2728.48 2726.01 2724.13 2722.29 2721.14 2722.27 2725.10 2722.10 2717.70 2714.34 2712.27 2709.65 2706.30 2702.95 2699.27 2696.06 2692.99 2690.16 2688.17 2686.28 2685.12 2683.77 2682.77 2682.35 2681.74 2681.72 2682.27 2682.64 2684.95 2691.21 2693.10 2694.33 2694.93 2694.24 2697.35 2696.57 2692.28 2688.75 2684.67 2682.16 2677.44 2667.19 2662.33 2657.34 2653.54 2649.45 2647.46 2643.34 2639.80 2630.11 2625.52 2621.67 2619.72 2617.36 2614.35 2611.39 2608.73 2606.18 2603.73 2603.68 2604.64 2603.22 2596.34 2596.61 2597.55 2598.04 2598.99 2596.93 2598.54 2596.81 2599.32 2598.15 2598.39 2601.66 2602.40 2598.80 2599.46 2597.63 2598.16 2599.64 2602.27 2603.01 2606.57 2608.76 2609.96 2610.91 2608.32 2601.95 2594.21 2585.83 2570.03 2563.42 2563.14 2561.64 2558.32 2554.82 2551.03 2546.12 2541.69 2538.77 2534.26 2531.47 2530.38 2529.04 2526.87 2525.21 2525.52 2523.74 2523.02 2520.72 2524.48 2523.96 2523.48 2520.91 2517.67 2515.13 2514.92 2516.77 2516.74
2948.11 2948.80 2948.69 2947.99 2946.99 2945.97 2944.74 2943.11 2941.72 2941.16 2940.61 2938.57 2938.31 2937.43 2935.89 2935.27 2935.99 2936.25 2936.62 2938.07 2940.86 2946.83 2952.01 2953.81 2956.94 2958.81 2963.30 2959.81 2959.22 2957.46 2958.91 2959.44 2957.52 2954.66 2953.96 2951.59 2950.58 2948.85 2947.08 2945.79 2944.45 2943.19 2942.26 2941.08 2940.10 2939.24 2938.12 2937.09 2935.77 2934.56 2933.52 2932.05 2930.68 2929.27 2927.75 2925.85 2924.21 2922.63 2920.67 2918.82 2917.06 2915.05 2913.01 2910.81 2908.58 2906.38 2903.88 2901.52 2899.06 2896.34 2893.89 2891.24 2888.63 2885.84 2883.09 2880.26 2877.53 2874.63 2871.90 2868.87 2866.08 2863.27 2860.37 2857.52 2854.77 2852.00 2849.40 2846.61 2843.86 2841.49 2838.93 2836.79 2834.51 2832.23 2830.02 2827.77 2825.39 2823.10 2820.99 2818.56 2816.41 2814.10 2811.89 2809.46 2807.04 2804.71 2802.03 2799.45 2797.28 2794.62 2792.33 2789.78 2787.45 2785.23 2783.12 2780.96 2778.84 2776.88 2774.61 2772.51 2770.35 2768.16 2766.15 2764.53 2762.66 2760.71 2759.00 2757.43 2756.00 2754.57 2752.81 2750.96 2749.55 2747.72 2746.18 2744.41 2742.65 2740.91 2739.09 2737.45 2735.21 2733.19 2731.01 2729.10 2727.00 2725.13 2723.33 2722.00 2720.68 2718.78 2716.57 2714.12 2711.96 2709.25 2706.28 2703.44 2700.33 2697.30 2694.70 2692.77 2690.95 2689.39 2688.32 2687.36 2686.78 2686.21 2685.85 2685.87 2686.48 2692.24 2695.33 2698.93 2700.54 2699.01 2696.91 2698.19 2698.91 2697.63 2693.80 2689.15 2685.96 2681.97 2671.49 2665.46 2661.36 2654.93 2650.55 2645.90 2640.86 2637.13 2636.15 2635.18 2626.78 2624.36 2622.84 2619.11 2616.29 2611.95 2608.90 2610.29 2610.81 2609.70 2608.13 2604.65 2601.68 2603.25 2602.57 2602.91 2602.22 2602.12 2602.49 2602.67 2602.52 2602.40 2602.36 2602.08 2602.12 2600.68 2603.89 2604.84 2605.58 2606.58 2607.00 2606.58 2610.12 2610.23 2609.57 2606.75 2602.42 2596.10 2583.03 2578.93 2573.29 2569.74 2566.58 2562.31 2558.58 2554.13 2549.22 2546.03 2542.65 2537.55 2534.60 2533.17 2531.71 2531.56 2529.64 2526.83 2526.15 2523.03 2527.19 2526.53 2527.60 2522.58 2520.01 2521.14 2521.31 2521.09 2522.12 2520.05
2953.90 2954.14 2953.99 2953.24 2952.11 2950.96 2949.33 2947.73 2946.74 2945.30 2943.33 2943.03 2941.97 2941.11 2940.15 2939.75 2940.33 2940.81 2941.43 2943.56 2950.07 2954.65 2956.90 2958.74 2961.04 2964.05 2966.65 2966.29 2964.27 2962.12 2961.22 2963.44 2958.77 2957.59 2956.21 2954.88 2953.66 2952.20 2950.94 2949.61 2948.20 2947.00 2946.07 2944.94 2943.87 2942.71 2941.41 2940.40 2939.05 2937.83 2936.59 2935.11 2933.80 2932.42 2930.79 2929.06 2927.25 2925.70 2923.74 2921.95 2919.88 2918.00 2916.03 2913.89 2911.67 2909.35 2906.92 2904.52 2902.00 2899.36 2896.81 2894.17 2891.60 2888.65 2885.91 2883.01 2880.33 2877.47 2874.76 2871.83 2868.85 2866.01 2863.12 2860.52 2857.66 2854.94 2852.24 2849.39 2846.61 2844.14 2841.69 2839.55 2837.26 2834.88 2832.77 2830.57 2828.19 2826.01 2823.95 2821.56 2819.36 2817.23 2814.97 2812.67 2810.32 2808.04 2805.50 2803.11 2800.73 2798.32 2795.95 2793.52 2791.33 2789.21 2786.87 2784.41 2782.48 2780.53 2778.40 2776.39 2774.41 2771.90 2770.77 2768.66 2766.92 2765.04 2763.27 2761.77 2760.28 2758.52 2757.05 2755.33 2753.88 2752.08 2750.46 2748.63 2747.00 2745.20 2743.50 2741.56 2739.73 2737.57 2735.72 2733.78 2731.89 2729.73 2727.54 2725.58 2724.01 2721.93 2720.04 2717.85 2715.54 2712.96 2710.46 2707.93 2706.75 2706.07 2699.53 2697.33 2695.38 2693.62 2692.68 2691.71 2691.10 2690.20 2689.94 2690.10 2690.66 2695.06 2702.21 2705.39 2704.47 2702.45 2700.51 2697.74 2697.43 2696.91 2694.69 2692.46 2690.23 2676.47 2676.47 2672.79 2665.71 2662.25 2658.69 2653.47 2649.48 2646.35 2643.29 2643.32 2643.32 2632.98 2627.92 2623.97 2621.51 2615.16 2616.51 2618.74 2614.76 2614.52 2613.62 2613.00 2611.61 2613.51 2611.04 2607.07 2606.10 2604.43 2606.47 2606.81 2605.79 2605.29 2605.84 2605.83 2605.32 2605.81 2608.35 2608.17 2609.73 2611.39 2610.94 2610.64 2610.13 2609.97 2607.72 2606.59 2603.91 2594.98 2588.88 2580.61 2577.12 2574.36 2569.43 2564.57 2561.15 2556.59 2552.36 2548.90 2543.27 2539.04 2537.02 2536.50 2537.02 2535.74 2531.01 2527.78 2526.15 2527.18 2527.90 2528.39 2526.30 2524.10 2525.37 2524.67 2525.62 2524.57 2524.48 2523.75
2958.32 2959.51 2959.16 2958.37 2957.19 2955.75 2954.17 2952.43 2951.19 2949.49 2947.69 2946.98 2945.38 2944.39 2943.13 2943.20 2944.05 2945.21 2946.63 2952.45 2959.72 2959.90 2960.96 2963.44 2965.92 2967.82 2968.23 2971.66 2968.88 2968.08 2966.49 2964.93 2963.21 2961.71 2959.98 2958.70 2957.23 2955.76 2954.50 2953.21 2952.02 2950.92 2949.75 2948.68 2947.52 2946.31 2944.93 2943.77 2942.41 2941.16 2939.80 2938.29 2936.96 2935.34 2933.81 2932.17 2930.40 2928.76 2926.68 2924.90 2923.00 2920.99 2918.97 2916.86 2914.53 2912.22 2909.86 2907.39 2904.86 2902.35 2899.68 2897.07 2894.42 2891.44 2888.60 2885.83 2883.00 2880.19 2877.45 2874.52 2871.63 2868.70 2865.91 2863.22 2860.35 2857.66 2854.78 2852.22 2849.59 2846.92 2844.37 2842.16 2839.96 2837.69 2835.45 2833.25 2831.14 2828.83 2826.76 2824.63 2822.48 2820.40 2817.90 2815.75 2813.57 2811.38 2808.99 2806.63 2804.24 2801.91 2799.52 2797.35 2794.96 2792.82 2790.63 2788.27 2786.15 2784.12 2782.16 2780.62 2778.51 2776.54 2774.67 2772.78 2771.02 2769.19 2767.38 2765.79 2764.44 2762.70 2761.18 2759.49 2757.92 2756.32 2754.77 2752.96 2751.24 2749.52 2747.62 2745.82 2743.95 2742.02 2740.11 2738.19 2736.32 2734.19 2732.10 2730.03 2728.13 2726.21 2724.15 2721.92 2719.72 2717.09 2714.86 2714.67 2715.96 2710.47 2707.23 2705.35 2704.57 2699.11 2697.16 2696.07 2695.34 2694.51 2693.91 2693.98 2694.64 2703.95 2706.44 2704.79 2706.53 2704.81 2701.96 2698.93 2698.96 2697.82 2696.50 2693.70 2692.45 2689.82 2685.65 2677.85 2671.36 2665.05 2662.17 2660.33 2656.50 2654.23 2650.88 2649.82 2645.82 2639.14 2630.46 2629.63 2624.05 2620.93 2621.85 2621.82 2621.60 2621.58 2622.29 2620.28 2620.97 2620.59 2619.49 2619.68 2615.18 2611.64 2611.51 2611.54 2610.13 2608.95 2608.17 2608.12 2607.41 2608.18 2609.03 2611.61 2611.18 2615.12 2613.01 2610.39 2607.48 2608.16 2608.56 2610.62 2606.07 2599.21 2590.70 2587.27 2581.04 2576.89 2570.46 2566.78 2563.34 2558.47 2553.96 2549.20 2545.15 2542.74 2541.59 2541.56 2540.27 2538.11 2533.19 2530.07 2529.82 2528.88 2531.11 2529.27 2528.17 2529.87 2531.10 2530.31 2529.14 2529.20 2530.07 2530.78
2964.49 2964.12 2963.80 2962.93 2961.84 2960.41 2958.95 2957.46 2955.30 2951.87 2951.51 2950.75 2949.46 2947.67 2946.92 2946.84 2948.10 2950.19 2952.92 2961.74 2965.35 2965.53 2966.95 2969.37 2972.80 2972.06 2971.18 2973.51 2972.53 2972.78 2971.46 2971.13 2969.21 2966.21 2964.23 2962.67 2961.40 2959.49 2958.08 2958.44 2955.91 2954.69 2953.55 2952.29 2951.14 2949.91 2948.46 2947.18 2945.86 2944.49 2943.06 2941.51 2940.06 2938.51 2936.94 2935.24 2933.49 2931.71 2929.69 2927.89 2925.76 2923.78 2921.86 2919.72 2917.44 2915.08 2912.60 2910.24 2907.73 2905.05 2902.55 2900.00 2897.08 2894.40 2891.52 2888.67 2885.77 2882.99 2880.11 2877.31 2874.32 2871.52 2868.90 2865.94 2863.05 2860.43 2857.56 2855.02 2852.38 2849.62 2847.25 2844.99 2842.67 2840.59 2838.16 2836.07 2833.90 2831.73 2829.50 2827.49 2825.38 2823.25 2821.07 2819.06 2816.77 2814.65 2812.45 2810.07 2807.84 2805.53 2803.26 2800.93 2798.72 2796.59 2794.44 2792.27 2790.04 2788.12 2786.03 2784.14 2782.25 2780.69 2778.78 2776.62 2775.09 2773.24 2771.49 2770.11 2768.34 2766.74 2764.98 2763.36 2761.90 2760.23 2758.45 2756.88 2755.32 2753.43 2751.62 2749.83 2747.86 2746.27 2744.22 2742.43 2740.41 2738.29 2736.34 2734.45 2732.41 2730.35 2728.32 2726.16 2723.73 2721.49 2719.46 2717.10 2719.01 2717.36 2712.33 2710.45 2711.19 2703.56 2701.99 2700.50 2699.35 2698.45 2697.74 2697.61 2698.03 2703.20 2707.84 2709.24 2710.11 2707.32 2704.89 2702.47 2700.80 2697.84 2697.82 2697.15 2694.08 2693.29 2689.12 2682.58 2676.21 2671.62 2669.00 2666.21 2663.63 2657.22 2653.51 2650.91 2647.51 2642.36 2635.66 2630.53 2630.60 2629.69 2631.77 2631.75 2633.10 2634.63 2633.59 2631.29 2630.27 2629.80 2624.87 2623.89 2623.83 2617.45 2615.97 2615.32 2615.35 2613.18 2611.84 2610.06 2608.40 2609.24 2609.50 2611.56 2613.67 2614.68 2611.75 2610.57 2609.61 2611.30 2612.73 2613.64 2604.22 2599.98 2597.13 2590.50 2584.60 2577.46 2572.22 2568.92 2565.22 2561.27 2555.73 2550.85 2547.86 2545.98 2544.78 2545.78 2541.65 2540.06 2534.16 2533.73 2531.57 2532.27 2531.93 2532.10 2533.20 2533.66 2533.40 2533.87 2534.84 2535.18 2535.84 2536.85
2968.61 2968.37 2967.93 2967.19 2966.21 2964.68 2962.76 2960.67 2959.88 2957.97 2956.11 2955.84 2954.06 2952.61 2951.16 2952.13 2953.49 2955.40 2959.17 2967.37 2970.13 2971.04 2971.86 2974.05 2974.72 2973.52 2973.69 2974.73 2976.53 2975.16 2975.69 2975.01 2972.22 2970.43 2968.62 2966.83 2965.60 2964.10 2962.47 2960.79 2959.69 2958.54 2957.13 2955.94 2954.68 2953.37 2951.95 2950.53 2949.17 2947.84 2946.18 2944.67 2943.07 2941.47 2939.86 2938.37 2936.43 2934.59 2932.67 2930.77 2928.89 2926.73 2924.85 2922.57 2920.19 2917.74 2915.52 2913.06 2910.56 2908.14 2905.46 2902.84 2899.90 2897.09 2894.30 2891.44 2888.57 2885.66 2882.90 2880.12 2877.11 2874.30 2871.42 2868.79 2865.84 2863.11 2860.42 2857.81 2855.24 2852.53 2850.13 2847.78 2845.41 2843.29 2840.91 2838.67 2836.79 2834.61 2832.54 2830.26 2828.35 2826.20 2824.07 2821.98 2819.82 2817.75 2815.67 2813.43 2811.06 2808.94 2806.66 2804.49 2802.39 2800.31 2798.10 2795.89 2793.89 2791.93 2789.85 2787.96 2785.98 2784.43 2782.63 2780.69 2778.97 2777.04 2775.33 2773.84 2772.17 2770.46 2768.62 2767.16 2765.44 2763.93 2762.22 2760.68 2759.06 2757.32 2755.37 2753.65 2751.82 2749.91 2748.18 2746.30 2744.43 2742.38 2740.48 2738.48 2736.47 2734.34 2732.37 2730.22 2728.21 2725.89 2723.46 2721.35 2720.63 2718.71 2715.34 2714.80 2712.19 2707.99 2706.35 2704.76 2703.41 2702.33 2701.51 2701.21 2701.63 2705.20 2710.46 2711.81 2712.53 2706.26 2705.14 2706.12 2703.65 2702.36 2700.64 2699.92 2697.53 2693.96 2690.04 2684.30 2678.88 2674.71 2673.30 2669.96 2666.61 2660.82 2657.75 2653.47 2649.29 2647.64 2645.37 2643.18 2639.85 2639.93 2641.96 2643.33 2642.79 2642.16 2641.97 2638.52 2638.17 2636.57 2631.21 2630.30 2626.85 2623.11 2620.04 2619.12 2616.93 2615.39 2614.58 2613.01 2613.56 2611.41 2610.59 2611.69 2614.16 2614.81 2617.18 2614.73 2616.76 2616.00 2617.07 2608.89 2605.36 2604.88 2603.37 2592.03 2586.06 2578.63 2572.76 2571.63 2568.07 2563.46 2559.21 2555.47 2551.86 2550.63 2548.92 2548.51 2543.07 2539.69 2536.65 2535.24 2534.09 2535.15 2537.91 2538.92 2537.28 2537.96 2538.68 2539.17 2539.88 2539.90 2540.08 2542.07
2972.79 2972.19 2971.63 2971.05 2969.93 2968.46 2966.75 2965.56 2964.35 2962.99 2961.16 2960.58 2958.98 2958.12 2961.51 2963.64 2964.09 2964.62 2967.89 2972.92 2975.22 2975.41 2976.29 2977.70 2977.11 2977.19 2977.72 2977.69 2979.15 2980.21 2979.88 2978.06 2975.59 2973.78 2972.35 2970.15 2968.78 2968.39 2966.29 2964.73 2963.61 2962.31 2960.91 2959.60 2958.22 2956.78 2955.44 2953.98 2952.45 2951.02 2949.41 2947.77 2946.15 2944.59 2942.96 2941.31 2939.55 2937.67 2935.71 2933.72 2931.78 2929.65 2927.75 2925.24 2923.07 2920.71 2918.25 2915.83 2913.33 2910.88 2908.28 2905.37 2902.62 2899.75 2897.01 2894.26 2891.33 2888.48 2885.61 2882.67 2879.81 2876.93 2874.21 2871.44 2868.68 2865.84 2863.06 2860.57 2858.01 2855.33 2852.95 2850.53 2848.21 2845.91 2843.71 2841.64 2839.64 2837.26 2835.19 2833.10 2831.13 2829.12 2826.92 2825.02 2822.78 2820.82 2818.74 2816.72 2814.29 2812.23 2809.97 2807.81 2805.94 2803.72 2801.63 2799.46 2797.62 2795.35 2793.62 2791.67 2789.75 2788.14 2786.34 2784.41 2782.84 2780.89 2779.11 2777.55 2775.78 2774.02 2772.28 2770.89 2769.12 2767.40 2765.70 2764.20 2762.62 2760.67 2758.86 2757.04 2755.37 2753.56 2751.63 2749.70 2747.97 2746.00 2744.20 2742.13 2740.19 2738.26 2736.23 2734.13 2732.16 2729.98 2727.71 2726.51 2725.92 2721.16 2721.04 2718.81 2715.21 2712.42 2710.55 2708.94 2707.31 2706.23 2705.19 2704.71 2706.09 2707.11 2711.00 2710.79 2710.34 2707.13 2709.30 2708.62 2706.32 2703.30 2700.23 2696.63 2694.67 2692.11 2689.22 2686.21 2682.44 2678.07 2673.16 2671.95 2665.51 2661.72 2659.99 2660.84 2656.10 2653.28 2651.84 2649.69 2649.44 2650.34 2650.17 2650.70 2650.71 2649.86 2647.00 2645.51 2643.77 2641.71 2637.79 2633.52 2632.94 2630.42 2624.51 2622.40 2621.89 2620.51 2619.31 2617.07 2616.44 2615.46 2614.88 2616.88 2616.53 2619.63 2619.84 2620.29 2621.21 2619.19 2617.50 2612.28 2610.93 2609.82 2608.32 2592.23 2585.98 2577.61 2576.34 2574.00 2570.87 2566.74 2562.63 2559.03 2556.64 2553.46 2552.08 2549.75 2544.03 2540.77 2538.88 2537.18 2537.73 2539.45 2541.19 2541.12 2541.35 2542.41 2543.10 2544.17 2543.84 2543.85 2545.39 2547.17
2976.60 2975.71 2974.95 2974.30 2973.26 2972.61 2971.55 2970.89 2969.42 2968.67 2967.67 2966.44 2965.01 2972.90 2976.89 2978.69 2976.84 2974.35 2974.23 2977.47 2978.98 2979.28 2979.87 2982.46 2981.67 2982.04 2981.95 2981.14 2980.90 2981.02 2980.62 2980.34 2978.92 2977.77 2976.01 2974.18 2972.80 2971.42 2969.79 2968.59 2967.34 2966.01 2964.65 2963.15 2961.89 2960.28 2958.71 2957.31 2955.73 2954.26 2952.55 2950.89 2949.31 2947.54 2946.00 2944.35 2942.46 2940.53 2938.48 2936.70 2934.55 2932.48 2930.29 2928.06 2925.84 2923.58 2921.24 2918.64 2916.15 2913.53 2910.96 2908.18 2905.35 2902.57 2899.82 2896.97 2894.12 2891.34 2888.32 2885.52 2882.51 2879.64 2876.89 2874.05 2871.35 2868.59 2865.91 2863.38 2860.67 2858.19 2855.75 2853.35 2850.94 2848.75 2846.52 2844.50 2842.38 2840.29 2838.07 2835.90 2833.88 2831.81 2829.91 2828.01 2825.79 2823.90 2821.70 2819.78 2817.47 2815.54 2813.36 2811.18 2808.89 2806.87 2804.88 2802.99 2801.04 2798.99 2797.06 2795.19 2793.37 2791.71 2789.89 2787.98 2786.26 2784.52 2782.69 2781.07 2779.26 2777.56 2775.78 2774.14 2772.54 2771.01 2769.17 2767.65 2765.93 2763.97 2762.14 2760.31 2758.63 2756.85 2754.96 2753.00 2751.20 2749.28 2747.51 2745.59 2743.59 2741.83 2739.71 2737.75 2735.81 2733.26 2731.57 2729.36 2727.35 2725.16 2724.05 2722.77 2718.91 2716.75 2714.88 2713.02 2711.49 2710.01 2708.75 2707.98 2708.01 2709.53 2711.92 2714.76 2713.04 2712.69 2711.09 2709.88 2704.69 2702.36 2700.22 2698.59 2698.86 2695.69 2692.49 2689.45 2687.16 2680.43 2675.81 2671.72 2668.14 2665.07 2666.65 2666.00 2664.61 2661.61 2659.09 2657.60 2657.75 2657.35 2657.63 2658.44 2656.98 2655.97 2652.39 2650.82 2647.06 2644.65 2641.87 2639.29 2638.36 2635.27 2631.59 2629.45 2627.47 2625.57 2622.52 2619.68 2619.82 2620.63 2620.32 2617.54 2619.98 2622.57 2620.67 2622.41 2620.89 2621.26 2615.79 2614.28 2618.18 2619.33 2606.17 2592.08 2585.55 2582.01 2579.63 2577.25 2573.71 2569.66 2566.53 2563.79 2560.00 2556.94 2554.65 2550.59 2545.68 2543.41 2541.20 2542.31 2540.97 2543.33 2544.23 2545.20 2547.09 2548.02 2547.77 2548.60 2547.85 2548.88 2549.91 2551.40
2979.83 2978.28 2977.82 2977.38 2976.55 2975.84 2974.52 2974.12 2972.08 2971.60 2971.32 2969.49 2977.37 2986.97 2990.59 2992.98 2993.28 2989.50 2983.18 2982.74 2983.06 2983.85 2984.94 2985.40 2985.31 2985.61 2985.18 2984.62 2984.14 2983.59 2983.34 2982.95 2983.34 2980.95 2979.54 2977.84 2976.53 2975.18 2973.64 2972.31 2970.98 2969.57 2968.22 2966.60 2965.18 2963.61 2962.14 2960.40 2958.92 2957.36 2955.60 2953.95 2952.37 2950.50 2948.81 2947.10 2945.25 2943.33 2941.39 2939.27 2937.28 2935.14 2933.02 2930.79 2928.60 2926.35 2924.01 2921.30 2918.73 2916.29 2913.68 2910.82 2908.13 2905.30 2902.49 2899.78 2896.90 2894.11 2891.02 2888.29 2885.32 2882.47 2879.69 2876.75 2874.08 2871.41 2868.66 2866.03 2863.44 2860.96 2858.54 2856.26 2853.72 2851.49 2849.29 2847.27 2845.09 2842.88 2840.79 2838.86 2836.86 2834.80 2832.88 2830.80 2828.77 2826.76 2824.90 2822.91 2820.72 2818.70 2816.62 2814.50 2812.33 2810.19 2807.99 2806.18 2804.19 2802.11 2800.41 2798.55 2796.79 2795.14 2793.31 2791.33 2789.86 2787.89 2786.13 2784.37 2782.58 2780.79 2779.07 2777.42 2776.01 2774.07 2772.40 2770.68 2769.01 2767.19 2765.37 2763.66 2761.75 2759.91 2758.13 2756.20 2754.33 2752.48 2750.77 2748.91 2746.93 2744.98 2743.11 2741.19 2739.32 2737.17 2735.06 2733.03 2731.17 2728.91 2726.92 2724.96 2722.91 2720.92 2718.88 2717.07 2715.34 2713.86 2712.38 2711.57 2712.16 2715.77 2718.40 2717.80 2715.32 2710.74 2709.20 2708.42 2710.16 2706.86 2704.53 2707.40 2702.91 2696.05 2692.43 2688.47 2685.28 2681.47 2677.73 2675.10 2674.03 2671.99 2672.42 2671.47 2668.34 2665.75 2663.76 2664.59 2662.91 2662.31 2663.63 2662.40 2662.02 2658.50 2656.53 2652.19 2648.59 2647.08 2644.01 2642.97 2641.87 2638.40 2634.18 2632.12 2630.99 2627.90 2627.61 2624.73 2623.84 2624.10 2620.20 2620.85 2621.65 2622.80 2623.14 2622.22 2622.61 2617.80 2618.16 2622.48 2625.99 2621.22 2602.35 2595.86 2590.34 2588.91 2584.61 2580.88 2576.93 2572.46 2569.14 2565.18 2562.44 2559.42 2553.38 2550.62 2548.44 2546.44 2547.25 2545.36 2546.60 2547.07 2548.32 2550.60 2551.27 2551.95 2551.50 2553.19 2552.48 2553.06 2553.38 2554.44
2982.88 2981.49 2980.75 2980.62 2979.49 2978.49 2977.81 2976.21 2975.98 2975.51 2975.53 2982.99 2988.58 2996.79 3000.28 3003.36 3004.42 3002.62 3000.11 2993.56 2989.16 2989.04 2989.16 2990.16 2990.52 2988.97 2988.72 2988.19 2987.58 2987.01 2986.50 2986.12 2985.52 2984.51 2983.13 2981.85 2980.50 2978.85 2977.48 2975.98 2974.46 2973.14 2971.70 2970.01 2968.60 2967.06 2965.31 2963.68 2962.06 2960.34 2958.60 2956.99 2955.24 2953.60 2951.78 2949.89 2948.10 2946.21 2944.12 2942.00 2939.94 2937.81 2935.68 2933.54 2931.29 2929.09 2926.65 2924.06 2921.51 2918.85 2916.39 2913.65 2910.85 2908.07 2905.23 2902.58 2899.77 2896.94 2893.73 2890.94 2888.12 2885.33 2882.45 2879.64 2876.84 2873.97 2871.33 2868.73 2866.17 2863.69 2861.27 2858.85 2856.56 2854.41 2851.92 2849.92 2847.75 2845.81 2843.47 2841.66 2839.54 2837.63 2835.70 2833.76 2831.61 2829.61 2827.73 2825.81 2823.81 2821.80 2819.57 2817.53 2815.51 2813.33 2811.27 2809.13 2807.19 2805.44 2803.45 2801.78 2799.97 2798.23 2796.46 2794.76 2792.92 2791.18 2789.37 2787.66 2785.78 2784.06 2782.35 2780.51 2778.92 2777.14 2775.39 2773.64 2772.00 2770.11 2768.30 2766.49 2764.73 2762.90 2760.94 2758.99 2757.41 2755.50 2753.69 2751.72 2749.86 2748.09 2746.10 2744.28 2742.13 2740.04 2738.43 2736.44 2734.60 2732.53 2730.69 2728.72 2726.70 2724.76 2722.90 2721.10 2719.22 2717.68 2716.10 2714.90 2714.15 2719.22 2718.73 2714.47 2711.88 2710.79 2713.51 2714.03 2711.66 2711.79 2708.82 2706.06 2698.17 2694.77 2690.99 2687.70 2686.45 2683.85 2681.16 2676.94 2675.19 2675.83 2675.52 2671.11 2670.61 2669.25 2669.06 2668.69 2665.74 2664.98 2665.14 2662.45 2660.86 2659.22 2655.54 2651.81 2649.58 2647.92 2648.25 2646.41 2643.80 2639.64 2636.86 2636.45 2635.55 2633.40 2630.98 2626.35 2623.18 2623.63 2621.00 2622.30 2621.10 2622.77 2622.98 2623.73 2620.66 2621.89 2622.10 2629.73 2629.85 2618.94 2606.00 2598.17 2595.92 2593.41 2588.14 2584.90 2579.58 2575.68 2571.38 2568.26 2564.99 2558.77 2556.53 2553.24 2552.19 2551.88 2550.88 2550.33 2550.52 2550.67 2551.37 2553.95 2555.50 2555.53 2555.51 2556.83 2556.18 2555.01 2555.79 2557.18
2985.28 2984.58 2984.43 2984.17 2982.90 2982.37 2982.75 2982.47 2981.56 2981.81 2984.52 2992.15 2998.47 3004.41 3010.37 3012.90 3013.73 3014.89 3012.65 3008.44 3000.17 2994.42 2994.43 2993.94 2994.15 2994.61 2992.55 2991.71 2991.18 2990.63 2989.96 2989.62 2989.16 2988.13 2987.02 2985.58 2984.19 2982.64 2981.20 2979.55 2977.98 2976.71 2975.07 2973.35 2971.92 2970.26 2968.59 2966.74 2965.19 2963.48 2961.69 2959.91 2958.18 2956.40 2954.59 2952.73 2950.83 2948.78 2946.93 2944.78 2942.63 2940.55 2938.42 2936.12 2933.88 2931.63 2929.24 2926.66 2924.24 2921.66 2919.01 2916.37 2913.63 2910.82 2908.05 2905.27 2902.48 2899.52 2896.51 2893.71 2890.80 2888.08 2885.11 2882.24 2879.52 2876.58 2874.07 2871.45 2868.71 2866.19 2863.93 2861.60 2859.01 2856.82 2854.52 2852.54 2850.44 2848.42 2846.23 2844.31 2842.32 2840.35 2838.46 2836.43 2834.44 2832.48 2830.54 2828.71 2826.63 2824.75 2822.53 2820.46 2818.35 2816.34 2814.24 2812.51 2810.30 2808.51 2806.71 2804.78 2803.04 2801.32 2799.78 2797.78 2796.08 2794.42 2792.55 2790.69 2788.89 2787.31 2785.59 2783.78 2781.95 2780.22 2778.43 2776.61 2774.96 2773.07 2771.25 2769.39 2767.53 2765.65 2763.93 2761.96 2760.19 2758.19 2756.47 2754.58 2752.68 2750.73 2749.00 2747.12 2745.23 2743.30 2741.29 2739.55 2737.73 2735.80 2734.04 2732.29 2730.46 2728.57 2726.59 2724.95 2723.01 2721.41 2719.80 2718.28 2717.25 2716.02 2715.57 2714.77 2713.39 2717.00 2718.95 2714.46 2713.76 2709.97 2705.41 2702.83 2699.80 2696.10 2692.33 2688.71 2686.00 2685.27 2682.54 2678.92 2676.64 2675.79 2675.89 2674.66 2672.78 2673.55 2671.59 2669.77 2667.37 2667.24 2662.63 2660.71 2660.05 2657.07 2656.16 2652.66 2651.14 2651.03 2648.35 2645.50 2644.55 2643.42 2640.66 2636.56 2633.95 2633.08 2629.35 2627.35 2625.80 2624.25 2622.87 2622.15 2621.32 2621.34 2622.15 2622.27 2621.95 2622.71 2628.49 2633.08 2629.10 2620.65 2610.13 2602.81 2599.85 2595.77 2591.82 2587.80 2581.13 2577.96 2574.06 2568.64 2564.72 2561.07 2558.60 2557.07 2557.32 2556.49 2555.44 2555.20 2554.76 2555.89 2555.77 2558.61 2559.77 2557.26 2558.43 2558.32 2557.05 2557.24 2558.04 2559.82
2989.01 2987.85 2987.11 2986.92 2987.04 2986.56 2986.79 2986.80 2986.23 2987.18 2989.07 3002.12 3008.09 3011.46 3020.77 3024.50 3026.13 3027.41 3028.53 3025.36 3020.88 3004.66 2999.05 2999.79 2998.18 2997.64 2996.41 2995.67 2994.99 2994.50 2993.90 2993.32 2992.72 2991.75 2990.57 2989.25 2987.92 2986.22 2984.74 2983.12 2981.53 2980.09 2978.44 2976.76 2975.08 2973.44 2971.74 2969.98 2968.22 2966.46 2964.59 2962.96 2961.17 2959.24 2957.42 2955.48 2953.47 2951.31 2949.41 2947.47 2945.36 2943.13 2940.96 2938.65 2936.44 2934.16 2931.88 2929.22 2926.79 2924.29 2921.68 2919.10 2916.41 2913.57 2910.84 2908.00 2905.00 2902.19 2899.25 2896.41 2893.55 2890.70 2887.74 2884.93 2882.04 2879.26 2876.57 2873.97 2871.26 2868.86 2866.35 2863.98 2861.65 2859.48 2857.24 2855.23 2853.12 2851.05 2848.92 2847.02 2845.02 2842.98 2841.07 2839.13 2837.20 2835.33 2833.36 2831.54 2829.62 2827.69 2825.44 2823.40 2821.40 2819.23 2817.19 2815.21 2813.24 2811.50 2809.63 2807.93 2806.18 2804.50 2802.61 2800.97 2799.17 2797.41 2795.60 2793.74 2792.04 2790.37 2788.72 2786.89 2784.91 2783.26 2781.37 2779.58 2777.73 2775.94 2774.04 2772.20 2770.34 2768.51 2766.69 2764.70 2762.75 2760.84 2759.20 2757.19 2755.42 2753.58 2751.69 2749.95 2748.02 2746.11 2744.21 2742.51 2740.77 2738.82 2737.11 2735.40 2733.65 2731.95 2730.08 2728.52 2726.72 2725.01 2723.42 2721.64 2720.26 2719.15 2717.95 2716.88 2715.96 2718.41 2715.42 2711.48 2709.31 2707.48 2705.35 2703.32 2701.03 2697.90 2694.87 2691.78 2688.98 2686.18 2683.74 2681.30 2679.22 2677.10 2675.48 2675.76 2675.60 2673.90 2669.62 2667.89 2666.13 2664.54 2662.87 2661.97 2660.22 2657.78 2656.23 2654.59 2651.43 2650.07 2647.45 2646.42 2647.07 2644.11 2640.76 2638.84 2636.79 2633.62 2631.76 2629.43 2627.54 2625.76 2624.33 2623.20 2622.50 2621.97 2622.00 2622.30 2623.07 2626.23 2630.49 2633.28 2631.71 2624.83 2616.66 2606.20 2602.28 2598.64 2594.50 2588.48 2584.44 2580.94 2574.98 2571.78 2568.90 2563.65 2563.02 2561.86 2561.56 2561.47 2560.59 2559.48 2560.85 2560.65 2559.38 2561.57 2560.50 2559.99 2560.58 2559.56 2559.90 2560.21 2562.27 2565.01
2990.59 2991.07 2989.95 2990.65 2989.93 2989.37 2989.92 2990.28 2991.06 2992.52 2999.97 3010.90 3016.23 3020.13 3030.18 3035.01 3037.95 3040.02 3038.37 3037.34 3030.35 3014.89 3005.03 3005.07 3002.32 3001.42 3000.43 2999.60 2998.95 2998.30 2997.68 2997.22 2996.31 2995.29 2993.94 2992.82 2991.37 2989.73 2988.27 2986.53 2984.93 2983.35 2981.78 2980.13 2978.37 2976.47 2974.72 2973.17 2971.26 2969.54 2967.55 2965.81 2963.99 2961.95 2960.23 2958.16 2956.19 2953.92 2952.17 2949.93 2947.98 2945.68 2943.62 2941.30 2938.98 2936.62 2934.54 2931.81 2929.36 2926.81 2924.21 2921.62 2918.87 2916.27 2913.46 2910.49 2907.75 2904.76 2901.86 2899.07 2895.99 2893.21 2890.35 2887.63 2884.68 2881.82 2879.04 2876.40 2873.89 2871.36 2868.93 2866.55 2864.18 2861.97 2859.81 2857.68 2855.54 2853.57 2851.45 2849.54 2847.55 2845.65 2843.73 2841.89 2839.85 2838.02 2836.13 2834.34 2832.34 2830.41 2828.33 2826.35 2824.40 2822.15 2820.15 2818.14 2816.19 2814.29 2812.38 2810.73 2809.07 2807.25 2805.62 2803.94 2802.19 2800.40 2798.50 2796.82 2795.15 2793.41 2791.61 2789.78 2787.91 2786.07 2784.24 2782.39 2780.55 2778.79 2776.79 2774.87 2773.03 2771.12 2769.14 2767.20 2765.28 2763.31 2761.50 2759.68 2757.84 2756.05 2753.99 2752.30 2750.28 2748.55 2746.77 2745.01 2743.33 2741.60 2740.06 2738.35 2736.70 2735.09 2733.60 2731.92 2730.16 2728.60 2726.88 2725.59 2723.97 2722.47 2720.97 2719.71 2718.36 2717.12 2715.80 2714.04 2711.98 2709.70 2707.46 2705.24 2703.09 2700.75 2698.18 2695.51 2692.77 2690.13 2687.54 2684.94 2682.77 2680.49 2678.55 2676.74 2674.98 2673.36 2671.75 2670.07 2668.26 2666.51 2664.42 2662.58 2660.63 2658.48 2656.32 2654.17 2652.01 2649.91 2647.76 2645.77 2645.55 2643.01 2640.63 2638.98 2637.29 2635.17 2632.99 2630.88 2629.02 2626.93 2624.92 2623.32 2622.41 2621.95 2622.24 2622.43 2623.22 2628.79 2633.53 2635.52 2632.05 2629.58 2619.49 2609.31 2605.63 2601.43 2596.10 2590.70 2587.40 2581.65 2579.03 2575.79 2569.97 2568.39 2566.91 2566.35 2565.79 2565.27 2564.34 2564.94 2564.09 2562.30 2563.81 2562.21 2562.35 2564.26 2563.20 2562.75 2562.94 2563.94 2566.39 2567.91
2994.50 2994.39 2993.85 2992.77 2992.96 2992.72 2992.62 2994.55 2995.87 2997.08 3010.08 3018.89 3025.18 3029.78 3036.82 3044.98 3047.21 3049.52 3048.81 3047.21 3042.07 3021.20 3009.90 3007.95 3006.49 3005.37 3004.48 3003.58 3002.85 3002.26 3001.59 3000.88 2999.98 2998.76 2997.59 2996.24 2994.85 2993.32 2991.53 2989.94 2988.29 2986.63 2984.84 2983.17 2981.48 2979.65 2977.90 2976.20 2974.22 2972.40 2970.48 2968.66 2966.82 2964.83 2962.95 2960.72 2958.74 2956.54 2954.67 2952.70 2950.43 2948.33 2946.12 2943.73 2941.40 2939.21 2936.91 2934.33 2931.84 2929.29 2926.68 2924.24 2921.55 2918.73 2916.13 2913.20 2910.30 2907.53 2904.57 2901.76 2898.69 2895.72 2892.98 2890.10 2887.12 2884.53 2881.75 2878.99 2876.29 2873.76 2871.38 2868.98 2866.68 2864.53 2862.23 2860.14 2858.10 2856.08 2854.11 2852.20 2850.19 2848.27 2846.35 2844.54 2842.49 2840.71 2838.88 2836.98 2835.03 2833.12 2831.12 2829.13 2827.09 2825.04 2822.96 2821.11 2819.00 2817.12 2815.00 2813.41 2811.84 2810.07 2808.40 2806.57 2804.79 2803.23 2801.52 2799.72 2797.88 2796.21 2794.45 2792.59 2790.74 2788.86 2787.02 2785.22 2783.31 2781.28 2779.50 2777.60 2775.50 2773.60 2771.56 2769.59 2767.74 2765.77 2763.89 2762.14 2760.16 2758.27 2756.48 2754.38 2752.85 2750.98 2749.25 2747.55 2746.04 2744.23 2742.73 2741.15 2739.72 2738.14 2736.79 2735.20 2733.63 2732.02 2730.35 2729.01 2727.39 2725.72 2724.40 2722.79 2721.54 2719.97 2718.45 2716.90 2715.11 2712.99 2710.89 2708.78 2706.58 2704.30 2701.84 2699.34 2696.94 2694.51 2691.86 2689.45 2687.23 2684.86 2682.72 2680.70 2678.65 2676.83 2675.28 2673.29 2671.57 2669.91 2667.84 2666.20 2664.35 2662.58 2660.73 2658.39 2656.30 2654.03 2651.66 2649.31 2646.94 2644.94 2643.06 2641.21 2639.33 2637.50 2635.34 2633.22 2631.11 2629.21 2627.49 2625.94 2624.73 2624.00 2623.54 2623.98 2627.51 2633.48 2637.93 2636.54 2635.52 2631.02 2617.75 2612.97 2608.19 2602.67 2597.75 2592.60 2588.37 2585.83 2582.80 2576.05 2574.00 2570.05 2570.09 2570.42 2569.79 2568.37 2567.54 2568.42 2567.41 2566.39 2565.19 2565.56 2566.89 2565.69 2565.47 2565.76 2564.93 2567.27 2570.46 2563.24
2997.52 2996.43 2995.99 2995.53 2995.10 2995.80 2996.95 2998.93 3001.52 3004.08 3018.42 3028.03 3033.69 3039.84 3045.46 3054.80 3057.58 3059.01 3058.07 3055.66 3049.77 3029.56 3014.66 3012.08 3010.57 3009.60 3008.53 3007.65 3006.79 3006.06 3005.27 3004.46 3003.36 3002.23 3000.89 2999.50 2998.16 2996.68 2994.98 2993.31 2991.66 2989.91 2988.07 2986.43 2984.58 2982.78 2980.79 2979.10 2977.29 2975.29 2973.43 2971.38 2969.51 2967.47 2965.51 2963.30 2961.19 2959.10 2957.25 2955.10 2952.98 2950.77 2948.55 2946.31 2943.95 2941.63 2939.46 2936.90 2934.31 2931.98 2929.15 2926.81 2924.08 2921.34 2918.57 2915.85 2913.12 2910.19 2907.17 2904.29 2901.26 2898.62 2895.58 2892.65 2889.91 2886.95 2884.24 2881.65 2878.61 2876.37 2873.86 2871.37 2869.08 2866.88 2864.71 2862.56 2860.42 2858.56 2856.52 2854.66 2852.67 2850.64 2848.83 2847.07 2845.17 2843.40 2841.58 2839.63 2837.73 2835.76 2833.87 2831.87 2829.89 2827.82 2825.80 2823.82 2821.77 2819.68 2817.73 2816.03 2814.33 2812.71 2810.81 2809.36 2807.45 2805.86 2804.17 2802.21 2800.60 2798.95 2797.19 2795.36 2793.47 2791.48 2789.72 2787.98 2786.08 2784.11 2782.05 2780.03 2778.12 2776.17 2774.11 2772.07 2770.09 2768.13 2766.36 2764.46 2762.33 2760.61 2758.62 2756.79 2755.03 2753.48 2751.46 2749.87 2748.50 2746.79 2745.29 2743.73 2742.29 2740.98 2739.48 2738.21 2736.71 2735.16 2733.64 2732.34 2730.83 2729.24 2727.86 2726.35 2724.95 2723.55 2721.99 2720.28 2718.63 2716.65 2714.69 2712.66 2710.55 2708.31 2705.86 2703.73 2701.29 2698.70 2696.33 2694.02 2691.35 2689.34 2687.30 2685.15 2683.01 2681.22 2679.52 2677.65 2675.83 2674.09 2672.54 2670.86 2668.92 2667.21 2665.19 2663.22 2661.15 2659.06 2656.72 2654.28 2652.02 2649.64 2647.46 2645.31 2643.23 2641.31 2639.35 2637.45 2635.26 2633.24 2631.43 2629.79 2628.28 2627.18 2626.78 2627.10 2631.13 2638.40 2640.93 2637.88 2639.44 2631.95 2621.49 2616.81 2610.61 2603.87 2600.23 2595.34 2591.89 2588.15 2582.39 2579.61 2576.80 2575.87 2575.52 2573.59 2572.87 2571.83 2572.26 2571.69 2570.69 2569.68 2569.05 2568.59 2568.76 2567.87 2567.73 2567.36 2568.31 2571.21 2568.85 2558.65
3004.03 3000.83 2999.49 3000.27 3000.30 3000.72 3002.92 3005.21 3011.52 3020.62 3027.77 3037.07 3042.57 3048.86 3056.28 3062.63 3066.91 3066.85 3064.83 3062.19 3057.34 3036.78 3020.17 3016.91 3014.97 3013.76 3012.66 3011.75 3010.59 3009.81 3009.01 3007.93 3006.90 3005.54 3004.27 3002.91 3001.58 3000.06 2998.26 2996.66 2994.84 2993.00 2991.17 2989.52 2987.49 2985.66 2983.82 2982.01 2980.06 2978.12 2976.12 2974.07 2972.14 2970.23 2968.29 2965.97 2963.83 2961.60 2959.69 2957.61 2955.43 2953.13 2950.92 2948.78 2946.39 2944.07 2941.80 2939.23 2936.79 2934.27 2931.68 2929.17 2926.63 2923.87 2921.10 2918.35 2915.64 2912.89 2909.87 2906.90 2903.96 2901.22 2898.21 2895.24 2892.54 2889.64 2886.94 2884.14 2881.41 2878.72 2876.19 2873.74 2871.56 2869.21 2866.90 2864.90 2862.69 2860.83 2858.84 2856.97 2855.06 2853.32 2851.47 2849.52 2847.77 2845.86 2844.18 2842.23 2840.30 2838.53 2836.45 2834.52 2832.44 2830.57 2828.59 2826.48 2824.27 2822.34 2820.39 2818.65 2816.95 2815.28 2813.33 2811.72 2810.07 2808.41 2806.76 2804.99 2803.24 2801.61 2799.82 2797.92 2796.18 2794.25 2792.31 2790.57 2788.75 2786.66 2784.71 2782.70 2780.63 2778.57 2776.52 2774.41 2772.62 2770.56 2768.62 2766.70 2764.79 2762.78 2760.93 2759.15 2757.38 2755.70 2753.82 2752.19 2750.79 2749.13 2747.55 2746.25 2744.57 2743.52 2742.04 2740.72 2739.31 2738.16 2737.00 2735.47 2734.18 2732.69 2731.27 2729.84 2728.50 2726.96 2725.42 2723.91 2722.09 2720.21 2718.48 2716.40 2714.55 2712.29 2710.04 2707.76 2705.58 2703.24 2700.84 2698.33 2696.05 2693.75 2691.78 2689.64 2687.67 2685.70 2683.89 2682.08 2680.44 2678.61 2676.96 2675.31 2673.83 2672.09 2670.11 2668.38 2666.05 2663.90 2661.74 2659.75 2657.36 2655.20 2652.65 2649.92 2647.83 2645.83 2643.89 2641.86 2639.76 2637.92 2635.90 2634.13 2632.71 2631.46 2630.62 2630.52 2632.86 2638.33 2641.79 2642.60 2640.04 2633.10 2624.77 2618.68 2613.23 2606.88 2601.49 2597.93 2592.81 2588.48 2585.99 2582.45 2581.71 2580.66 2578.16 2576.39 2576.16 2575.61 2575.94 2575.03 2573.18 2572.70 2571.93 2571.52 2569.73 2570.31 2570.45 2571.98 2572.63 2567.86 2554.18 2532.01
3007.05 3004.51 3003.47 3004.13 3005.45 3006.29 3008.74 3020.64 3029.03 3032.59 3037.00 3044.74 3051.15 3057.23 3062.52 3070.92 3072.25 3070.96 3069.14 3066.86 3062.95 3046.38 3024.99 3021.31 3019.32 3017.94 3016.57 3015.64 3014.48 3013.37 3012.41 3011.30 3010.01 3008.78 3007.56 3006.10 3004.84 3003.24 3001.50 2999.86 2998.05 2996.20 2994.34 2992.56 2990.49 2988.69 2986.81 2984.81 2982.98 2980.79 2978.83 2976.87 2974.76 2972.63 2970.76 2968.59 2966.23 2964.09 2962.22 2960.04 2957.78 2955.54 2953.29 2951.05 2948.60 2946.52 2944.19 2941.75 2939.14 2936.84 2934.31 2931.76 2929.24 2926.55 2923.76 2920.91 2918.27 2915.32 2912.63 2909.68 2906.76 2903.85 2900.94 2897.97 2895.19 2892.26 2889.40 2886.72 2883.85 2881.30 2878.65 2876.26 2873.81 2871.60 2869.42 2867.21 2865.01 2863.08 2861.19 2859.40 2857.50 2855.65 2853.92 2852.12 2850.26 2848.39 2846.76 2844.63 2842.86 2840.96 2838.89 2837.06 2835.19 2833.30 2831.34 2829.16 2826.96 2824.99 2822.98 2821.04 2819.26 2817.91 2815.96 2814.15 2812.49 2810.91 2809.23 2807.54 2805.78 2804.00 2802.38 2800.58 2798.73 2796.87 2795.00 2793.25 2791.30 2789.24 2787.24 2785.24 2783.20 2781.16 2778.99 2777.03 2774.80 2772.86 2770.77 2768.96 2766.93 2765.00 2763.10 2761.17 2759.60 2757.93 2756.17 2754.40 2753.03 2751.41 2749.99 2748.45 2746.78 2745.77 2744.39 2743.31 2742.04 2740.94 2739.79 2738.51 2737.26 2735.82 2734.53 2733.33 2731.93 2730.51 2729.04 2727.62 2725.76 2724.07 2722.24 2720.46 2718.34 2716.29 2714.26 2712.11 2709.62 2707.35 2705.02 2702.53 2700.32 2698.17 2695.99 2693.62 2691.55 2689.76 2687.95 2686.10 2684.49 2682.86 2681.19 2679.71 2678.07 2676.34 2674.46 2672.66 2670.80 2668.61 2666.43 2664.31 2662.22 2660.14 2657.52 2655.21 2652.89 2650.60 2648.31 2646.14 2644.18 2642.00 2640.26 2638.28 2636.93 2635.54 2634.55 2634.12 2637.85 2642.60 2644.12 2645.08 2642.29 2632.84 2625.74 2619.52 2614.69 2608.20 2602.26 2598.77 2594.23 2590.54 2588.25 2585.97 2584.77 2583.41 2582.02 2579.73 2580.08 2579.96 2578.92 2577.82 2576.82 2576.53 2575.79 2574.42 2571.98 2572.95 2575.23 2573.68 2568.84 2560.47 2548.44 2490.27
3012.16 3009.40 3008.63 3009.62 3012.10 3023.20 3030.47 3037.39 3041.19 3045.05 3048.04 3055.32 3060.50 3065.61 3071.22 3076.10 3075.75 3073.88 3071.99 3070.59 3067.24 3060.51 3029.15 3025.42 3023.69 3022.14 3020.64 3019.37 3018.16 3017.03 3015.83 3014.67 3013.42 3012.07 3010.73 3009.21 3007.94 3006.29 3004.65 3002.92 3001.17 2999.15 2997.29 2995.45 2993.48 2991.55 2989.61 2987.64 2985.69 2983.64 2981.52 2979.50 2977.32 2975.33 2973.30 2971.12 2968.88 2966.54 2964.64 2962.44 2960.18 2958.00 2955.68 2953.56 2951.19 2948.90 2946.57 2944.16 2941.83 2939.28 2936.85 2934.20 2931.67 2929.17 2926.31 2923.66 2920.95 2918.14 2915.40 2912.40 2909.49 2906.46 2903.63 2900.66 2897.64 2894.91 2892.00 2889.27 2886.56 2883.67 2881.21 2878.79 2876.37 2873.91 2871.70 2869.45 2867.10 2865.29 2863.46 2861.70 2859.85 2858.01 2856.42 2854.53 2852.65 2850.91 2849.09 2847.23 2845.41 2843.52 2841.51 2839.55 2837.66 2835.88 2833.97 2831.92 2829.66 2827.69 2825.64 2823.54 2821.76 2820.03 2818.24 2816.62 2814.89 2813.25 2811.70 2810.08 2808.22 2806.49 2804.88 2803.20 2801.33 2799.69 2797.52 2795.79 2793.82 2791.72 2789.76 2787.67 2785.68 2783.64 2781.50 2779.36 2777.28 2775.26 2773.24 2771.34 2769.14 2767.32 2765.38 2763.50 2761.77 2760.15 2758.39 2756.66 2755.20 2753.59 2752.19 2750.69 2749.27 2748.16 2746.79 2745.70 2744.53 2743.40 2742.34 2741.17 2740.17 2738.79 2737.62 2736.48 2735.09 2733.64 2732.35 2730.86 2729.41 2727.63 2725.91 2724.17 2722.28 2720.24 2718.11 2716.08 2713.70 2711.36 2708.97 2706.73 2704.51 2702.31 2700.04 2697.91 2695.55 2693.67 2691.85 2690.02 2688.19 2686.57 2684.93 2683.48 2681.88 2680.22 2678.76 2676.70 2674.85 2673.02 2670.72 2668.69 2666.72 2664.43 2662.02 2659.85 2657.45 2655.14 2652.85 2650.49 2648.34 2646.20 2644.03 2642.14 2640.60 2639.09 2637.97 2637.43 2639.67 2644.76 2646.91 2647.57 2644.14 2633.43 2629.20 2621.21 2615.29 2609.42 2603.05 2599.43 2597.32 2593.82 2591.77 2588.98 2586.34 2584.65 2584.08 2584.95 2584.89 2581.35 2580.00 2579.43 2579.91 2579.58 2579.07 2578.15 2574.50 2576.32 2574.29 2570.20 2566.51 2561.34 2534.50 2486.87
3044.44 3041.68 3040.04 3041.30 3041.58 3043.89 3047.04 3050.69 3053.38 3056.12 3058.34 3064.65 3070.96 3074.54 3079.08 3080.53 3078.79 3076.80 3074.90 3073.22 3071.01 3065.49 3032.72 3029.64 3027.85 3026.03 3024.44 3023.01 3022.37 3020.47 3019.20 3017.80 3016.52 3015.29 3013.96 3012.40 3010.87 3009.24 3007.56 3005.88 3004.04 3002.07 3000.11 2998.31 2996.33 2994.50 2992.51 2990.36 2988.46 2986.29 2984.13 2982.16 2980.01 2977.92 2975.85 2973.67 2971.40 2969.14 2967.14 2964.83 2962.69 2960.53 2958.10 2955.90 2953.57 2951.06 2948.89 2946.62 2944.17 2941.63 2939.19 2936.93 2934.23 2931.68 2928.81 2926.30 2923.58 2920.81 2918.02 2915.20 2912.15 2909.20 2906.27 2903.45 2900.44 2897.45 2894.76 2891.89 2889.26 2886.48 2883.79 2881.38 2878.79 2876.53 2874.28 2871.91 2869.70 2867.52 2865.79 2863.87 2862.16 2860.44 2858.64 2856.93 2855.30 2853.32 2851.81 2849.61 2847.92 2846.08 2843.97 2842.21 2840.30 2838.47 2836.35 2834.29 2832.21 2830.33 2828.07 2826.07 2824.35 2822.38 2820.70 2818.82 2817.08 2815.55 2814.05 2812.43 2810.64 2808.95 2807.20 2805.59 2803.76 2801.95 2800.11 2798.19 2796.43 2794.38 2792.30 2790.35 2788.40 2786.12 2783.93 2781.96 2779.79 2777.81 2775.66 2773.72 2771.57 2769.78 2767.78 2765.83 2764.27 2762.66 2760.82 2759.22 2757.51 2755.96 2754.45 2753.02 2751.62 2750.53 2749.04 2748.22 2747.07 2745.90 2744.81 2743.69 2742.75 2741.63 2740.47 2739.35 2738.01 2736.75 2735.45 2734.17 2732.70 2730.96 2729.36 2727.67 2725.76 2723.78 2721.76 2719.66 2717.52 2715.23 2713.00 2710.85 2708.48 2706.16 2703.90 2701.70 2699.40 2697.36 2695.48 2693.67 2691.86 2690.09 2688.55 2687.05 2685.30 2683.68 2682.12 2680.32 2678.45 2676.67 2674.76 2672.71 2670.44 2668.28 2665.87 2663.68 2661.35 2659.06 2656.78 2654.44 2652.16 2649.98 2647.92 2645.79 2644.17 2642.58 2641.18 2640.51 2643.04 2646.49 2648.05 2648.40 2644.11 2635.27 2628.48 2622.22 2614.56 2609.92 2605.49 2603.16 2599.22 2596.92 2594.61 2591.39 2590.23 2589.77 2589.49 2589.09 2588.11 2585.69 2582.37 2583.05 2583.53 2582.78 2582.17 2580.10 2578.05 2573.98 2572.31 2569.54 2567.56 2556.00 2544.98 2497.45
3064.10 3061.29 3059.48 3057.53 3056.60 3057.01 3060.64 3063.09 3063.89 3066.45 3068.96 3072.38 3078.01 3083.24 3085.59 3085.08 3082.74 3080.75 3078.53 3076.43 3073.51 3066.68 3037.91 3034.10 3031.89 3030.03 3028.23 3026.62 3024.98 3023.79 3022.46 3021.02 3019.60 3018.38 3016.84 3015.37 3013.86 3012.19 3010.48 3008.67 3006.98 3004.84 3002.99 3001.10 2999.12 2997.20 2995.21 2993.11 2991.07 2988.89 2986.76 2984.69 2982.54 2980.46 2978.24 2976.10 2973.86 2971.59 2969.50 2967.29 2965.05 2962.74 2960.41 2958.22 2955.95 2953.68 2951.20 2949.08 2946.76 2944.11 2941.56 2939.23 2936.60 2934.28 2931.51 2929.05 2926.14 2923.45 2920.68 2917.82 2915.02 2911.94 2909.16 2906.02 2903.04 2900.19 2897.49 2894.78 2891.95 2889.26 2886.66 2884.01 2881.59 2879.06 2876.74 2874.34 2872.06 2870.08 2867.93 2866.23 2864.29 2862.56 2860.98 2859.18 2857.54 2855.78 2853.95 2852.05 2850.35 2848.50 2846.65 2844.71 2842.89 2840.89 2838.90 2836.90 2834.71 2832.73 2830.62 2828.77 2826.71 2824.74 2822.94 2821.16 2819.38 2817.77 2816.29 2814.73 2813.03 2811.28 2809.60 2807.99 2806.21 2804.35 2802.61 2800.73 2798.94 2797.00 2795.01 2792.86 2790.92 2788.67 2786.80 2784.63 2782.56 2780.46 2778.28 2776.36 2774.27 2772.42 2770.40 2768.57 2766.82 2765.19 2763.31 2761.76 2760.01 2758.50 2756.95 2755.63 2754.13 2752.82 2751.44 2750.36 2749.27 2748.35 2747.38 2746.23 2745.39 2744.16 2743.10 2742.03 2740.79 2739.68 2738.38 2737.02 2735.64 2734.07 2732.56 2730.97 2729.11 2727.25 2725.36 2723.15 2721.15 2718.80 2716.63 2714.43 2712.15 2709.84 2707.61 2705.47 2703.25 2701.21 2699.07 2697.19 2695.30 2693.60 2691.81 2690.20 2688.56 2686.97 2685.30 2683.50 2681.70 2679.98 2678.05 2676.20 2674.02 2671.86 2669.63 2667.53 2665.20 2662.84 2660.43 2658.21 2655.99 2653.57 2651.29 2649.31 2647.48 2645.53 2644.15 2644.28 2645.01 2648.43 2650.82 2648.24 2641.56 2634.71 2627.87 2621.99 2616.18 2611.00 2608.53 2604.75 2602.09 2599.61 2597.19 2594.29 2594.63 2593.94 2592.97 2591.72 2589.31 2587.07 2584.91 2587.37 2586.58 2584.92 2584.04 2581.82 2574.80 2574.67 2572.84 2573.19 2575.87 2573.83 2561.93 2516.49
3078.17 3076.09 3074.45 3073.12 3070.97 3070.36 3072.94 3075.18 3075.33 3076.43 3078.50 3081.64 3086.65 3090.54 3090.94 3089.95 3087.20 3084.54 3082.46 3080.17 3076.21 3062.40 3042.88 3038.62 3035.94 3033.78 3031.63 3029.99 3028.23 3026.82 3025.39 3023.94 3022.49 3021.14 3019.81 3018.26 3016.63 3015.04 3013.20 3011.46 3009.68 3007.65 3005.80 3003.86 3001.91 2999.87 2997.77 2995.67 2993.53 2991.45 2989.42 2987.19 2984.86 2982.88 2980.69 2978.58 2976.38 2974.12 2971.89 2969.66 2967.33 2965.22 2962.91 2960.66 2958.33 2956.10 2953.67 2951.43 2949.03 2946.58 2944.11 2941.66 2939.21 2936.92 2934.10 2931.62 2928.77 2926.16 2923.40 2920.66 2917.85 2914.96 2911.90 2908.98 2906.05 2903.13 2900.31 2897.55 2894.80 2892.12 2889.22 2886.69 2884.18 2881.66 2879.28 2877.07 2874.87 2872.42 2870.49 2868.58 2866.64 2864.76 2863.13 2861.55 2859.90 2858.09 2856.53 2854.58 2852.81 2850.88 2849.18 2847.35 2845.42 2843.47 2841.40 2839.41 2837.40 2835.50 2833.18 2831.21 2829.18 2827.05 2825.23 2823.51 2821.73 2820.00 2818.45 2816.91 2815.25 2813.52 2811.99 2810.34 2808.61 2806.80 2805.00 2803.31 2801.49 2799.51 2797.59 2795.58 2793.60 2791.45 2789.43 2787.35 2785.30 2783.26 2781.11 2779.10 2777.27 2775.16 2773.24 2771.26 2769.56 2767.86 2766.12 2764.50 2762.91 2761.35 2759.90 2758.43 2757.03 2755.63 2754.32 2753.00 2751.80 2750.81 2749.62 2748.70 2747.77 2746.64 2745.58 2744.66 2743.47 2742.28 2741.15 2739.92 2738.53 2737.04 2735.49 2733.94 2732.13 2730.37 2728.39 2726.39 2724.46 2722.27 2720.07 2718.07 2715.84 2713.52 2711.41 2709.29 2706.97 2704.84 2702.73 2700.74 2698.82 2696.97 2695.14 2693.35 2691.68 2690.05 2688.35 2686.56 2684.70 2682.97 2681.04 2679.17 2677.07 2675.00 2672.84 2670.59 2668.43 2666.27 2663.90 2661.56 2659.25 2656.95 2654.55 2652.42 2650.37 2648.49 2646.68 2646.66 2648.15 2648.66 2650.58 2647.52 2640.78 2636.01 2629.93 2621.94 2616.36 2613.21 2610.54 2607.37 2603.79 2602.32 2598.23 2598.83 2598.98 2597.53 2595.64 2592.70 2591.41 2588.67 2587.62 2588.13 2588.65 2587.13 2582.42 2578.41 2578.90 2577.01 2579.02 2578.29 2579.81 2580.57 2575.21 2521.24
3092.25 3090.30 3087.75 3085.98 3084.23 3083.63 3087.44 3087.24 3086.20 3086.73 3088.84 3090.27 3095.07 3097.41 3096.42 3094.86 3092.36 3089.80 3086.25 3083.05 3077.53 3057.24 3047.48 3042.96 3039.82 3037.25 3035.17 3033.17 3031.41 3029.70 3028.19 3026.74 3025.19 3024.05 3022.58 3021.00 3019.33 3017.76 3016.07 3014.20 3012.38 3010.45 3008.49 3006.59 3004.42 3002.41 3000.38 2998.16 2996.06 2993.95 2991.83 2989.66 2987.34 2985.32 2983.20 2981.07 2978.99 2976.49 2974.29 2972.00 2969.87 2967.55 2965.29 2963.13 2960.69 2958.51 2956.18 2953.85 2951.63 2949.06 2946.69 2944.28 2941.76 2939.29 2936.70 2934.25 2931.62 2928.90 2926.12 2923.53 2920.85 2917.88 2914.92 2911.97 2909.09 2906.24 2903.29 2900.57 2898.01 2895.16 2892.46 2889.73 2887.21 2884.72 2882.28 2879.77 2877.44 2875.23 2873.17 2871.12 2869.03 2867.12 2865.50 2863.80 2862.13 2860.46 2858.90 2857.06 2855.34 2853.54 2851.71 2849.85 2847.99 2846.04 2844.01 2841.96 2839.97 2837.78 2835.77 2833.63 2831.67 2829.69 2827.73 2825.78 2824.02 2822.20 2820.68 2819.04 2817.55 2815.81 2814.30 2812.55 2811.06 2809.28 2807.51 2805.77 2803.89 2802.22 2800.14 2798.21 2796.51 2794.26 2792.32 2790.31 2788.11 2786.23 2784.00 2782.09 2780.18 2778.25 2776.38 2774.34 2772.69 2770.88 2769.25 2767.56 2766.04 2764.36 2762.96 2761.50 2760.02 2758.64 2757.28 2755.94 2754.66 2753.47 2752.28 2751.24 2750.24 2749.13 2748.14 2746.98 2745.86 2744.83 2743.67 2742.48 2741.19 2739.73 2738.34 2736.78 2735.04 2733.36 2731.42 2729.60 2727.77 2725.60 2723.52 2721.43 2719.33 2717.05 2714.95 2712.87 2710.67 2708.53 2706.31 2704.11 2702.30 2700.30 2698.28 2696.44 2694.58 2692.90 2691.11 2689.30 2687.52 2685.73 2683.77 2681.95 2679.91 2677.78 2675.75 2673.69 2671.52 2669.19 2666.93 2664.58 2662.24 2660.00 2657.70 2655.34 2653.18 2651.27 2649.32 2647.52 2648.17 2649.37 2648.83 2645.82 2640.99 2637.97 2632.94 2625.34 2618.97 2614.11 2611.31 2608.14 2606.08 2603.93 2603.42 2603.72 2601.34 2599.73 2596.55 2594.66 2592.87 2589.74 2588.49 2588.67 2587.74 2583.16 2581.45 2581.16 2582.85 2585.46 2583.90 2584.58 2586.52 2585.28 2572.55 2522.17
3105.76 3102.84 3100.67 3098.73 3097.45 3097.21 3099.56 3098.63 3096.90 3097.81 3098.28 3099.75 3103.52 3104.09 3101.98 3099.38 3095.70 3092.46 3089.00 3085.02 3071.85 3057.39 3051.59 3046.84 3043.48 3040.58 3038.31 3036.33 3034.61 3032.57 3030.97 3029.49 3028.04 3026.83 3025.23 3023.62 3022.03 3020.37 3018.62 3016.77 3014.99 3013.02 3011.14 3009.13 3006.93 3004.98 3002.73 3000.57 2998.57 2996.42 2994.35 2992.15 2989.84 2987.65 2985.42 2983.36 2981.13 2979.00 2976.78 2974.37 2972.16 2969.81 2967.52 2965.53 2963.12 2960.90 2958.62 2956.27 2953.88 2951.48 2949.00 2946.92 2944.46 2941.77 2939.35 2936.89 2934.32 2931.61 2929.07 2926.40 2923.56 2920.74 2917.79 2914.98 2912.19 2909.20 2906.38 2903.51 2900.97 2898.29 2895.65 2892.94 2890.31 2887.78 2885.43 2882.86 2880.45 2878.21 2876.05 2873.87 2871.71 2869.83 2868.09 2866.29 2864.64 2862.97 2861.34 2859.46 2857.92 2856.09 2854.34 2852.36 2850.56 2848.69 2846.78 2844.65 2842.70 2840.55 2838.47 2836.33 2834.44 2832.04 2830.20 2828.21 2826.19 2824.56 2822.82 2821.30 2819.81 2817.95 2816.40 2814.84 2813.26 2811.66 2809.97 2808.31 2806.47 2804.68 2803.00 2800.85 2799.17 2797.10 2795.24 2793.27 2791.15 2789.17 2787.15 2785.34 2783.43 2781.53 2779.63 2777.93 2776.09 2774.31 2772.65 2771.03 2769.40 2767.86 2766.43 2764.82 2763.38 2761.84 2760.59 2759.18 2757.88 2756.42 2755.29 2754.04 2752.91 2751.59 2750.54 2749.51 2748.33 2747.29 2746.06 2744.92 2743.69 2742.51 2740.89 2739.31 2737.87 2736.07 2734.34 2732.52 2730.71 2728.72 2726.72 2724.71 2722.50 2720.55 2718.42 2716.30 2714.25 2711.99 2709.78 2707.55 2705.70 2703.55 2701.69 2699.63 2697.71 2695.85 2694.01 2692.05 2690.20 2688.30 2686.42 2684.46 2682.44 2680.48 2678.41 2676.29 2674.24 2672.01 2669.66 2667.42 2665.04 2662.70 2660.33 2658.06 2655.76 2653.68 2651.72 2650.14 2649.73 2650.76 2649.32 2646.46 2641.75 2639.11 2634.91 2628.99 2620.82 2616.00 2610.16 2607.61 2607.63 2606.72 2607.92 2605.03 2603.07 2600.59 2598.29 2597.55 2595.68 2592.43 2588.63 2586.63 2584.76 2585.15 2584.94 2589.11 2585.96 2587.03 2588.89 2590.79 2590.89 2588.27 2561.45 2522.46
3118.40 3116.85 3113.89 3111.35 3110.64 3109.68 3111.12 3109.27 3107.89 3108.68 3108.73 3109.25 3111.35 3109.92 3107.22 3103.43 3099.04 3095.33 3091.46 3085.91 3067.43 3060.30 3054.66 3050.35 3046.92 3043.70 3041.29 3039.08 3037.39 3035.30 3033.59 3032.20 3030.70 3029.39 3027.81 3026.08 3024.52 3023.00 3021.18 3019.33 3017.42 3015.58 3013.69 3011.51 3009.45 3007.48 3005.36 3003.17 3000.90 2998.79 2996.76 2994.48 2992.25 2990.07 2987.98 2985.75 2983.64 2981.31 2979.17 2976.79 2974.54 2972.10 2969.93 2967.86 2965.55 2963.28 2960.89 2958.69 2956.34 2954.13 2951.72 2949.41 2946.84 2944.34 2941.99 2939.53 2936.91 2934.42 2931.66 2929.18 2926.46 2923.67 2920.93 2918.01 2915.13 2912.28 2909.51 2906.71 2904.17 2901.47 2898.90 2896.39 2893.65 2891.21 2888.70 2886.09 2883.90 2881.56 2879.19 2876.98 2874.83 2872.80 2870.91 2869.13 2867.22 2865.58 2863.99 2862.11 2860.45 2858.87 2857.06 2855.28 2853.32 2851.35 2849.41 2847.25 2845.41 2843.21 2841.18 2839.17 2836.97 2834.73 2832.79 2830.71 2828.83 2826.94 2825.14 2823.40 2822.01 2820.36 2818.71 2817.12 2815.66 2813.94 2812.43 2810.78 2809.02 2807.47 2805.55 2803.70 2801.94 2800.03 2798.26 2796.32 2794.24 2792.25 2790.42 2788.46 2786.59 2784.90 2783.17 2781.38 2779.77 2778.01 2776.43 2774.80 2773.21 2771.72 2770.25 2768.61 2767.07 2765.50 2764.03 2762.54 2761.20 2759.80 2758.42 2757.01 2755.62 2754.40 2753.21 2752.08 2750.93 2749.74 2748.59 2747.35 2746.12 2744.84 2743.52 2742.02 2740.47 2738.98 2737.11 2735.36 2733.61 2731.75 2729.81 2727.86 2725.96 2723.88 2721.76 2719.77 2717.66 2715.50 2713.43 2711.03 2709.04 2706.92 2705.05 2703.02 2700.91 2698.96 2696.88 2694.85 2692.89 2690.98 2689.02 2687.02 2684.98 2682.83 2680.71 2678.65 2676.50 2674.21 2672.12 2669.84 2667.59 2665.35 2663.02 2660.60 2658.33 2656.34 2654.26 2653.88 2656.29 2653.42 2650.77 2645.44 2642.26 2639.63 2635.98 2630.97 2624.03 2615.71 2612.21 2611.05 2610.95 2610.29 2608.85 2606.47 2604.85 2602.28 2599.84 2600.32 2597.45 2592.29 2590.12 2588.19 2588.46 2588.09 2591.74 2589.79 2590.51 2594.30 2594.19 2594.61 2593.82 2583.83 2556.86 2526.84
3132.45 3129.90 3127.33 3125.27 3123.26 3124.83 3122.37 3121.64 3119.82 3119.47 3118.29 3118.92 3118.72 3115.15 3110.48 3106.86 3103.00 3098.36 3092.55 3077.96 3069.85 3063.38 3058.04 3053.63 3049.98 3046.70 3044.17 3042.04 3040.34 3037.90 3036.12 3034.71 3033.32 3031.96 3030.31 3028.59 3027.03 3025.37 3023.61 3021.91 3019.95 3017.98 3016.09 3013.98 3011.87 3009.80 3007.60 3005.58 3003.43 3001.28 2999.10 2996.72 2994.59 2992.50 2990.20 2988.08 2985.86 2983.67 2981.52 2979.23 2976.90 2974.66 2972.36 2970.26 2967.94 2965.62 2963.30 2961.25 2958.84 2956.60 2954.33 2951.96 2949.54 2947.01 2944.60 2942.18 2939.56 2937.18 2934.64 2931.88 2929.31 2926.58 2923.82 2921.07 2918.40 2915.60 2912.84 2909.99 2907.28 2904.74 2902.23 2899.75 2897.15 2894.66 2892.23 2889.73 2887.44 2885.02 2882.70 2880.45 2878.14 2876.02 2874.06 2872.18 2870.01 2868.27 2866.68 2864.82 2863.13 2861.36 2859.80 2857.90 2856.18 2854.26 2852.21 2850.24 2848.15 2846.21 2844.02 2841.90 2839.64 2837.46 2835.49 2833.51 2831.40 2829.58 2827.57 2825.99 2824.40 2822.80 2821.08 2819.45 2818.01 2816.51 2814.91 2813.25 2811.82 2810.04 2808.41 2806.50 2804.94 2803.09 2801.37 2799.53 2797.47 2795.61 2793.76 2791.86 2790.17 2788.41 2786.81 2785.08 2783.38 2781.87 2780.29 2778.65 2777.26 2775.82 2774.17 2772.60 2770.93 2769.53 2767.90 2766.44 2764.97 2763.49 2761.99 2760.39 2758.96 2757.55 2756.17 2754.93 2753.75 2752.54 2751.13 2749.94 2748.65 2747.37 2745.90 2744.51 2743.05 2741.55 2739.79 2738.24 2736.58 2734.82 2732.88 2731.01 2729.13 2727.10 2725.07 2722.98 2721.03 2718.94 2716.86 2714.63 2712.64 2710.45 2708.42 2706.44 2704.28 2702.02 2699.95 2697.81 2695.74 2693.66 2691.63 2689.49 2687.40 2685.06 2682.98 2680.81 2678.55 2676.38 2674.24 2671.89 2669.66 2667.42 2665.15 2662.81 2660.64 2658.76 2656.67 2658.26 2658.21 2654.48 2649.27 2645.21 2642.31 2639.48 2636.06 2631.77 2625.60 2619.68 2615.43 2613.20 2613.00 2611.71 2609.01 2607.49 2606.09 2603.22 2601.95 2599.73 2596.09 2593.71 2591.58 2590.04 2590.30 2592.60 2593.21 2593.64 2597.41 2597.84 2597.51 2597.25 2597.92 2582.83 2547.64 2516.84
3145.74 3143.57 3141.12 3139.01 3136.39 3135.92 3134.20 3132.87 3131.51 3130.00 3128.65 3127.73 3125.03 3120.01 3114.96 3110.09 3105.74 3099.70 3088.47 3079.94 3072.25 3066.10 3060.91 3056.74 3053.13 3050.48 3047.78 3046.83 3043.87 3040.45 3038.62 3037.21 3035.79 3034.39 3032.89 3031.23 3029.49 3027.78 3026.09 3024.27 3022.34 3020.45 3018.53 3016.45 3014.27 3012.21 3010.01 3008.06 3005.97 3003.65 3001.46 2999.22 2997.02 2994.83 2992.44 2990.54 2988.32 2986.03 2983.80 2981.41 2979.33 2976.90 2974.73 2972.62 2970.25 2968.09 2965.80 2963.59 2961.22 2959.03 2956.78 2954.57 2952.12 2949.58 2947.33 2944.75 2942.31 2939.98 2937.34 2934.72 2932.18 2929.58 2926.78 2924.18 2921.39 2918.74 2915.99 2913.23 2910.59 2907.89 2905.67 2903.11 2900.87 2898.38 2895.88 2893.49 2891.36 2889.00 2886.50 2884.13 2881.83 2879.59 2877.46 2875.28 2873.22 2871.38 2869.50 2867.60 2865.86 2864.17 2862.56 2860.81 2858.85 2857.05 2854.97 2853.05 2851.07 2849.17 2846.87 2844.65 2842.66 2840.45 2838.34 2836.28 2834.20 2832.30 2830.31 2828.59 2826.99 2825.40 2823.70 2822.01 2820.60 2819.02 2817.58 2815.90 2814.40 2812.87 2811.13 2809.39 2807.87 2806.08 2804.32 2802.55 2800.70 2799.04 2797.18 2795.45 2793.62 2791.95 2790.35 2788.90 2787.29 2785.67 2784.18 2782.61 2781.08 2779.75 2778.21 2776.67 2775.25 2773.60 2771.91 2770.39 2768.78 2767.30 2765.71 2764.09 2762.46 2761.05 2759.54 2758.19 2756.70 2755.41 2754.12 2752.67 2751.41 2749.92 2748.76 2747.16 2745.73 2744.32 2742.59 2741.07 2739.50 2737.82 2735.92 2734.13 2732.23 2730.40 2728.44 2726.42 2724.35 2722.53 2720.30 2718.29 2716.15 2714.02 2711.88 2709.82 2707.75 2705.42 2703.24 2701.07 2698.89 2696.77 2694.63 2692.29 2690.09 2687.70 2685.45 2683.08 2680.77 2678.61 2676.40 2674.21 2671.87 2669.55 2667.40 2665.16 2662.83 2660.93 2659.51 2661.46 2659.35 2657.44 2649.50 2646.41 2643.20 2639.95 2636.08 2631.72 2626.89 2621.83 2618.68 2616.93 2614.78 2612.03 2608.68 2607.93 2608.04 2603.34 2601.68 2599.42 2597.24 2595.28 2593.65 2592.36 2591.87 2595.85 2597.51 2599.02 2598.95 2600.24 2599.19 2600.72 2598.74 2576.84 2551.04 2541.81
3159.17 3156.14 3154.35 3153.17 3150.08 3149.42 3147.20 3144.48 3142.86 3141.17 3137.68 3136.13 3130.78 3124.84 3119.37 3114.11 3108.86 3099.57 3090.52 3082.43 3075.21 3068.86 3063.97 3059.23 3056.35 3054.12 3052.58 3049.95 3046.23 3044.49 3041.06 3039.70 3038.25 3036.90 3035.20 3033.48 3031.99 3030.15 3028.42 3026.68 3024.66 3022.85 3020.86 3018.85 3016.70 3014.66 3012.50 3010.51 3008.31 3006.16 3003.85 3001.57 2999.33 2997.21 2994.91 2992.90 2990.70 2988.38 2986.02 2983.80 2981.80 2979.49 2977.01 2974.93 2972.72 2970.53 2968.29 2966.02 2963.70 2961.50 2959.31 2957.22 2954.74 2952.29 2950.03 2947.56 2945.18 2942.78 2940.27 2937.74 2935.13 2932.70 2929.83 2927.17 2924.61 2921.90 2919.19 2916.64 2913.92 2911.37 2909.00 2906.59 2904.36 2901.99 2899.65 2897.42 2895.22 2892.84 2890.35 2887.91 2885.62 2883.19 2880.96 2878.83 2876.57 2874.59 2872.57 2870.72 2869.04 2867.04 2865.43 2863.70 2861.76 2859.95 2857.86 2856.05 2854.10 2852.07 2849.76 2847.85 2845.74 2843.38 2841.29 2839.16 2837.16 2835.26 2833.30 2831.42 2829.78 2828.00 2826.33 2824.83 2823.30 2821.84 2820.30 2818.69 2817.08 2815.50 2813.91 2812.36 2810.73 2808.94 2807.36 2805.70 2804.10 2802.33 2800.49 2798.91 2797.32 2795.61 2794.03 2792.54 2791.11 2789.35 2788.02 2786.52 2785.05 2783.73 2782.29 2780.54 2779.22 2777.58 2775.99 2774.33 2772.79 2771.12 2769.53 2767.83 2766.23 2764.68 2762.94 2761.47 2760.00 2758.59 2757.09 2755.74 2754.31 2752.85 2751.47 2749.98 2748.52 2747.12 2745.51 2744.00 2742.31 2740.74 2739.03 2737.11 2735.51 2733.65 2731.80 2729.91 2727.93 2725.95 2723.80 2721.82 2719.72 2717.54 2715.50 2713.41 2711.33 2709.07 2706.75 2704.67 2702.56 2700.25 2697.82 2695.46 2693.10 2690.57 2687.97 2685.65 2683.20 2680.97 2678.72 2676.43 2674.02 2671.92 2669.58 2667.26 2665.05 2663.44 2664.09 2663.85 2663.21 2658.31 2651.42 2648.39 2644.65 2641.00 2637.03 2632.68 2627.88 2623.73 2621.08 2617.96 2615.39 2611.71 2610.01 2608.79 2607.26 2604.14 2602.29 2600.46 2598.75 2597.13 2595.57 2594.95 2594.95 2598.63 2599.56 2599.77 2600.40 2603.47 2605.63 2607.06 2608.85 2611.45 2565.15 2544.40
3173.20 3170.47 3167.89 3166.89 3164.22 3163.71 3158.64 3155.98 3153.00 3149.59 3146.98 3143.53 3135.69 3129.35 3123.66 3117.72 3110.54 3101.25 3093.08 3085.30 3078.04 3071.98 3066.70 3062.35 3058.77 3056.68 3053.55 3051.10 3047.99 3045.63 3043.81 3042.03 3040.61 3039.14 3037.49 3035.93 3034.27 3032.60 3030.63 3028.90 3026.95 3025.08 3023.27 3021.21 3019.00 3016.93 3014.92 3012.85 3010.61 3008.48 3006.31 3003.95 3001.79 2999.56 2997.30 2995.13 2992.91 2990.73 2988.44 2986.24 2983.93 2981.77 2979.47 2977.32 2975.00 2972.89 2970.71 2968.47 2966.17 2964.04 2961.83 2959.74 2957.40 2955.02 2952.67 2950.39 2947.97 2945.62 2943.06 2940.49 2937.92 2935.58 2932.94 2930.44 2927.91 2925.16 2922.47 2919.91 2917.31 2914.61 2912.35 2909.94 2907.69 2905.51 2903.22 2900.99 2898.69 2896.64 2894.10 2891.66 2889.45 2886.95 2884.60 2882.38 2880.04 2877.90 2875.86 2873.91 2871.90 2870.00 2868.27 2866.52 2864.72 2862.88 2860.96 2859.06 2857.20 2855.09 2853.10 2850.85 2848.79 2846.59 2844.48 2842.36 2840.25 2838.38 2836.31 2834.53 2832.82 2830.98 2829.27 2827.81 2826.26 2824.56 2823.05 2821.48 2819.93 2818.40 2816.72 2815.31 2813.63 2812.12 2810.60 2808.78 2807.29 2805.69 2803.92 2802.34 2800.81 2799.23 2797.57 2796.03 2794.61 2793.15 2791.93 2790.39 2789.03 2787.59 2786.19 2784.64 2783.12 2781.56 2779.99 2778.41 2776.60 2775.06 2773.37 2771.72 2770.04 2768.40 2766.66 2765.16 2763.34 2762.04 2760.44 2758.80 2757.39 2755.99 2754.39 2753.03 2751.62 2750.15 2748.58 2747.02 2745.50 2743.80 2742.23 2740.44 2738.75 2737.22 2735.48 2733.45 2731.57 2729.56 2727.72 2725.63 2723.52 2721.47 2719.30 2717.24 2715.14 2712.84 2710.66 2708.39 2706.18 2703.90 2701.56 2698.98 2696.36 2693.76 2691.14 2688.57 2686.13 2683.71 2681.31 2678.99 2676.49 2674.33 2672.14 2669.79 2667.66 2665.96 2667.39 2668.10 2667.08 2661.12 2653.53 2650.09 2646.31 2642.16 2637.88 2633.22 2628.97 2625.00 2621.74 2619.14 2616.46 2614.27 2613.55 2609.64 2607.51 2605.40 2603.82 2602.20 2600.78 2599.82 2598.55 2601.32 2602.09 2603.68 2603.43 2605.94 2609.04 2610.05 2612.70 2617.52 2620.17 2621.76 2556.57 2537.12
3186.39 3184.17 3183.63 3181.09 3179.03 3177.94 3171.89 3167.34 3162.32 3158.87 3156.25 3149.67 3139.75 3132.35 3125.54 3118.31 3111.45 3103.47 3095.83 3088.55 3081.82 3075.41 3070.23 3065.75 3062.01 3058.76 3055.89 3053.17 3050.87 3048.53 3046.60 3044.72 3043.19 3041.50 3039.91 3038.25 3036.52 3034.81 3033.06 3031.29 3029.18 3027.50 3025.67 3023.43 3021.41 3019.41 3017.28 3015.05 3012.88 3010.91 3008.51 3006.18 3004.05 3002.09 2999.48 2997.38 2995.31 2993.14 2990.69 2988.54 2986.50 2984.13 2981.82 2979.76 2977.43 2975.49 2973.21 2971.01 2968.77 2966.68 2964.43 2962.30 2960.12 2957.75 2955.27 2953.05 2950.59 2948.52 2945.88 2943.36 2940.82 2938.47 2935.99 2933.57 2931.08 2928.30 2925.89 2923.06 2920.56 2917.92 2915.67 2913.18 2910.87 2908.82 2906.61 2904.43 2902.08 2900.11 2897.74 2895.40 2893.03 2890.76 2888.20 2886.00 2883.60 2881.28 2879.09 2877.21 2875.08 2873.10 2871.34 2869.64 2867.73 2865.93 2863.96 2862.19 2860.25 2858.35 2856.30 2854.13 2852.03 2849.87 2847.75 2845.75 2843.62 2841.73 2839.60 2837.72 2835.82 2834.22 2832.48 2830.91 2829.25 2827.77 2826.04 2824.38 2822.96 2821.41 2819.80 2818.33 2816.65 2815.17 2813.51 2812.02 2810.50 2808.95 2807.37 2805.80 2804.40 2802.78 2801.10 2799.77 2798.24 2796.91 2795.52 2794.11 2792.66 2791.37 2789.92 2788.36 2787.02 2785.37 2783.90 2782.26 2780.53 2778.90 2777.22 2775.64 2773.91 2772.24 2770.30 2768.80 2767.09 2765.35 2763.76 2762.16 2760.66 2759.24 2757.57 2756.22 2754.76 2753.28 2751.76 2750.27 2748.66 2747.20 2745.48 2744.02 2742.45 2740.88 2739.10 2737.24 2735.41 2733.34 2731.57 2729.67 2727.70 2725.56 2723.58 2721.47 2719.25 2716.89 2714.82 2712.40 2710.44 2708.03 2705.65 2703.08 2700.33 2697.55 2694.91 2692.38 2689.69 2687.23 2684.53 2681.99 2679.45 2677.02 2674.65 2672.52 2670.53 2669.30 2671.60 2672.04 2669.25 2661.30 2655.74 2651.72 2647.27 2642.94 2638.54 2634.20 2630.36 2626.62 2623.32 2620.31 2617.76 2615.72 2613.47 2611.33 2609.35 2607.55 2606.10 2604.70 2603.80 2604.26 2608.41 2610.38 2609.34 2610.47 2613.93 2614.87 2617.73 2620.85 2625.56 2628.20 2630.78 2551.60 2542.18 2507.21
3200.02 3197.92 3197.69 3196.23 3196.20 3191.59 3187.30 3180.11 3173.78 3168.68 3161.09 3149.91 3140.50 3133.97 3125.10 3118.41 3111.93 3105.76 3098.62 3091.94 3085.42 3079.25 3074.21 3069.52 3065.53 3062.03 3059.07 3056.38 3053.77 3051.43 3049.28 3047.38 3045.58 3043.86 3042.27 3040.63 3038.92 3037.20 3035.23 3033.52 3031.56 3029.74 3027.92 3025.80 3023.68 3021.72 3019.54 3017.27 3015.20 3013.02 3010.89 3008.61 3006.45 3004.29 3001.90 2999.76 2997.45 2995.36 2992.95 2990.90 2988.69 2986.44 2984.20 2982.15 2979.80 2977.80 2975.60 2973.48 2971.31 2969.06 2966.87 2964.75 2962.68 2960.36 2958.02 2955.80 2953.47 2951.38 2948.72 2946.17 2943.73 2941.46 2939.18 2936.67 2934.22 2931.54 2929.03 2926.48 2923.80 2921.21 2918.78 2916.37 2914.04 2912.00 2909.85 2907.79 2905.46 2903.57 2901.22 2898.86 2896.55 2894.23 2892.04 2889.61 2887.21 2884.99 2882.58 2880.63 2878.52 2876.44 2874.56 2872.62 2870.71 2869.12 2866.93 2865.46 2863.51 2861.51 2859.57 2857.41 2855.41 2853.27 2851.30 2849.16 2846.97 2845.05 2843.03 2840.98 2839.21 2837.47 2835.80 2834.27 2832.54 2830.88 2829.23 2827.59 2826.12 2824.41 2822.87 2821.46 2819.76 2818.20 2816.69 2815.20 2813.56 2812.11 2810.70 2809.23 2807.67 2806.17 2804.71 2803.43 2801.87 2800.27 2799.12 2797.56 2796.21 2794.85 2793.63 2792.07 2790.82 2789.20 2787.73 2786.07 2784.49 2782.78 2781.12 2779.38 2777.62 2776.04 2774.14 2772.32 2770.62 2768.97 2767.27 2765.58 2764.07 2762.62 2760.71 2759.40 2758.00 2756.49 2754.97 2753.43 2751.98 2750.58 2748.92 2747.59 2746.03 2744.49 2742.87 2741.18 2739.35 2737.44 2735.69 2733.84 2732.01 2730.00 2727.86 2725.70 2723.74 2721.47 2719.16 2717.02 2715.00 2712.66 2710.27 2707.63 2704.78 2701.91 2699.31 2696.53 2693.76 2691.10 2688.45 2685.63 2682.93 2680.36 2677.94 2675.72 2674.03 2675.64 2677.40 2672.72 2666.98 2662.47 2657.36 2652.43 2647.89 2643.43 2639.50 2635.99 2632.25 2628.88 2625.65 2622.78 2620.31 2618.13 2616.02 2613.93 2612.10 2610.56 2609.60 2608.64 2609.16 2611.85 2616.05 2616.24 2616.97 2620.06 2623.54 2627.20 2631.69 2631.26 2635.39 2612.24 2560.38 2541.57 2515.89 2489.38
3216.61 3214.42 3212.17 3205.67 3200.22 3193.70 3187.18 3180.06 3173.19 3166.57 3158.20 3149.87 3141.63 3132.91 3124.40 3118.55 3112.68 3107.10 3101.29 3095.36 3089.12 3083.56 3078.42 3073.60 3069.41 3065.71 3062.43 3059.54 3056.87 3054.35 3052.21 3050.11 3048.25 3046.37 3044.63 3043.06 3041.33 3039.65 3037.63 3035.85 3033.92 3032.01 3030.07 3028.03 3026.01 3023.87 3022.02 3019.81 3017.56 3015.37 3013.13 3010.89 3008.80 3006.49 3004.16 3002.15 2999.79 2997.58 2995.31 2993.13 2991.03 2988.74 2986.51 2984.38 2982.15 2980.13 2978.02 2976.08 2973.53 2971.46 2969.34 2967.32 2965.13 2962.90 2960.68 2958.51 2956.24 2953.91 2951.76 2949.31 2946.84 2944.79 2942.11 2939.67 2937.25 2934.76 2932.23 2929.68 2927.22 2924.50 2922.02 2919.57 2917.20 2915.22 2912.96 2910.89 2908.82 2906.68 2904.60 2902.43 2900.09 2897.91 2895.64 2893.23 2890.89 2888.54 2886.18 2883.86 2881.89 2879.69 2877.78 2875.84 2873.82 2872.20 2870.19 2868.48 2866.67 2864.70 2863.00 2860.81 2858.80 2856.83 2854.76 2852.68 2850.51 2848.58 2846.44 2844.55 2842.61 2840.85 2839.18 2837.52 2836.01 2834.39 2832.55 2830.90 2829.29 2827.72 2826.07 2824.50 2823.02 2821.39 2819.83 2818.38 2816.76 2815.42 2813.92 2812.51 2811.01 2809.48 2808.08 2806.64 2805.08 2803.74 2802.36 2801.05 2799.72 2798.36 2797.02 2795.63 2794.23 2792.86 2791.26 2789.79 2788.23 2786.54 2784.82 2783.16 2781.41 2779.59 2777.86 2775.99 2774.22 2772.54 2770.77 2769.04 2767.38 2765.89 2764.06 2762.71 2761.01 2759.61 2758.08 2756.81 2755.25 2753.76 2752.44 2751.02 2749.59 2748.13 2746.62 2745.13 2743.34 2741.49 2739.71 2738.05 2736.32 2734.24 2732.21 2730.06 2727.96 2726.13 2723.77 2721.59 2719.51 2717.10 2714.78 2712.23 2709.40 2706.68 2703.89 2700.98 2698.07 2695.32 2692.41 2689.46 2686.81 2684.05 2681.53 2679.22 2677.41 2678.97 2677.32 2675.12 2667.37 2662.73 2660.38 2656.37 2649.91 2645.26 2641.55 2638.01 2634.74 2631.49 2628.80 2626.14 2623.95 2621.67 2619.45 2617.70 2616.05 2615.16 2614.53 2615.12 2619.26 2623.25 2624.36 2623.91 2626.11 2630.26 2633.57 2637.89 2641.24 2643.54 2646.03 2590.95 2579.76 2526.02 2518.41 2507.59
3221.62 3214.96 3207.46 3200.29 3193.95 3187.63 3180.48 3173.93 3167.62 3161.24 3153.85 3145.86 3138.75 3128.62 3123.54 3118.41 3113.76 3108.54 3103.43 3098.15 3092.86 3087.32 3082.52 3077.70 3073.59 3069.47 3065.93 3063.01 3060.20 3057.62 3055.20 3053.04 3050.96 3048.99 3047.02 3045.47 3043.68 3041.98 3040.04 3038.26 3036.22 3034.35 3032.26 3030.26 3028.38 3026.10 3024.11 3021.85 3019.71 3017.74 3015.37 3013.06 3011.12 3008.87 3006.54 3004.35 3001.99 2999.84 2997.52 2995.41 2993.27 2991.00 2988.72 2986.70 2984.53 2982.35 2980.45 2978.32 2976.11 2974.03 2971.83 2969.72 2967.68 2965.58 2963.37 2961.23 2958.99 2956.83 2954.30 2952.19 2949.88 2947.60 2945.05 2942.68 2940.29 2937.86 2935.51 2932.91 2930.57 2927.94 2925.36 2922.85 2920.48 2918.31 2916.25 2914.10 2911.95 2909.84 2907.82 2905.67 2903.49 2901.28 2899.07 2896.69 2894.30 2891.91 2889.74 2887.51 2885.26 2883.08 2881.09 2879.06 2877.07 2875.35 2873.50 2871.58 2869.72 2867.94 2866.31 2864.15 2862.07 2860.39 2858.30 2856.19 2854.12 2852.08 2849.91 2848.04 2846.17 2844.33 2842.79 2841.10 2839.42 2837.73 2835.97 2834.31 2832.73 2831.02 2829.23 2827.79 2826.11 2824.54 2823.04 2821.58 2819.97 2818.64 2817.11 2815.74 2814.19 2812.90 2811.33 2809.94 2808.42 2806.84 2805.71 2804.29 2803.05 2801.61 2800.41 2799.01 2797.69 2796.35 2794.84 2793.29 2791.72 2790.06 2788.54 2786.74 2784.99 2783.33 2781.42 2779.48 2777.73 2775.94 2774.28 2772.44 2770.65 2769.04 2767.21 2765.65 2764.27 2762.68 2761.41 2760.04 2758.08 2756.83 2755.58 2754.38 2753.14 2751.88 2750.54 2748.90 2747.46 2745.46 2743.89 2742.10 2740.12 2738.20 2736.16 2734.25 2732.43 2730.50 2728.24 2726.03 2723.68 2721.51 2719.04 2716.50 2713.76 2711.10 2708.36 2705.37 2702.55 2699.57 2696.69 2693.87 2691.02 2688.20 2685.49 2682.87 2680.68 2682.12 2679.95 2675.60 2669.62 2665.85 2664.68 2659.46 2653.48 2649.00 2645.22 2641.64 2638.43 2635.39 2632.81 2630.38 2628.27 2626.05 2624.18 2622.49 2621.19 2620.45 2621.78 2626.84 2629.46 2631.25 2634.77 2638.87 2642.29 2641.88 2644.46 2647.91 2651.19 2654.65 2605.50 2585.73 2566.56 2532.54 2523.97 2523.46
3216.58 3209.60 3202.37 3194.76 3187.90 3180.83 3173.96 3168.08 3162.24 3155.43 3147.72 3142.43 3129.93 3125.60 3121.71 3117.95 3113.90 3109.85 3105.45 3100.79 3096.06 3091.14 3086.61 3081.95 3077.74 3073.63 3069.75 3066.65 3063.69 3061.05 3058.45 3055.99 3054.02 3051.73 3049.75 3047.78 3046.19 3044.40 3042.45 3040.65 3038.56 3036.67 3034.63 3032.55 3030.59 3028.48 3026.40 3024.28 3022.12 3019.96 3017.60 3015.39 3013.34 3011.09 3008.78 3006.70 3004.27 3002.10 2999.76 2997.58 2995.42 2993.24 2991.12 2988.97 2986.82 2984.63 2982.65 2980.71 2978.49 2976.51 2974.33 2972.20 2970.23 2968.10 2966.00 2963.86 2961.54 2959.28 2957.10 2954.98 2952.78 2950.35 2947.92 2945.51 2943.26 2940.84 2938.42 2936.15 2933.90 2931.27 2928.69 2926.09 2923.71 2921.61 2919.44 2917.29 2914.99 2912.95 2911.13 2908.97 2906.76 2904.60 2902.39 2900.00 2897.82 2895.53 2893.30 2890.99 2888.72 2886.42 2884.34 2882.41 2880.27 2878.63 2876.77 2874.78 2873.02 2871.19 2869.40 2867.46 2865.42 2863.90 2861.78 2859.75 2857.63 2855.61 2853.63 2851.71 2849.86 2848.01 2846.16 2844.55 2842.95 2841.21 2839.58 2837.79 2836.19 2834.56 2832.81 2831.23 2829.32 2827.90 2826.28 2824.64 2823.20 2821.79 2820.44 2818.92 2817.55 2816.02 2814.58 2813.21 2811.64 2810.26 2809.03 2807.60 2806.34 2804.98 2803.68 2802.31 2800.97 2799.51 2798.17 2796.71 2795.21 2793.41 2791.77 2790.11 2788.28 2786.68 2784.78 2782.95 2781.15 2779.15 2777.39 2775.63 2773.84 2772.12 2770.37 2768.72 2767.38 2765.75 2764.42 2763.12 2761.84 2760.20 2758.90 2757.70 2756.53 2755.23 2753.86 2752.49 2750.94 2749.21 2747.54 2745.68 2743.85 2741.93 2739.97 2737.84 2736.27 2734.30 2732.15 2730.09 2727.78 2725.46 2723.18 2720.79 2718.17 2715.42 2712.77 2709.86 2706.88 2704.06 2701.09 2698.26 2695.28 2692.57 2689.93 2686.98 2684.35 2682.66 2679.41 2676.00 2672.98 2669.95 2667.19 2661.64 2657.39 2653.74 2649.95 2646.58 2643.19 2640.42 2637.96 2635.52 2633.33 2631.36 2629.62 2628.10 2627.05 2627.48 2630.92 2634.88 2637.48 2641.31 2646.01 2650.34 2652.71 2655.21 2657.07 2660.81 2663.55 2665.76 2586.05 2573.97 2547.57 2532.01 2521.44 2508.87
3209.85 3205.53 3197.90 3189.16 3182.05 3174.88 3168.18 3161.47 3155.55 3149.13 3141.99 3130.84 3126.48 3123.11 3119.81 3116.89 3113.84 3110.65 3106.97 3102.93 3098.80 3094.65 3090.40 3085.75 3081.59 3077.67 3073.90 3070.51 3067.37 3064.64 3061.90 3059.23 3056.83 3054.66 3052.64 3050.51 3048.68 3046.96 3045.06 3043.03 3041.06 3039.13 3036.99 3034.94 3032.98 3030.90 3028.68 3026.68 3024.47 3022.27 3020.06 3017.76 3015.52 3013.32 3011.23 3008.89 3006.56 3004.21 3002.08 2999.82 2997.54 2995.42 2993.41 2991.14 2988.98 2986.90 2984.79 2982.98 2980.76 2978.80 2976.64 2974.51 2972.59 2970.63 2968.57 2966.42 2964.11 2961.96 2959.81 2957.54 2955.45 2953.13 2950.75 2948.46 2946.14 2943.86 2941.53 2939.38 2937.01 2934.54 2932.10 2929.55 2927.08 2924.84 2922.71 2920.48 2918.34 2916.17 2914.08 2912.08 2909.89 2907.71 2905.65 2903.33 2901.13 2898.87 2896.68 2894.45 2892.12 2889.85 2887.75 2885.59 2883.56 2881.77 2879.80 2878.21 2876.18 2874.26 2872.54 2870.59 2868.82 2866.94 2865.12 2863.04 2861.02 2859.10 2857.13 2855.10 2853.24 2851.51 2849.80 2848.15 2846.47 2844.71 2843.13 2841.30 2839.66 2838.09 2836.39 2834.65 2832.78 2831.21 2829.61 2827.88 2826.49 2824.96 2823.63 2822.01 2820.63 2819.20 2817.81 2816.39 2814.85 2813.45 2812.26 2810.78 2809.60 2808.15 2806.72 2805.46 2804.17 2802.72 2801.39 2799.96 2798.40 2796.81 2795.08 2793.41 2791.53 2789.80 2787.97 2786.03 2784.29 2782.33 2780.53 2778.70 2776.80 2774.98 2773.32 2771.65 2770.04 2768.67 2767.29 2766.01 2764.62 2763.21 2761.99 2760.91 2759.74 2758.45 2757.12 2755.71 2754.32 2752.61 2751.02 2749.19 2747.37 2745.64 2743.66 2741.82 2739.88 2737.94 2735.92 2733.30 2731.72 2729.33 2727.05 2724.59 2722.17 2719.61 2716.85 2714.11 2711.33 2708.47 2705.58 2702.69 2699.63 2696.90 2694.29 2691.51 2688.52 2685.14 2681.92 2679.60 2676.91 2674.26 2669.74 2666.42 2662.56 2658.94 2655.29 2652.09 2649.10 2646.06 2643.39 2641.11 2639.15 2637.30 2635.63 2633.59 2633.56 2637.48 2640.78 2643.43 2647.29 2651.84 2656.29 2661.25 2664.74 2667.87 2669.61 2672.07 2674.97 2662.08 2615.79 2555.18 2543.17 2529.51 2514.72 2499.66
3196.86 3200.09 3192.65 3183.83 3176.62 3169.59 3162.19 3155.03 3148.77 3141.50 3132.74 3125.95 3122.81 3120.32 3118.05 3115.92 3113.44 3110.72 3107.95 3104.85 3101.12 3097.35 3093.65 3089.62 3085.46 3081.78 3077.95 3074.45 3071.12 3068.35 3065.50 3062.83 3060.19 3057.84 3055.55 3053.35 3051.36 3049.44 3047.53 3045.44 3043.50 3041.45 3039.47 3037.29 3035.29 3033.15 3030.99 3029.06 3026.75 3024.54 3022.20 3019.90 3017.78 3015.50 3013.29 3011.08 3008.66 3006.57 3004.35 3002.19 2999.89 2997.72 2995.55 2993.31 2991.16 2989.05 2986.95 2985.13 2982.92 2980.94 2978.93 2976.97 2974.97 2973.06 2970.91 2968.76 2966.66 2964.49 2962.25 2960.13 2958.02 2955.92 2953.52 2951.21 2949.05 2946.80 2944.58 2942.31 2940.12 2937.73 2935.39 2932.69 2930.36 2928.12 2925.59 2923.46 2921.21 2919.33 2917.26 2915.22 2913.06 2910.95 2908.64 2906.60 2904.47 2902.22 2899.84 2897.81 2895.44 2893.30 2891.05 2888.80 2886.74 2884.93 2882.93 2881.20 2879.29 2877.47 2875.77 2873.73 2871.98 2870.26 2868.22 2866.48 2864.36 2862.46 2860.40 2858.66 2856.82 2854.95 2853.18 2851.57 2849.97 2848.22 2846.59 2844.95 2843.25 2841.66 2839.86 2838.12 2836.38 2834.74 2833.00 2831.46 2829.83 2828.31 2826.80 2825.32 2823.86 2822.32 2821.05 2819.54 2818.14 2816.69 2815.49 2814.09 2812.71 2811.28 2809.85 2808.63 2807.23 2805.86 2804.35 2802.93 2801.42 2799.81 2798.13 2796.62 2794.60 2792.92 2791.04 2789.16 2787.20 2785.28 2783.38 2781.67 2779.61 2777.63 2776.10 2774.27 2772.75 2771.15 2769.82 2768.65 2767.37 2766.00 2764.83 2763.80 2762.75 2761.42 2760.07 2758.77 2757.41 2755.81 2754.19 2752.45 2750.74 2749.09 2746.92 2744.97 2743.04 2741.37 2739.21 2737.10 2735.03 2732.80 2730.74 2728.31 2725.98 2723.46 2720.83 2718.10 2715.44 2712.60 2709.89 2706.87 2703.97 2701.24 2698.63 2695.72 2692.92 2689.84 2686.92 2684.04 2681.13 2678.10 2674.73 2671.27 2667.80 2664.29 2661.05 2658.08 2655.15 2652.25 2649.56 2647.14 2645.27 2643.78 2642.49 2642.77 2643.42 2645.03 2649.77 2652.91 2657.26 2663.51 2667.71 2672.25 2676.22 2678.61 2678.70 2678.39 2670.42 2654.95 2616.47 2548.71 2541.04 2528.43 2510.70 2498.35
3183.18 3185.74 3186.42 3179.20 3171.24 3163.11 3155.81 3149.43 3143.17 3136.49 3129.35 3121.66 3118.26 3116.29 3114.79 3113.54 3112.47 3110.55 3108.75 3106.19 3103.29 3099.82 3096.62 3092.93 3089.19 3085.54 3081.74 3078.61 3074.78 3071.98 3069.26 3066.41 3063.59 3061.09 3058.64 3056.35 3054.24 3052.07 3050.06 3047.92 3046.04 3043.91 3041.90 3039.66 3037.70 3035.42 3033.35 3031.24 3029.00 3026.84 3024.53 3022.32 3019.99 3017.76 3015.59 3013.28 3011.05 3008.82 3006.49 3004.16 3002.07 2999.86 2997.75 2995.52 2993.35 2991.22 2989.11 2987.27 2985.15 2983.27 2981.22 2979.27 2977.39 2975.48 2973.46 2971.32 2969.24 2967.04 2964.99 2962.74 2960.63 2958.47 2956.27 2954.02 2951.72 2949.39 2947.41 2945.19 2942.92 2940.74 2938.42 2936.02 2933.60 2931.21 2928.80 2926.61 2924.41 2922.28 2920.31 2918.40 2916.24 2914.26 2911.96 2909.82 2907.60 2905.53 2903.20 2901.28 2898.78 2896.63 2894.39 2892.00 2889.93 2888.02 2886.08 2884.19 2882.32 2880.55 2878.81 2876.84 2875.08 2873.33 2871.27 2869.49 2867.54 2865.68 2863.72 2861.89 2860.21 2858.38 2856.53 2854.96 2853.47 2851.70 2850.14 2848.44 2846.82 2845.24 2843.48 2841.63 2839.87 2838.22 2836.51 2834.86 2833.26 2831.68 2830.18 2828.68 2827.14 2825.71 2824.30 2822.76 2821.46 2819.89 2818.64 2816.96 2815.79 2814.35 2812.91 2811.62 2810.25 2808.80 2807.33 2805.96 2804.42 2802.74 2801.12 2799.48 2797.60 2795.76 2794.06 2792.31 2790.17 2788.18 2786.20 2784.29 2782.24 2780.44 2778.50 2776.82 2775.07 2773.38 2772.02 2770.71 2769.56 2768.56 2767.45 2766.40 2765.46 2764.06 2762.99 2761.77 2760.47 2758.88 2757.18 2755.35 2753.60 2751.83 2749.84 2747.83 2746.06 2744.11 2742.13 2740.10 2738.15 2736.08 2733.82 2731.70 2729.30 2726.85 2724.24 2721.70 2719.00 2716.40 2713.75 2710.92 2708.08 2705.48 2702.84 2700.03 2697.38 2694.60 2691.73 2688.81 2686.01 2682.89 2679.81 2676.54 2673.29 2670.22 2667.07 2663.99 2661.21 2658.50 2656.03 2653.91 2652.15 2650.78 2651.17 2651.26 2655.08 2658.21 2659.07 2662.83 2669.52 2675.95 2679.46 2683.11 2686.65 2686.53 2685.67 2676.50 2650.67 2620.78 2568.80 2552.32 2536.83 2517.43 2504.91 2496.43
3169.74 3191.15 3183.43 3174.84 3166.59 3156.11 3150.18 3143.38 3136.94 3131.16 3124.30 3118.20 3115.22 3113.74 3112.37 3111.28 3110.32 3109.70 3108.82 3107.06 3105.01 3102.24 3099.06 3095.87 3092.49 3088.99 3085.60 3082.23 3078.87 3075.71 3073.06 3070.05 3067.17 3064.53 3062.07 3059.60 3057.15 3054.87 3052.73 3050.57 3048.50 3046.40 3044.23 3042.20 3040.09 3037.83 3035.48 3033.51 3031.31 3029.12 3026.74 3024.51 3022.35 3019.99 3017.81 3015.52 3013.24 3010.95 3008.71 3006.63 3004.28 3002.10 2999.92 2997.81 2995.58 2993.48 2991.37 2989.53 2987.37 2985.53 2983.72 2981.61 2979.70 2977.80 2975.77 2973.75 2971.63 2969.54 2967.36 2965.22 2962.99 2960.93 2958.61 2956.50 2954.38 2952.13 2949.98 2947.84 2945.84 2943.76 2941.28 2939.02 2936.70 2934.42 2932.05 2929.75 2927.35 2925.40 2923.38 2921.28 2919.41 2917.14 2914.98 2912.79 2910.77 2908.65 2906.53 2904.22 2902.12 2899.80 2897.53 2895.30 2893.18 2891.16 2889.01 2887.21 2885.23 2883.39 2881.74 2879.95 2878.09 2876.38 2874.42 2872.65 2870.72 2868.89 2866.91 2865.16 2863.40 2861.61 2859.82 2858.20 2856.75 2855.06 2853.61 2852.03 2850.25 2848.67 2847.05 2845.22 2843.32 2841.68 2840.06 2838.34 2836.72 2835.12 2833.65 2832.05 2830.62 2829.13 2827.69 2826.24 2824.73 2823.40 2822.03 2820.48 2819.02 2817.61 2816.09 2814.83 2813.24 2811.82 2810.32 2808.78 2807.34 2805.81 2803.96 2802.37 2800.54 2798.71 2796.92 2795.09 2792.91 2791.02 2788.93 2786.81 2784.86 2782.93 2780.98 2779.24 2777.44 2775.95 2774.30 2773.03 2771.64 2770.75 2769.58 2768.75 2767.78 2766.72 2765.63 2764.41 2763.15 2761.45 2759.78 2758.11 2756.19 2754.51 2752.52 2750.74 2748.77 2746.77 2744.87 2742.91 2740.80 2738.74 2736.63 2734.50 2732.15 2729.89 2727.38 2724.85 2722.23 2719.79 2717.25 2714.50 2711.89 2709.43 2706.69 2704.18 2701.45 2699.04 2696.35 2693.69 2690.71 2687.85 2684.93 2681.97 2679.08 2676.20 2673.21 2670.48 2667.80 2665.34 2662.95 2661.02 2659.26 2659.34 2660.83 2664.95 2666.55 2668.76 2671.85 2677.12 2682.33 2687.08 2690.48 2693.35 2694.84 2681.83 2665.96 2648.84 2612.06 2589.75 2577.18 2554.95 2535.94 2511.58 2498.35 2483.06
3173.66 3185.48 3178.15 3169.59 3157.43 3150.28 3143.94 3138.26 3131.61 3125.73 3119.27 3116.14 3114.10 3112.72 3111.11 3110.10 3109.05 3108.43 3108.11 3107.29 3106.15 3103.94 3101.60 3098.57 3095.33 3092.08 3088.96 3085.89 3082.63 3079.47 3076.50 3073.53 3070.73 3068.05 3065.36 3062.81 3060.24 3057.90 3055.52 3053.25 3051.12 3048.96 3046.67 3044.62 3042.37 3040.09 3037.94 3035.92 3033.58 3031.37 3029.03 3026.88 3024.57 3022.26 3019.97 3017.63 3015.52 3013.26 3010.67 3008.66 3006.41 3004.21 3002.10 2999.81 2997.69 2995.60 2993.56 2991.59 2989.46 2987.58 2985.64 2983.83 2981.81 2979.97 2977.96 2976.14 2974.02 2971.82 2969.79 2967.67 2965.62 2963.38 2961.18 2958.93 2956.82 2954.70 2952.63 2950.47 2948.44 2946.39 2944.30 2941.97 2939.81 2937.50 2935.09 2932.83 2930.50 2928.50 2926.43 2924.48 2922.58 2920.33 2918.20 2915.92 2913.86 2911.53 2909.46 2907.26 2904.94 2902.89 2900.62 2898.50 2896.35 2894.30 2892.19 2890.35 2888.21 2886.42 2884.58 2882.87 2881.05 2879.36 2877.49 2875.60 2873.88 2871.94 2870.24 2868.32 2866.53 2864.83 2863.09 2861.48 2859.95 2858.38 2856.87 2855.30 2853.75 2852.07 2850.41 2848.76 2846.87 2845.22 2843.55 2841.75 2840.19 2838.68 2837.03 2835.65 2834.08 2832.55 2831.15 2829.75 2828.24 2826.81 2825.28 2823.91 2822.42 2820.90 2819.40 2817.84 2816.27 2814.86 2813.25 2811.77 2810.12 2808.59 2806.90 2805.14 2803.57 2801.83 2799.86 2797.99 2795.99 2793.98 2791.69 2789.60 2787.50 2785.50 2783.56 2781.66 2779.84 2778.05 2776.54 2775.17 2773.74 2772.61 2771.54 2770.66 2770.20 2769.17 2768.02 2766.72 2765.45 2763.83 2762.15 2760.36 2758.76 2757.04 2755.14 2753.36 2751.25 2749.44 2747.45 2745.49 2743.29 2741.23 2739.17 2736.87 2734.64 2732.46 2730.05 2727.65 2725.26 2722.69 2720.21 2717.59 2715.28 2712.87 2710.48 2707.95 2705.47 2703.11 2700.59 2698.13 2695.41 2692.87 2690.27 2687.50 2684.69 2681.98 2679.25 2676.94 2674.51 2672.15 2670.17 2668.33 2668.33 2671.87 2677.79 2676.74 2680.00 2682.69 2687.95 2689.56 2692.80 2698.22 2701.08 2702.52 2660.62 2660.36 2634.37 2620.75 2600.26 2585.33 2573.55 2552.78 2528.42 2505.75 2489.34 2481.73
3168.19 3180.35 3173.13 3165.13 3153.74 3146.49 3139.80 3133.31 3126.62 3122.23 3118.14 3115.75 3113.76 3112.43 3111.21 3110.20 3109.31 3108.25 3107.23 3106.74 3106.27 3105.15 3103.37 3100.96 3098.15 3094.99 3092.12 3089.20 3086.03 3083.05 3079.77 3077.15 3074.19 3071.44 3068.72 3066.10 3063.37 3060.79 3058.37 3056.09 3053.92 3051.57 3049.27 3046.97 3044.78 3042.55 3040.28 3038.00 3035.88 3033.74 3031.39 3029.08 3026.92 3024.41 3022.27 3019.83 3017.71 3015.36 3013.06 3010.88 3008.66 3006.36 3004.15 3001.87 2999.90 2997.76 2995.61 2993.61 2991.46 2989.81 2987.79 2985.81 2983.94 2982.16 2980.15 2978.23 2976.23 2974.11 2971.95 2969.99 2967.80 2965.65 2963.63 2961.46 2959.39 2957.26 2955.02 2953.01 2951.00 2949.01 2946.82 2944.75 2942.67 2940.39 2937.89 2935.80 2933.54 2931.43 2929.43 2927.35 2925.23 2923.19 2921.14 2918.94 2916.71 2914.52 2912.40 2910.35 2908.05 2905.93 2903.80 2901.73 2899.65 2897.45 2895.24 2893.31 2891.12 2889.28 2887.56 2885.82 2884.04 2882.30 2880.41 2878.67 2876.84 2875.07 2873.20 2871.42 2869.69 2867.95 2866.29 2864.62 2862.92 2861.37 2860.04 2858.46 2857.00 2855.45 2853.95 2852.23 2850.34 2848.73 2847.01 2845.32 2843.79 2842.15 2840.58 2839.08 2837.48 2836.09 2834.69 2833.30 2831.92 2830.25 2828.94 2827.46 2825.99 2824.48 2822.98 2821.29 2819.73 2818.11 2816.43 2814.97 2813.32 2811.69 2810.00 2808.35 2806.64 2804.94 2803.04 2801.08 2798.91 2796.78 2794.64 2792.57 2790.27 2788.21 2786.01 2784.06 2782.27 2780.39 2778.78 2777.15 2775.78 2774.65 2773.57 2772.82 2772.28 2771.47 2770.24 2768.84 2767.37 2765.85 2764.25 2762.58 2760.76 2759.03 2757.20 2755.29 2753.25 2751.41 2749.48 2747.76 2745.57 2743.40 2741.27 2739.29 2737.00 2734.88 2732.38 2730.07 2727.71 2725.45 2723.15 2720.67 2718.29 2715.91 2713.64 2711.29 2709.06 2706.83 2704.54 2702.21 2699.98 2697.55 2695.06 2692.74 2690.20 2687.72 2685.54 2683.28 2681.03 2679.00 2677.06 2677.45 2684.48 2690.44 2693.33 2693.85 2693.47 2699.47 2702.52 2702.41 2705.75 2709.27 2711.54 2687.73 2663.12 2631.97 2626.94 2609.28 2592.73 2574.32 2553.92 2527.76 2514.45 2498.04 2488.68 2481.71
3158.91 3169.59 3166.14 3160.86 3151.30 3143.94 3134.87 3130.11 3125.65 3122.09 3118.64 3116.17 3114.67 3113.30 3112.07 3111.07 3109.89 3108.86 3107.76 3106.82 3105.96 3105.74 3104.67 3103.01 3100.52 3097.92 3094.93 3092.02 3089.11 3086.20 3083.31 3080.44 3077.45 3074.69 3072.00 3069.26 3066.42 3063.99 3061.43 3058.68 3056.65 3054.31 3051.89 3049.43 3047.17 3045.02 3042.73 3040.44 3038.12 3035.93 3033.71 3031.40 3029.28 3026.68 3024.63 3022.05 3019.89 3017.43 3014.97 3013.10 3010.66 3008.48 3006.21 3004.04 3002.01 2999.85 2997.77 2995.72 2993.62 2991.93 2989.84 2987.90 2985.97 2984.11 2982.21 2980.27 2978.33 2976.43 2974.16 2972.12 2970.05 2967.90 2965.88 2963.83 2961.85 2959.82 2957.55 2955.53 2953.41 2951.48 2949.33 2947.15 2945.26 2943.13 2940.92 2938.58 2936.37 2934.24 2932.25 2930.07 2928.02 2926.02 2924.08 2921.81 2919.62 2917.44 2915.38 2913.17 2911.09 2908.96 2906.86 2904.69 2902.62 2900.45 2898.37 2896.25 2894.16 2892.22 2890.39 2888.56 2886.81 2885.17 2883.33 2881.64 2879.80 2877.98 2876.14 2874.38 2872.70 2871.00 2869.22 2867.67 2865.92 2864.47 2863.03 2861.53 2860.00 2858.72 2857.09 2855.45 2853.82 2852.06 2850.53 2848.72 2847.17 2845.49 2844.03 2842.56 2841.18 2839.75 2838.28 2836.65 2835.32 2833.91 2832.58 2831.18 2829.68 2828.21 2826.82 2825.23 2823.54 2822.06 2820.33 2818.68 2816.99 2815.28 2813.69 2812.02 2810.31 2808.58 2806.68 2804.63 2802.30 2800.12 2797.93 2795.39 2793.33 2790.99 2788.71 2786.76 2784.72 2782.73 2780.94 2779.36 2777.85 2776.81 2775.80 2775.19 2774.38 2773.54 2772.38 2770.99 2769.23 2767.70 2766.01 2764.43 2762.68 2761.06 2759.14 2757.30 2755.38 2753.45 2751.45 2749.52 2747.37 2745.55 2743.38 2741.15 2739.17 2737.00 2734.57 2732.35 2730.20 2727.85 2725.49 2723.34 2721.05 2718.94 2716.74 2714.58 2712.39 2710.43 2708.22 2706.08 2704.03 2701.87 2699.68 2697.72 2695.40 2693.33 2691.23 2689.50 2687.75 2685.87 2684.75 2692.38 2699.29 2703.43 2707.33 2708.60 2710.35 2712.32 2713.19 2715.77 2716.99 2718.76 2713.16 2713.02 2688.13 2629.63 2617.84 2604.74 2581.05 2565.41 2555.61 2525.72 2511.45 2497.40 2485.57 2476.01
3144.94 3149.40 3153.04 3155.82 3148.14 3140.98 3135.54 3130.41 3126.11 3122.71 3120.04 3117.83 3116.00 3114.64 3113.52 3112.35 3111.05 3109.96 3108.68 3107.50 3106.49 3105.77 3105.08 3104.08 3102.50 3100.25 3097.84 3094.86 3092.10 3089.24 3086.36 3083.54 3080.71 3077.91 3075.24 3072.39 3069.67 3066.79 3064.30 3061.62 3059.33 3056.99 3054.45 3052.27 3049.88 3047.42 3045.18 3042.77 3040.52 3038.24 3035.94 3033.66 3031.39 3028.92 3026.82 3024.33 3022.09 3019.75 3017.21 3015.17 3012.69 3010.56 3008.35 3006.16 3004.04 3002.05 2999.93 2997.81 2995.67 2993.92 2991.81 2990.05 2988.05 2986.30 2984.29 2982.29 2980.41 2978.39 2976.59 2974.35 2972.49 2970.36 2968.18 2966.16 2964.16 2962.07 2960.01 2957.91 2955.82 2953.88 2951.85 2949.75 2947.76 2945.77 2943.57 2941.22 2939.04 2937.16 2934.97 2932.78 2930.99 2928.81 2926.86 2924.71 2922.66 2920.42 2918.11 2916.01 2913.89 2911.83 2909.72 2907.64 2905.48 2903.40 2901.38 2899.30 2897.20 2895.33 2893.42 2891.44 2889.69 2887.93 2886.14 2884.40 2882.70 2880.97 2879.21 2877.31 2875.62 2873.81 2872.42 2870.50 2868.95 2867.56 2866.08 2864.57 2863.07 2861.77 2860.29 2858.70 2857.07 2855.40 2853.80 2852.15 2850.73 2849.17 2847.45 2845.98 2844.67 2843.23 2841.69 2840.45 2838.95 2837.56 2836.25 2834.85 2833.51 2832.38 2831.07 2829.46 2828.00 2826.46 2824.94 2823.36 2821.80 2820.30 2818.66 2816.98 2815.07 2813.15 2810.94 2808.65 2806.33 2803.98 2801.66 2799.08 2796.68 2794.12 2791.74 2789.39 2787.31 2785.18 2783.34 2781.56 2780.02 2779.16 2778.36 2777.48 2776.57 2775.44 2774.04 2772.68 2771.13 2769.43 2767.88 2766.23 2764.57 2762.82 2761.01 2759.21 2757.37 2755.32 2753.35 2751.52 2749.39 2747.44 2745.38 2743.35 2741.08 2738.75 2736.60 2734.50 2732.26 2730.15 2728.07 2725.85 2723.68 2721.67 2719.59 2717.41 2715.39 2713.30 2711.34 2709.45 2707.51 2705.64 2703.86 2702.02 2700.09 2698.45 2696.78 2695.32 2693.54 2692.91 2699.13 2702.23 2712.87 2714.88 2715.18 2715.47 2718.98 2722.87 2724.98 2726.30 2726.65 2726.65 2726.84 2715.38 2682.02 2621.74 2607.41 2590.55 2567.42 2551.96 2542.79 2524.32 2511.76 2500.25 2487.19 2477.50
3135.09 3137.98 3142.90 3151.74 3147.15 3142.43 3137.21 3132.43 3128.42 3125.02 3122.43 3120.28 3118.36 3116.49 3115.16 3114.11 3112.59 3111.10 3109.93 3108.67 3107.37 3106.48 3105.47 3104.67 3103.56 3102.23 3099.97 3097.64 3094.81 3092.10 3089.47 3086.58 3083.75 3081.09 3078.35 3075.37 3072.70 3069.86 3067.15 3064.50 3062.15 3059.64 3057.17 3054.71 3052.38 3049.95 3047.55 3045.03 3042.74 3040.35 3038.21 3035.88 3033.63 3031.21 3028.95 3026.57 3024.26 3021.87 3019.42 3017.23 3014.71 3012.58 3010.43 3008.15 3006.09 3004.13 3001.90 2999.72 2997.85 2995.93 2993.98 2992.03 2990.14 2988.29 2986.33 2984.24 2982.48 2980.39 2978.51 2976.54 2974.59 2972.44 2970.36 2968.51 2966.43 2964.32 2962.34 2960.25 2958.28 2956.17 2954.17 2952.26 2950.17 2948.11 2946.01 2943.78 2941.84 2939.81 2937.62 2935.60 2933.60 2931.58 2929.56 2927.54 2925.35 2923.25 2921.04 2918.89 2916.71 2914.68 2912.56 2910.56 2908.47 2906.45 2904.19 2902.12 2899.90 2898.24 2896.25 2894.25 2892.44 2890.69 2888.96 2887.19 2885.56 2883.73 2881.88 2880.14 2878.44 2876.79 2875.14 2873.64 2871.98 2870.29 2869.07 2867.67 2866.07 2864.89 2863.34 2861.83 2860.30 2858.75 2857.05 2855.61 2853.98 2852.46 2850.81 2849.36 2848.01 2846.49 2845.25 2843.90 2842.52 2841.25 2840.04 2838.92 2837.51 2836.50 2835.56 2834.30 2833.07 2831.59 2830.04 2828.60 2827.32 2826.04 2824.47 2822.96 2821.02 2818.95 2816.28 2813.75 2811.36 2808.91 2806.33 2803.53 2800.58 2797.98 2795.29 2792.77 2790.54 2788.18 2786.07 2784.23 2782.83 2781.69 2780.69 2779.81 2778.72 2777.46 2776.13 2774.67 2772.95 2771.25 2769.66 2767.94 2766.35 2764.59 2762.86 2761.01 2759.13 2757.17 2755.29 2753.45 2751.49 2749.46 2747.48 2745.42 2743.07 2740.94 2738.79 2736.71 2734.39 2732.28 2730.22 2728.14 2726.00 2724.16 2722.14 2719.97 2718.03 2716.08 2714.17 2712.38 2710.73 2709.05 2707.49 2705.95 2704.41 2703.06 2702.00 2701.16 2700.53 2700.82 2702.58 2714.06 2719.45 2719.81 2720.04 2720.94 2723.54 2726.73 2728.49 2728.50 2730.73 2732.17 2732.09 2700.74 2651.33 2614.30 2596.15 2570.31 2561.65 2532.19 2521.56 2511.05 2505.51 2496.63 2491.98 2475.54
3122.79 3127.53 3143.26 3152.78 3149.45 3145.85 3141.20 3136.39 3132.17 3128.64 3125.86 3123.31 3121.15 3119.04 3117.51 3116.00 3114.30 3112.70 3111.55 3110.17 3108.73 3107.57 3106.40 3105.36 3104.39 3103.48 3102.03 3099.99 3097.55 3094.98 3092.29 3089.49 3086.76 3084.03 3081.21 3078.45 3075.62 3072.81 3070.20 3067.37 3064.98 3062.50 3059.77 3057.44 3054.90 3052.40 3050.05 3047.59 3045.09 3042.92 3040.50 3038.07 3035.77 3033.27 3031.07 3028.69 3026.38 3023.96 3021.55 3019.34 3016.74 3014.61 3012.51 3010.26 3008.24 3006.12 3004.06 3001.91 2999.90 2997.94 2995.91 2994.04 2992.25 2990.28 2988.42 2986.39 2984.38 2982.47 2980.68 2978.51 2976.61 2974.46 2972.58 2970.50 2968.46 2966.60 2964.59 2962.49 2960.38 2958.50 2956.46 2954.48 2952.59 2950.53 2948.78 2946.28 2944.38 2942.40 2940.40 2938.16 2936.28 2934.26 2932.12 2930.21 2927.89 2925.94 2923.87 2921.64 2919.51 2917.53 2915.27 2913.40 2911.21 2909.09 2907.10 2905.08 2902.92 2901.01 2899.12 2897.01 2895.20 2893.38 2891.71 2889.91 2888.12 2886.48 2884.67 2883.10 2881.19 2879.65 2877.94 2876.39 2874.79 2873.20 2871.81 2870.39 2869.24 2867.78 2866.38 2864.82 2863.50 2861.96 2860.46 2858.77 2857.29 2855.84 2854.31 2852.88 2851.46 2850.12 2848.71 2847.56 2846.23 2845.02 2843.90 2842.92 2841.82 2840.89 2840.07 2839.09 2838.13 2836.77 2835.44 2834.45 2832.89 2831.82 2830.44 2828.96 2827.17 2825.07 2822.23 2819.91 2817.10 2814.40 2811.70 2808.72 2805.57 2802.41 2799.44 2796.65 2794.02 2791.48 2789.28 2787.26 2785.68 2784.40 2783.31 2782.11 2780.97 2779.78 2778.26 2776.87 2775.21 2773.28 2771.60 2769.98 2768.29 2766.27 2764.56 2762.73 2760.88 2758.95 2757.09 2755.25 2753.19 2751.37 2749.37 2747.27 2745.12 2742.97 2740.69 2738.68 2736.47 2734.35 2732.34 2730.38 2728.26 2726.30 2724.35 2722.29 2720.43 2718.59 2716.77 2715.11 2713.59 2712.06 2710.66 2709.49 2708.34 2707.38 2706.62 2706.42 2706.95 2708.00 2722.10 2724.83 2725.85 2726.85 2726.12 2726.67 2727.25 2728.75 2730.50 2731.96 2735.18 2738.64 2730.69 2694.34 2645.77 2611.27 2583.60 2564.16 2535.22 2521.62 2509.37 2501.89 2492.68 2481.48 2472.29 2455.53
3114.51 3129.18 3145.61 3154.43 3152.90 3150.65 3146.39 3141.84 3137.78 3133.72 3130.42 3127.34 3124.62 3122.19 3120.15 3118.40 3116.54 3114.89 3113.50 3111.84 3110.47 3109.21 3107.78 3106.40 3105.25 3104.35 3103.25 3101.77 3099.80 3097.35 3094.88 3092.23 3089.61 3086.87 3084.14 3081.29 3078.60 3075.79 3073.19 3070.27 3067.72 3065.12 3062.47 3060.05 3057.55 3054.96 3052.65 3050.00 3047.60 3045.09 3042.92 3040.42 3038.10 3035.65 3033.19 3030.76 3028.45 3026.07 3023.66 3021.29 3018.94 3016.74 3014.46 3012.16 3010.21 3008.18 3006.06 3003.96 3001.94 2999.94 2997.95 2996.02 2994.22 2992.36 2990.31 2988.41 2986.45 2984.48 2982.58 2980.63 2978.45 2976.79 2974.68 2972.77 2970.69 2968.77 2966.69 2964.61 2962.60 2960.65 2958.70 2956.73 2954.95 2952.94 2950.87 2948.81 2946.94 2944.92 2942.88 2940.79 2938.80 2936.71 2934.82 2932.90 2930.58 2928.43 2926.45 2924.25 2922.14 2920.02 2918.03 2916.00 2913.89 2911.81 2909.79 2907.82 2905.78 2903.84 2901.72 2899.78 2897.86 2896.07 2894.27 2892.56 2890.95 2889.11 2887.55 2885.80 2883.98 2882.22 2880.72 2879.15 2877.58 2876.04 2874.44 2873.16 2871.84 2870.63 2869.27 2867.79 2866.35 2865.15 2863.50 2862.11 2860.54 2859.17 2857.75 2856.15 2854.96 2853.66 2852.45 2851.14 2850.03 2848.84 2847.89 2847.13 2846.18 2845.37 2844.77 2843.96 2843.26 2841.72 2841.18 2840.04 2838.55 2837.61 2836.02 2834.03 2832.91 2830.05 2827.74 2825.40 2822.61 2819.86 2817.38 2813.86 2810.67 2807.39 2804.25 2801.12 2798.20 2795.45 2792.99 2790.85 2789.00 2787.55 2786.14 2784.96 2783.69 2782.30 2780.82 2779.11 2777.34 2775.57 2773.86 2772.00 2770.38 2768.31 2766.64 2764.69 2762.84 2761.04 2758.95 2757.11 2755.02 2753.18 2751.20 2749.10 2746.87 2744.71 2742.61 2740.41 2738.18 2736.19 2734.25 2732.35 2730.42 2728.41 2726.47 2724.64 2722.71 2721.02 2719.29 2717.73 2716.19 2714.84 2713.64 2712.71 2711.97 2711.41 2711.50 2711.82 2712.83 2725.80 2732.74 2731.58 2731.18 2732.95 2731.09 2730.94 2731.59 2733.52 2734.53 2737.30 2737.16 2722.93 2694.27 2659.17 2628.54 2607.11 2580.30 2552.33 2530.68 2516.77 2504.86 2497.78 2486.77 2475.94 2460.94 2446.06
3114.44 3126.93 3140.75 3155.21 3154.43 3154.99 3152.50 3148.31 3144.06 3139.81 3135.88 3132.26 3129.21 3126.24 3123.49 3121.55 3119.45 3117.49 3115.85 3114.10 3112.56 3111.09 3109.44 3107.98 3106.49 3105.27 3104.20 3103.09 3101.39 3099.47 3097.11 3094.59 3092.09 3089.57 3086.89 3084.08 3081.48 3078.88 3075.97 3073.02 3070.49 3067.75 3065.22 3062.77 3060.13 3057.41 3055.12 3052.51 3049.87 3047.55 3045.22 3042.68 3040.16 3037.79 3035.42 3032.87 3030.52 3028.05 3025.56 3023.37 3020.96 3018.72 3016.42 3014.30 3012.19 3010.01 3008.11 3006.01 3004.08 3002.07 2999.75 2997.87 2996.22 2994.20 2992.22 2990.27 2988.45 2986.66 2984.49 2982.58 2980.55 2978.68 2976.83 2974.85 2972.80 2970.92 2968.83 2966.79 2964.71 2962.69 2960.74 2958.96 2957.07 2955.13 2953.24 2951.26 2949.27 2947.28 2945.27 2943.19 2941.31 2939.29 2937.29 2935.31 2933.27 2931.16 2929.13 2926.79 2924.69 2922.67 2920.60 2918.70 2916.58 2914.49 2912.47 2910.38 2908.45 2906.58 2904.45 2902.39 2900.61 2898.76 2896.98 2895.30 2893.48 2891.85 2890.22 2888.55 2886.73 2884.99 2883.37 2881.68 2880.28 2878.75 2877.30 2875.82 2874.60 2873.27 2872.04 2870.61 2869.28 2868.16 2866.56 2865.17 2863.72 2862.45 2861.06 2859.67 2858.52 2857.32 2856.22 2855.05 2853.95 2853.02 2852.14 2851.48 2850.68 2849.97 2849.39 2848.67 2848.02 2847.03 2846.27 2845.00 2844.09 2842.20 2841.06 2839.55 2837.90 2834.30 2833.32 2830.49 2827.66 2825.33 2822.51 2819.25 2815.89 2812.47 2809.05 2806.00 2802.76 2799.72 2797.24 2794.71 2792.71 2790.96 2789.42 2788.03 2786.68 2785.11 2783.45 2781.76 2779.86 2777.96 2776.21 2774.43 2772.70 2770.71 2768.85 2767.03 2765.00 2762.91 2761.02 2759.01 2757.08 2755.15 2753.01 2750.86 2748.79 2746.49 2744.42 2742.22 2740.14 2738.15 2736.08 2734.17 2732.27 2730.55 2728.67 2726.93 2725.17 2723.59 2721.99 2720.31 2718.99 2717.77 2716.94 2716.15 2715.63 2715.66 2716.08 2717.40 2731.28 2733.50 2735.38 2734.48 2735.38 2734.76 2733.71 2735.45 2737.17 2739.71 2740.47 2718.57 2708.66 2697.30 2680.16 2662.15 2627.79 2603.75 2588.19 2547.41 2528.01 2515.23 2498.81 2487.95 2477.56 2468.76 2449.86 2435.50
3112.51 3122.80 3139.82 3154.50 3156.74 3157.53 3156.93 3154.74 3150.79 3146.29 3142.23 3137.89 3134.44 3131.03 3127.60 3125.30 3122.80 3120.54 3118.70 3116.80 3115.01 3113.20 3111.45 3109.85 3108.15 3106.72 3105.38 3104.01 3102.84 3101.34 3099.19 3096.95 3094.56 3091.99 3089.47 3086.77 3084.08 3081.48 3078.54 3075.71 3073.20 3070.51 3067.83 3065.31 3062.59 3060.02 3057.71 3055.18 3052.46 3049.90 3047.46 3044.98 3042.40 3040.07 3037.40 3035.05 3032.66 3030.37 3027.90 3025.36 3022.99 3020.87 3018.56 3016.28 3014.21 3012.09 3009.95 3007.96 3005.98 3003.92 3001.63 2999.78 2997.88 2995.99 2994.11 2992.17 2990.31 2988.48 2986.55 2984.50 2982.47 2980.62 2978.86 2976.69 2974.68 2972.82 2970.69 2968.90 2966.76 2964.85 2962.81 2960.89 2959.08 2957.14 2955.46 2953.55 2951.66 2949.68 2947.54 2945.66 2943.54 2941.58 2939.69 2937.67 2935.62 2933.58 2931.51 2929.41 2927.25 2925.27 2923.08 2921.20 2919.12 2917.08 2915.19 2912.91 2911.03 2909.16 2907.14 2905.20 2903.18 2901.43 2899.63 2897.91 2895.99 2894.45 2892.82 2891.00 2889.49 2887.73 2886.06 2884.40 2883.03 2881.39 2879.85 2878.53 2877.25 2876.09 2874.72 2873.36 2872.15 2870.87 2869.56 2868.45 2867.04 2865.65 2864.40 2863.23 2862.19 2861.11 2859.97 2858.82 2858.13 2857.18 2856.30 2855.69 2854.87 2854.21 2853.63 2853.01 2852.39 2851.30 2850.46 2849.35 2848.08 2846.82 2845.56 2843.93 2842.05 2840.29 2837.80 2835.09 2832.88 2830.19 2827.05 2823.91 2820.62 2817.40 2813.87 2810.54 2807.34 2804.28 2801.44 2798.67 2796.43 2794.47 2792.84 2791.36 2789.67 2787.82 2785.99 2784.31 2782.59 2780.64 2779.01 2777.24 2775.41 2773.38 2771.57 2769.42 2767.54 2765.55 2763.57 2761.54 2759.41 2757.41 2755.16 2753.02 2750.90 2748.67 2746.67 2744.52 2742.46 2740.57 2738.50 2736.76 2734.89 2733.01 2731.40 2729.72 2728.00 2726.45 2725.08 2723.45 2722.23 2721.14 2720.33 2719.65 2719.45 2719.79 2721.00 2732.99 2735.75 2734.16 2736.05 2735.80 2734.27 2734.46 2735.31 2739.51 2737.23 2716.87 2711.00 2704.88 2698.00 2684.39 2668.68 2659.14 2628.73 2605.69 2588.95 2548.43 2526.20 2514.04 2498.49 2479.12 2471.83 2460.60 2443.34 2425.85
3108.26 3120.41 3132.97 3152.59 3162.38 3160.54 3160.27 3159.52 3157.07 3152.95 3148.54 3144.11 3139.90 3136.16 3132.72 3129.81 3126.81 3124.32 3122.03 3119.75 3118.00 3115.95 3114.08 3112.13 3110.19 3108.49 3106.84 3105.19 3103.81 3102.67 3100.97 3099.07 3096.63 3094.46 3091.66 3089.13 3086.48 3083.97 3081.34 3078.51 3075.85 3073.03 3070.46 3067.82 3065.15 3062.55 3060.12 3057.50 3054.89 3052.10 3049.76 3047.27 3044.62 3042.24 3039.75 3037.19 3034.85 3032.43 3029.96 3027.51 3025.06 3022.78 3020.58 3018.38 3016.40 3014.06 3011.90 3009.89 3007.78 3005.68 3003.70 3001.71 2999.81 2997.73 2995.95 2993.96 2992.16 2990.43 2988.48 2986.51 2984.50 2982.52 2980.55 2978.83 2976.72 2974.73 2972.77 2970.83 2968.89 2966.92 2964.81 2963.07 2961.23 2959.11 2957.58 2955.46 2953.75 2951.77 2949.81 2948.03 2945.72 2943.88 2941.95 2939.99 2938.00 2935.95 2933.98 2931.82 2929.66 2927.74 2925.59 2923.59 2921.62 2919.52 2917.67 2915.50 2913.58 2911.49 2909.73 2907.75 2905.86 2903.97 2902.30 2900.35 2898.80 2896.98 2895.40 2893.81 2892.08 2890.37 2888.84 2887.19 2885.50 2884.11 2882.50 2881.05 2879.85 2878.73 2877.51 2876.26 2875.11 2873.96 2872.65 2871.59 2870.23 2869.12 2867.99 2866.86 2865.85 2864.88 2863.83 2862.97 2862.07 2861.17 2860.31 2859.66 2859.08 2858.23 2857.62 2856.98 2856.28 2855.14 2854.44 2853.25 2852.23 2850.86 2849.32 2847.63 2846.00 2844.09 2841.83 2839.57 2837.05 2834.17 2831.36 2828.38 2825.17 2821.91 2818.35 2815.10 2811.64 2808.51 2805.61 2802.89 2800.21 2798.12 2796.23 2794.41 2792.51 2790.68 2788.80 2786.99 2785.24 2783.41 2781.63 2779.96 2778.19 2776.46 2774.29 2772.17 2770.10 2768.09 2766.06 2764.08 2761.82 2759.79 2757.66 2755.43 2753.35 2751.07 2749.27 2747.29 2745.16 2743.30 2741.29 2739.53 2737.72 2736.03 2734.28 2732.78 2731.11 2729.65 2728.24 2726.83 2725.69 2724.68 2723.92 2723.49 2723.54 2724.25 2727.46 2737.59 2736.17 2736.66 2735.09 2734.37 2733.82 2734.12 2727.32 2713.96 2705.05 2705.06 2703.25 2697.57 2690.82 2675.57 2663.72 2639.54 2623.97 2606.97 2578.22 2551.04 2537.00 2508.16 2490.65 2478.30 2466.43 2455.46 2436.58 2424.00
3099.40 3115.64 3129.90 3147.14 3156.85 3166.06 3164.75 3163.73 3161.93 3159.32 3155.10 3150.76 3146.37 3141.97 3138.27 3134.97 3131.70 3128.75 3126.16 3123.54 3121.42 3119.19 3116.99 3114.84 3112.75 3110.66 3108.83 3106.88 3105.00 3103.56 3102.21 3100.73 3098.78 3096.41 3094.11 3091.49 3088.92 3086.31 3083.60 3081.10 3078.48 3075.69 3072.92 3070.32 3067.74 3065.04 3062.47 3059.83 3057.27 3054.58 3052.00 3049.53 3046.88 3044.39 3041.92 3039.15 3036.88 3034.32 3032.01 3029.56 3027.13 3024.77 3022.50 3020.34 3018.26 3016.02 3013.82 3011.76 3009.85 3007.69 3005.53 3003.56 3001.75 2999.85 2998.02 2996.14 2994.05 2992.06 2990.31 2988.34 2986.33 2984.42 2982.54 2980.53 2978.58 2976.69 2974.64 2972.84 2970.79 2969.01 2966.87 2965.00 2963.07 2961.20 2959.41 2957.47 2955.81 2953.81 2951.88 2949.98 2948.06 2946.07 2944.12 2942.16 2940.36 2938.28 2936.27 2934.10 2932.15 2930.03 2928.04 2926.07 2923.98 2921.97 2919.95 2918.10 2916.21 2914.22 2912.22 2910.38 2908.44 2906.66 2904.79 2902.97 2901.12 2899.56 2897.94 2896.37 2894.65 2893.09 2891.41 2889.74 2888.19 2886.61 2885.11 2883.66 2882.57 2881.31 2880.13 2878.80 2877.69 2876.86 2875.69 2874.65 2873.60 2872.57 2871.53 2870.53 2869.49 2868.66 2867.80 2866.82 2865.87 2865.11 2864.27 2863.63 2862.94 2862.18 2861.35 2860.64 2859.88 2859.09 2858.09 2857.04 2856.18 2854.61 2853.08 2851.58 2849.94 2847.89 2845.94 2843.50 2841.14 2838.24 2835.45 2832.31 2829.18 2825.95 2822.69 2819.32 2815.84 2812.71 2809.61 2806.77 2804.13 2801.84 2799.61 2797.72 2795.75 2793.81 2791.84 2789.89 2788.12 2786.33 2784.65 2782.98 2781.35 2779.37 2777.19 2775.17 2772.91 2770.95 2768.88 2766.73 2764.39 2762.30 2760.18 2758.22 2755.94 2753.84 2751.95 2750.13 2748.16 2746.26 2744.29 2742.57 2740.81 2739.15 2737.51 2735.99 2734.41 2733.00 2731.70 2730.31 2729.21 2728.40 2727.74 2727.21 2727.55 2729.86 2743.61 2742.97 2738.78 2734.68 2736.12 2735.81 2737.07 2736.04 2736.89 2715.21 2686.62 2682.36 2679.48 2684.00 2681.46 2663.35 2634.07 2626.46 2616.76 2598.37 2563.90 2545.95 2520.49 2501.23 2486.09 2473.27 2462.83 2449.99 2433.75 2403.93
3090.87 3110.34 3124.93 3138.66 3153.71 3172.57 3170.43 3168.86 3167.02 3164.82 3161.54 3157.53 3153.07 3148.60 3144.37 3140.91 3137.05 3134.04 3131.05 3128.00 3125.54 3123.21 3120.75 3118.33 3116.07 3113.70 3111.46 3109.01 3107.00 3104.96 3103.27 3101.52 3100.11 3098.20 3096.09 3093.71 3091.23 3088.71 3086.30 3083.44 3080.87 3078.18 3075.46 3072.80 3070.06 3067.45 3064.85 3062.10 3059.54 3056.93 3054.38 3051.76 3048.97 3046.45 3044.03 3041.15 3038.84 3036.37 3033.98 3031.59 3029.19 3026.92 3024.53 3022.27 3020.24 3018.01 3015.78 3013.64 3011.69 3009.55 3007.43 3005.56 3003.59 3001.76 2999.85 2997.83 2995.98 2994.09 2992.07 2990.06 2988.27 2986.18 2984.24 2982.40 2980.32 2978.43 2976.58 2974.60 2972.74 2970.87 2968.90 2966.94 2965.02 2963.03 2961.45 2959.38 2957.63 2955.80 2953.88 2952.15 2950.07 2948.12 2946.23 2944.29 2942.50 2940.52 2938.53 2936.33 2934.48 2932.37 2930.40 2928.32 2926.39 2924.41 2922.55 2920.47 2918.52 2916.85 2914.72 2912.82 2911.03 2908.99 2907.41 2905.52 2903.73 2902.12 2900.56 2898.81 2897.30 2895.53 2894.11 2892.40 2890.76 2889.33 2887.69 2886.21 2884.95 2883.83 2882.74 2881.57 2880.52 2879.72 2878.68 2877.76 2876.80 2875.65 2875.00 2873.99 2873.05 2872.23 2871.46 2870.39 2869.69 2868.85 2868.07 2867.33 2866.66 2865.86 2865.11 2864.12 2863.49 2862.42 2861.61 2860.53 2859.27 2858.18 2856.72 2855.28 2853.61 2851.62 2849.40 2847.11 2844.70 2841.93 2839.09 2835.98 2832.84 2829.68 2826.24 2822.95 2819.68 2816.41 2813.33 2810.57 2807.93 2805.53 2803.29 2801.22 2799.10 2797.07 2794.93 2793.02 2791.03 2789.29 2787.65 2786.19 2784.47 2782.28 2780.03 2778.23 2775.94 2773.65 2771.69 2768.77 2767.26 2765.08 2762.89 2760.80 2758.75 2756.80 2754.89 2753.03 2751.16 2749.30 2747.52 2745.63 2743.86 2742.32 2740.81 2739.30 2737.85 2736.40 2735.24 2734.00 2732.98 2732.17 2731.49 2731.14 2731.47 2734.28 2739.67 2739.68 2739.85 2740.31 2738.80 2741.61 2737.40 2740.27 2742.01 2730.01 2690.85 2670.21 2666.59 2672.81 2667.49 2638.28 2625.74 2616.50 2601.11 2575.29 2553.99 2537.67 2514.08 2502.56 2479.70 2471.81 2461.65 2449.30 2429.78 2399.06
3085.29 3103.28 3120.88 3138.02 3150.40 3164.61 3176.85 3175.93 3173.38 3170.96 3167.90 3164.36 3159.97 3155.47 3151.18 3147.10 3143.21 3140.02 3136.69 3133.57 3130.69 3127.52 3125.66 3122.72 3119.93 3117.39 3114.89 3111.93 3109.32 3106.98 3104.79 3102.86 3101.10 3099.51 3097.64 3095.52 3093.33 3090.93 3088.32 3085.79 3083.21 3080.40 3077.74 3075.17 3072.49 3069.74 3067.05 3064.24 3061.86 3059.13 3056.51 3053.86 3051.35 3048.61 3046.07 3043.56 3040.84 3038.43 3035.92 3033.45 3031.12 3028.70 3026.62 3024.37 3022.07 3019.88 3017.75 3015.68 3013.56 3011.40 3009.47 3007.43 3005.51 3003.60 3001.59 2999.78 2997.87 2995.78 2993.89 2991.81 2989.88 2988.00 2986.04 2984.17 2982.18 2980.23 2978.09 2976.36 2974.34 2972.59 2970.72 2968.71 2966.91 2964.81 2963.33 2961.25 2959.42 2957.56 2955.70 2954.01 2952.15 2950.14 2948.23 2946.35 2944.65 2942.65 2940.70 2938.67 2936.63 2934.72 2932.80 2930.78 2928.71 2926.70 2924.91 2923.00 2921.04 2919.19 2917.37 2915.40 2913.42 2911.62 2909.92 2908.21 2906.33 2904.64 2903.10 2901.43 2899.79 2898.27 2896.50 2895.06 2893.52 2891.98 2890.27 2888.84 2887.64 2886.40 2885.35 2884.24 2883.32 2882.50 2881.51 2880.77 2879.89 2879.12 2877.76 2877.53 2876.35 2875.65 2874.87 2873.96 2873.17 2872.41 2871.59 2870.78 2870.09 2869.16 2868.37 2867.44 2866.75 2865.88 2864.80 2863.81 2862.56 2861.34 2860.03 2858.58 2856.93 2854.60 2852.84 2850.62 2848.14 2845.26 2842.23 2839.23 2836.20 2832.91 2829.66 2826.48 2823.12 2819.99 2817.02 2814.15 2811.63 2809.28 2807.11 2804.74 2802.56 2800.26 2798.01 2795.85 2794.13 2792.56 2790.74 2789.28 2787.42 2785.40 2783.24 2781.45 2779.26 2776.85 2774.74 2772.38 2770.26 2767.77 2766.02 2763.95 2761.73 2759.72 2758.08 2756.21 2754.16 2752.43 2750.51 2748.96 2747.29 2745.80 2744.26 2742.92 2741.48 2740.09 2738.96 2737.82 2736.91 2736.20 2735.72 2735.39 2736.17 2737.34 2743.19 2745.82 2742.17 2745.03 2744.99 2740.78 2743.22 2746.47 2749.41 2735.57 2709.85 2669.40 2656.51 2652.95 2643.08 2631.68 2616.62 2610.38 2599.37 2583.32 2555.85 2536.55 2515.08 2503.12 2485.58 2468.84 2460.51 2448.33 2426.50 2393.43
3079.20 3095.30 3116.20 3136.00 3147.90 3158.88 3185.15 3185.75 3183.54 3179.66 3175.65 3171.88 3167.70 3163.09 3158.45 3154.10 3150.31 3146.86 3143.28 3139.97 3137.22 3134.37 3131.29 3128.07 3125.22 3122.15 3118.84 3115.54 3112.32 3109.52 3106.81 3104.44 3102.40 3100.67 3098.80 3097.11 3094.95 3092.92 3090.54 3087.86 3085.37 3082.79 3080.02 3077.42 3074.63 3071.97 3069.24 3066.55 3064.09 3061.29 3058.75 3055.99 3053.28 3050.84 3048.09 3045.33 3042.86 3040.30 3037.89 3035.42 3033.10 3030.72 3028.49 3026.31 3023.97 3021.83 3019.69 3017.52 3015.42 3013.35 3011.28 3009.21 3007.30 3005.40 3003.39 3001.47 2999.60 2997.67 2995.77 2993.67 2991.91 2989.81 2987.78 2985.89 2984.04 2981.98 2980.06 2978.12 2976.34 2974.39 2972.47 2970.58 2968.70 2966.72 2965.03 2963.14 2961.25 2959.32 2957.47 2955.83 2953.99 2952.16 2950.21 2948.33 2946.40 2944.75 2942.87 2940.88 2938.84 2936.98 2935.11 2933.08 2931.06 2928.98 2927.17 2925.30 2923.45 2921.57 2919.71 2917.87 2915.96 2914.10 2912.45 2910.71 2908.77 2907.29 2905.68 2903.87 2902.46 2900.85 2899.18 2897.77 2896.16 2894.55 2893.16 2891.58 2890.03 2888.99 2887.93 2886.92 2886.08 2885.30 2884.38 2883.53 2882.87 2882.17 2881.49 2880.54 2879.68 2878.72 2878.09 2877.28 2876.55 2875.68 2874.84 2874.08 2873.26 2872.28 2871.57 2870.75 2869.87 2868.87 2867.93 2866.82 2865.53 2864.30 2862.99 2861.59 2859.83 2857.83 2856.01 2853.60 2851.33 2848.58 2845.66 2842.70 2839.45 2836.30 2833.08 2829.81 2826.45 2823.33 2820.27 2817.77 2815.41 2813.02 2810.62 2808.23 2805.88 2803.45 2801.12 2799.12 2797.31 2795.68 2794.38 2792.71 2790.82 2788.86 2786.96 2784.91 2782.91 2780.96 2778.21 2775.97 2773.59 2771.15 2769.30 2767.26 2765.11 2763.27 2761.43 2759.56 2757.62 2755.89 2754.19 2752.52 2751.00 2749.46 2747.84 2746.60 2745.18 2743.74 2742.77 2741.79 2741.07 2740.41 2740.05 2740.08 2741.16 2749.00 2749.75 2748.60 2750.23 2750.17 2750.04 2749.08 2749.62 2753.89 2756.27 2743.00 2724.53 2687.89 2657.16 2634.96 2626.24 2615.10 2608.64 2601.70 2596.59 2583.92 2554.54 2536.07 2515.36 2494.21 2483.92 2472.62 2454.89 2441.13 2420.34 2392.43
3077.10 3090.97 3112.66 3131.73 3144.30 3163.42 3172.16 3197.37 3193.64 3191.13 3187.57 3186.07 3182.29 3178.28 3173.01 3167.31 3158.33 3154.74 3151.65 3147.88 3144.93 3141.62 3138.50 3135.62 3131.98 3128.05 3124.04 3120.03 3116.22 3112.54 3109.33 3106.65 3104.20 3101.94 3100.11 3098.38 3096.61 3094.51 3092.22 3089.79 3087.41 3084.84 3082.18 3079.53 3076.94 3074.36 3071.47 3068.81 3066.28 3063.47 3060.89 3058.07 3055.42 3052.77 3050.13 3047.31 3044.86 3042.20 3039.73 3037.37 3034.94 3032.78 3030.37 3028.19 3025.93 3023.69 3021.59 3019.36 3017.21 3015.16 3012.95 3010.96 3009.02 3007.11 3005.04 3003.25 3001.34 2999.40 2997.47 2995.41 2993.47 2991.50 2989.57 2987.73 2985.56 2983.71 2981.68 2979.93 2978.02 2976.19 2974.25 2972.38 2970.63 2968.63 2966.91 2965.07 2963.18 2961.26 2959.37 2957.75 2955.79 2954.12 2952.32 2950.50 2948.38 2946.67 2944.97 2942.91 2941.10 2939.04 2937.26 2935.36 2933.13 2931.31 2929.60 2927.48 2925.75 2923.94 2922.28 2920.32 2918.41 2916.60 2914.88 2913.04 2911.41 2909.81 2908.05 2906.42 2904.93 2903.28 2901.81 2900.26 2898.85 2897.27 2895.77 2894.24 2892.98 2891.68 2890.59 2889.48 2888.72 2887.89 2887.09 2886.40 2885.65 2885.02 2884.31 2883.60 2882.62 2881.98 2881.24 2880.42 2879.68 2878.89 2877.94 2877.16 2876.32 2875.32 2874.42 2873.70 2872.64 2871.54 2870.59 2869.55 2868.31 2867.06 2865.75 2864.47 2862.98 2861.06 2859.26 2857.11 2854.69 2852.08 2849.29 2846.28 2843.20 2839.80 2836.49 2833.18 2829.88 2826.73 2823.79 2821.40 2819.07 2816.63 2814.22 2811.56 2809.02 2806.72 2804.54 2802.61 2801.25 2799.22 2797.98 2796.16 2794.52 2792.70 2790.94 2788.85 2786.81 2784.28 2781.90 2779.74 2777.45 2774.99 2773.02 2770.93 2769.17 2767.09 2765.21 2763.42 2761.52 2759.80 2758.06 2756.34 2754.90 2753.19 2751.51 2750.11 2749.02 2747.57 2746.95 2746.02 2745.27 2745.02 2744.86 2745.39 2747.57 2755.91 2754.84 2758.20 2758.99 2757.59 2756.98 2753.52 2751.74 2752.16 2753.17 2745.74 2733.98 2699.15 2671.20 2644.21 2618.73 2611.64 2603.09 2592.27 2583.87 2576.43 2550.79 2536.93 2521.68 2496.58 2479.72 2461.65 2446.44 2433.98 2416.14 2385.85
3075.70 3086.65 3107.21 3127.89 3141.10 3155.96 3166.93 3185.76 3202.87 3200.76 3198.37 3194.79 3190.45 3186.33 3182.82 3179.42 3175.93 3172.95 3169.53 3167.12 3163.75 3161.26 3155.40 3153.01 3150.55 3146.30 3141.99 3136.49 3119.54 3115.52 3112.23 3109.04 3106.19 3103.69 3101.47 3099.44 3097.96 3096.01 3094.12 3091.65 3089.32 3086.80 3084.17 3081.65 3079.01 3076.34 3073.58 3070.88 3068.20 3065.57 3062.79 3060.16 3057.48 3054.84 3052.22 3049.41 3046.88 3044.19 3041.67 3039.28 3036.84 3034.62 3032.25 3029.95 3027.67 3025.64 3023.44 3021.32 3019.22 3017.01 3014.84 3012.78 3010.82 3008.76 3006.64 3004.87 3002.97 3001.12 2999.19 2997.16 2995.24 2993.23 2991.40 2989.45 2987.32 2985.47 2983.57 2981.72 2979.76 2977.88 2975.95 2974.28 2972.29 2970.36 2968.62 2966.80 2965.01 2963.15 2961.10 2959.51 2957.64 2956.00 2953.99 2952.17 2950.31 2948.51 2946.84 2944.89 2943.13 2941.17 2939.40 2937.60 2935.47 2933.66 2931.76 2929.88 2928.00 2926.20 2924.29 2922.75 2920.68 2919.00 2917.35 2915.60 2913.85 2912.17 2910.59 2908.93 2907.49 2905.90 2904.43 2902.88 2901.45 2899.97 2898.43 2897.00 2895.69 2894.35 2893.32 2892.21 2891.37 2890.49 2889.77 2888.92 2888.40 2887.86 2887.06 2886.35 2885.52 2884.83 2884.16 2883.42 2882.67 2881.69 2880.94 2880.02 2879.26 2878.24 2877.26 2876.48 2875.47 2874.41 2873.33 2872.17 2871.13 2869.88 2868.66 2867.32 2865.92 2864.10 2861.57 2860.40 2858.09 2855.75 2852.90 2849.94 2846.90 2843.63 2840.21 2836.85 2833.17 2830.44 2827.68 2824.82 2822.75 2819.80 2816.98 2814.75 2812.07 2810.29 2808.47 2806.49 2805.00 2803.57 2801.99 2800.68 2799.13 2797.40 2795.50 2793.59 2791.14 2788.54 2786.07 2784.04 2781.76 2779.45 2777.24 2775.33 2773.30 2771.32 2769.25 2767.51 2765.77 2763.93 2762.21 2760.67 2758.86 2756.87 2755.79 2754.23 2752.81 2751.67 2751.03 2750.32 2749.81 2749.65 2750.04 2751.52 2757.46 2758.25 2761.91 2763.26 2761.82 2756.88 2751.85 2751.64 2746.77 2740.68 2735.72 2739.19 2726.44 2721.70 2699.57 2659.10 2624.47 2604.36 2595.28 2584.46 2573.57 2564.57 2544.41 2532.58 2518.13 2504.81 2489.13 2471.98 2445.52 2428.27 2411.81 2383.38
3074.79 3082.43 3101.11 3124.58 3136.99 3149.34 3165.91 3181.65 3198.66 3207.72 3203.78 3200.01 3196.64 3192.88 3189.37 3186.07 3184.48 3181.53 3179.36 3177.71 3174.63 3171.36 3168.08 3164.50 3160.10 3157.70 3153.83 3150.13 3144.93 3135.34 3115.88 3111.72 3108.56 3105.62 3103.07 3101.05 3099.18 3097.31 3095.51 3093.20 3091.06 3088.56 3086.03 3083.61 3081.19 3078.47 3075.70 3073.12 3070.46 3067.62 3064.92 3062.24 3059.30 3056.79 3054.19 3051.32 3048.83 3046.25 3043.75 3041.11 3038.69 3036.37 3034.08 3031.87 3029.64 3027.41 3025.25 3023.13 3021.16 3018.60 3016.64 3014.59 3012.57 3010.70 3008.55 3006.53 3004.69 3002.81 3000.95 2998.94 2996.90 2995.03 2993.35 2991.15 2989.18 2987.29 2985.23 2983.35 2981.59 2979.63 2977.68 2975.87 2974.01 2972.16 2970.27 2968.55 2966.79 2964.90 2962.95 2961.30 2959.42 2957.70 2955.75 2954.01 2952.26 2950.56 2948.68 2946.82 2945.03 2943.06 2941.46 2939.63 2937.72 2935.83 2934.02 2932.28 2930.38 2928.55 2926.79 2924.92 2923.14 2921.37 2919.86 2918.07 2916.49 2914.80 2913.09 2911.39 2910.00 2908.31 2906.96 2905.43 2904.10 2902.76 2901.11 2899.63 2898.16 2896.93 2896.04 2894.75 2893.85 2892.96 2892.25 2891.70 2890.93 2890.42 2889.82 2889.12 2888.39 2887.74 2887.15 2886.25 2885.49 2884.66 2883.86 2882.90 2882.02 2881.18 2880.09 2879.13 2878.13 2877.18 2876.24 2875.09 2874.00 2872.91 2871.72 2870.32 2868.92 2867.22 2865.45 2863.49 2861.52 2859.03 2856.34 2853.43 2850.40 2847.39 2843.86 2840.72 2837.39 2834.28 2831.37 2828.78 2826.10 2823.43 2820.71 2818.28 2816.63 2814.63 2812.81 2811.14 2809.70 2808.17 2806.52 2805.50 2804.16 2802.72 2800.73 2798.75 2796.12 2793.57 2790.99 2788.75 2786.67 2784.35 2782.24 2780.51 2777.85 2775.81 2773.98 2772.05 2770.26 2768.42 2766.73 2764.81 2763.40 2761.29 2759.93 2758.63 2756.93 2756.10 2755.19 2755.10 2754.95 2756.94 2756.10 2759.21 2765.57 2765.32 2757.47 2752.87 2750.11 2748.99 2744.65 2741.11 2727.06 2722.28 2724.13 2719.97 2717.62 2707.57 2705.49 2695.72 2642.38 2628.17 2598.56 2575.15 2557.34 2542.68 2535.23 2520.35 2509.11 2497.68 2488.71 2463.22 2446.06 2424.84 2407.18 2380.44
3073.88 3080.27 3090.97 3112.86 3126.63 3145.14 3165.05 3176.18 3191.35 3205.83 3208.25 3205.45 3202.01 3198.16 3194.25 3191.39 3189.14 3187.46 3185.26 3183.50 3181.40 3178.50 3175.51 3172.25 3169.11 3165.55 3160.88 3155.04 3144.75 3128.81 3120.39 3115.12 3110.88 3107.79 3104.87 3102.54 3100.56 3098.61 3096.82 3094.86 3092.56 3090.35 3088.01 3085.32 3082.94 3080.43 3077.70 3075.12 3072.33 3069.69 3066.90 3064.12 3061.36 3058.85 3056.06 3053.42 3050.65 3047.97 3045.65 3042.89 3040.65 3038.17 3035.91 3033.51 3031.40 3029.19 3027.10 3024.86 3022.96 3020.66 3018.52 3016.34 3014.33 3012.25 3010.30 3008.34 3006.48 3004.51 3002.74 3000.66 2998.76 2996.79 2994.88 2993.02 2990.95 2988.98 2987.09 2985.35 2983.26 2981.35 2979.54 2977.66 2975.66 2973.85 2972.08 2970.27 2968.61 2966.65 2964.78 2963.06 2961.13 2959.33 2957.51 2955.88 2954.06 2952.21 2950.49 2948.80 2947.07 2945.20 2943.47 2941.72 2939.76 2937.94 2936.16 2934.48 2932.63 2930.81 2929.14 2927.16 2925.52 2923.84 2922.26 2920.43 2919.05 2917.45 2915.64 2914.10 2912.51 2910.95 2909.52 2908.04 2906.56 2905.28 2903.67 2902.49 2900.96 2899.60 2898.47 2897.34 2896.38 2895.46 2894.88 2894.01 2893.48 2892.97 2892.33 2891.64 2890.98 2890.41 2889.78 2888.89 2888.21 2887.32 2886.61 2885.75 2884.85 2883.96 2882.98 2881.99 2881.02 2880.10 2879.15 2877.98 2877.02 2875.80 2874.70 2873.47 2872.02 2870.39 2868.73 2866.76 2864.70 2862.27 2859.83 2856.94 2854.21 2851.03 2847.48 2844.63 2841.17 2838.48 2835.47 2832.12 2829.72 2827.24 2824.49 2822.81 2820.60 2818.91 2817.07 2816.02 2815.06 2813.98 2812.13 2811.18 2809.67 2808.62 2806.95 2804.89 2802.69 2801.73 2797.62 2793.81 2792.21 2790.29 2788.28 2785.65 2783.05 2781.16 2779.31 2777.30 2775.27 2773.38 2771.50 2769.81 2767.91 2766.21 2764.31 2763.03 2761.96 2761.13 2760.81 2762.28 2764.66 2771.64 2774.46 2774.83 2766.84 2755.05 2749.41 2745.11 2744.16 2737.75 2735.62 2732.80 2715.38 2708.53 2704.48 2700.26 2695.54 2692.90 2690.56 2686.59 2667.51 2656.12 2622.04 2601.33 2557.51 2527.57 2521.37 2506.67 2498.55 2484.98 2470.44 2458.08 2430.29 2401.83 2395.96 2385.05
3073.33 3080.26 3087.34 3098.25 3113.77 3137.39 3155.02 3168.39 3183.94 3199.41 3213.68 3208.95 3206.62 3203.35 3199.62 3196.31 3193.25 3190.39 3188.49 3186.98 3184.88 3182.23 3179.84 3177.58 3173.95 3170.05 3164.62 3157.07 3146.66 3136.06 3122.85 3117.62 3113.23 3109.84 3106.88 3104.38 3102.10 3100.01 3098.06 3096.02 3093.97 3091.86 3089.63 3087.06 3084.70 3082.39 3079.51 3076.94 3074.36 3071.55 3068.94 3066.07 3063.41 3060.80 3057.87 3055.33 3052.70 3049.88 3047.55 3044.64 3042.46 3040.02 3037.68 3035.38 3033.10 3030.86 3028.81 3026.62 3024.53 3022.41 3020.40 3017.98 3015.94 3014.08 3012.11 3010.09 3008.19 3006.38 3004.25 3002.35 3000.24 2998.62 2996.48 2994.67 2992.85 2990.73 2988.83 2986.83 2985.07 2983.09 2981.16 2979.20 2977.33 2975.56 2973.87 2972.00 2970.31 2968.48 2966.67 2964.80 2962.84 2961.14 2959.34 2957.50 2955.73 2954.12 2952.41 2950.64 2948.97 2947.10 2945.55 2943.59 2941.87 2940.17 2938.35 2936.63 2935.00 2933.01 2931.31 2929.57 2927.85 2926.18 2924.61 2922.90 2921.40 2919.79 2918.24 2916.63 2914.96 2913.45 2911.98 2910.58 2909.15 2907.83 2906.14 2904.93 2903.52 2902.27 2901.10 2899.94 2898.93 2898.03 2897.28 2896.58 2895.98 2895.37 2894.68 2894.24 2893.51 2892.94 2892.24 2891.58 2890.82 2890.06 2889.29 2888.52 2887.52 2886.85 2885.72 2884.74 2883.87 2882.92 2881.97 2880.97 2879.98 2878.94 2877.61 2876.46 2875.08 2873.52 2871.81 2870.01 2867.71 2865.51 2863.11 2860.61 2857.71 2854.20 2851.59 2848.33 2845.37 2842.17 2839.55 2836.44 2833.61 2831.01 2828.89 2826.46 2823.72 2822.92 2822.16 2821.50 2820.96 2819.55 2817.81 2816.81 2815.87 2814.59 2813.32 2811.54 2810.11 2816.11 2817.10 2811.57 2799.56 2796.97 2794.33 2791.73 2789.44 2787.19 2784.54 2782.41 2780.37 2778.27 2776.28 2774.89 2773.02 2771.06 2769.34 2768.21 2767.01 2766.84 2768.77 2772.72 2776.16 2778.65 2778.25 2767.94 2763.01 2751.33 2742.65 2736.60 2732.58 2727.80 2724.52 2713.11 2703.70 2695.25 2692.01 2689.32 2685.43 2682.85 2680.83 2677.88 2673.70 2672.48 2638.35 2627.13 2602.52 2558.48 2512.03 2496.90 2475.92 2461.43 2447.78 2433.91 2429.85 2405.58 2401.85 2417.76
3073.21 3079.16 3086.15 3093.77 3102.04 3125.60 3150.99 3162.80 3181.23 3190.60 3198.23 3205.29 3208.45 3207.39 3204.28 3200.80 3197.35 3194.13 3191.40 3188.70 3186.54 3184.77 3182.85 3180.53 3176.77 3172.65 3167.84 3162.24 3153.58 3141.30 3125.91 3120.30 3115.23 3111.57 3108.90 3106.08 3103.86 3101.46 3099.32 3097.44 3095.47 3093.31 3091.12 3088.83 3086.33 3083.94 3081.22 3078.75 3076.17 3073.56 3070.76 3068.03 3065.02 3062.59 3059.85 3057.17 3054.51 3051.76 3049.36 3046.56 3044.34 3041.84 3039.43 3037.17 3034.92 3032.69 3030.44 3028.40 3026.31 3024.19 3022.08 3019.81 3017.71 3015.75 3013.76 3011.86 3009.87 3008.08 3005.99 3004.07 3002.11 3000.32 2998.34 2996.49 2994.52 2992.56 2990.64 2988.65 2986.76 2984.74 2982.82 2980.94 2979.04 2977.32 2975.48 2973.84 2971.96 2970.07 2968.25 2966.60 2964.68 2962.94 2961.07 2959.38 2957.54 2955.83 2954.12 2952.39 2950.72 2949.06 2947.46 2945.80 2943.94 2942.12 2940.58 2938.80 2937.12 2935.21 2933.58 2931.84 2930.33 2928.59 2926.93 2925.28 2923.79 2922.30 2920.59 2919.03 2917.59 2915.90 2914.31 2912.81 2911.54 2910.13 2908.74 2907.38 2905.96 2904.67 2903.71 2902.48 2901.38 2900.40 2899.70 2898.91 2898.37 2897.71 2897.01 2896.42 2895.77 2895.27 2894.66 2894.10 2893.20 2892.63 2891.83 2891.01 2890.31 2889.65 2888.48 2887.66 2886.81 2885.81 2885.00 2883.89 2882.90 2881.93 2880.85 2879.50 2878.08 2876.64 2874.91 2873.20 2871.08 2868.70 2866.47 2863.81 2861.07 2858.31 2854.62 2852.27 2849.29 2846.00 2843.72 2840.82 2838.06 2835.34 2833.04 2831.18 2829.72 2827.99 2827.31 2827.45 2827.25 2826.30 2824.54 2823.54 2823.02 2821.93 2825.16 2824.95 2826.66 2826.59 2828.77 2820.16 2812.70 2809.13 2800.22 2798.63 2796.99 2799.06 2798.08 2796.70 2784.94 2782.64 2781.06 2779.51 2777.74 2776.33 2774.55 2773.73 2774.12 2774.77 2778.10 2781.83 2783.06 2783.19 2769.19 2763.36 2758.31 2747.74 2738.35 2729.64 2720.07 2712.18 2706.88 2697.33 2692.51 2686.59 2682.34 2678.61 2674.96 2671.36 2669.69 2668.34 2665.72 2664.19 2654.52 2638.84 2613.00 2567.78 2519.15 2487.82 2467.50 2454.66 2442.03 2434.14 2415.85 2415.07 2421.72 2434.05
3073.32 3078.91 3085.82 3093.05 3101.08 3118.21 3144.93 3158.58 3173.35 3180.89 3194.17 3208.75 3213.41 3209.71 3207.77 3204.83 3201.08 3197.71 3194.59 3191.50 3189.98 3186.85 3184.17 3180.96 3178.29 3174.02 3170.12 3164.86 3155.87 3145.98 3136.13 3122.86 3117.69 3113.58 3110.61 3108.00 3105.41 3103.17 3100.86 3098.70 3096.53 3094.68 3092.52 3090.28 3087.93 3085.57 3082.95 3080.46 3077.89 3075.31 3072.55 3069.82 3067.01 3064.59 3061.64 3059.03 3056.39 3053.69 3050.97 3048.33 3046.17 3043.52 3041.20 3039.03 3036.74 3034.21 3032.34 3030.17 3028.02 3025.75 3023.92 3021.40 3019.44 3017.44 3015.47 3013.56 3011.66 3009.63 3007.66 3005.72 3003.89 3002.00 2999.98 2998.05 2996.17 2994.26 2992.34 2990.39 2988.54 2986.41 2984.60 2982.91 2980.86 2978.98 2977.14 2975.53 2973.73 2971.79 2970.08 2968.34 2966.42 2964.69 2962.90 2961.17 2959.45 2957.76 2955.95 2954.33 2952.57 2950.70 2949.33 2947.61 2945.90 2944.29 2942.72 2940.95 2939.34 2937.39 2935.80 2934.21 2932.59 2931.02 2929.37 2927.65 2926.17 2924.57 2923.12 2921.44 2919.96 2918.46 2916.90 2915.52 2913.93 2912.38 2911.17 2909.78 2908.34 2907.19 2906.05 2904.83 2903.86 2902.82 2901.98 2901.17 2900.40 2899.93 2899.20 2898.68 2898.11 2897.53 2896.97 2896.48 2895.74 2895.00 2894.48 2893.76 2893.10 2892.45 2891.55 2890.80 2889.99 2889.02 2888.08 2887.10 2886.28 2885.14 2884.14 2882.80 2881.42 2879.86 2878.10 2876.47 2874.39 2872.10 2869.83 2867.25 2864.49 2861.91 2858.81 2856.32 2853.77 2850.87 2848.54 2845.05 2843.11 2841.27 2839.58 2838.47 2837.34 2836.61 2835.35 2834.05 2834.05 2832.48 2831.45 2829.82 2829.74 2831.20 2836.24 2835.58 2836.61 2835.22 2839.01 2830.74 2822.78 2819.21 2815.35 2815.31 2816.15 2814.34 2813.39 2809.76 2801.39 2788.67 2786.21 2784.34 2782.69 2781.37 2780.57 2780.35 2780.49 2784.64 2789.73 2790.53 2790.41 2763.48 2754.15 2757.11 2752.47 2749.16 2736.35 2718.34 2710.54 2702.86 2694.49 2690.16 2684.27 2676.89 2671.30 2668.08 2666.15 2662.16 2659.28 2658.56 2654.86 2652.12 2649.45 2647.61 2604.64 2541.23 2502.77 2488.93 2476.50 2447.91 2439.35 2432.30 2428.92 2437.18 2446.81 2447.31
3074.14 3079.54 3086.68 3092.82 3101.65 3111.85 3135.34 3153.34 3164.84 3179.08 3190.07 3206.45 3218.54 3214.09 3210.23 3207.85 3205.01 3201.42 3197.83 3194.39 3192.61 3188.93 3185.79 3182.13 3178.83 3175.28 3171.72 3166.65 3160.02 3150.84 3141.90 3132.17 3120.59 3115.65 3112.25 3109.58 3107.23 3104.82 3102.37 3100.10 3097.83 3095.85 3093.79 3091.71 3089.49 3087.17 3084.52 3082.04 3079.64 3076.99 3074.23 3071.48 3068.87 3066.20 3063.41 3060.72 3058.20 3055.50 3052.92 3050.21 3047.86 3045.41 3042.95 3040.70 3038.38 3036.07 3033.81 3031.84 3029.73 3027.65 3025.59 3023.29 3021.26 3019.24 3017.19 3015.14 3013.36 3011.29 3009.39 3007.44 3005.46 3003.62 3001.65 2999.86 2997.84 2995.83 2993.88 2992.04 2990.26 2988.25 2986.30 2984.56 2982.59 2980.73 2978.87 2977.28 2975.52 2973.67 2971.88 2970.03 2968.13 2966.49 2964.69 2962.95 2960.97 2959.43 2957.77 2956.07 2954.44 2952.64 2951.22 2949.49 2948.01 2946.34 2944.60 2943.09 2941.31 2939.76 2938.09 2936.46 2934.81 2933.41 2931.68 2929.99 2928.40 2926.90 2925.51 2923.91 2922.29 2920.78 2919.36 2917.91 2916.37 2914.86 2913.43 2912.19 2910.83 2909.62 2908.47 2907.27 2906.25 2905.17 2904.28 2903.41 2902.70 2902.10 2901.44 2900.88 2900.38 2899.86 2899.43 2898.89 2898.36 2897.65 2897.12 2896.53 2896.10 2895.41 2894.80 2893.91 2893.37 2892.29 2891.53 2890.62 2889.68 2888.55 2887.56 2886.37 2885.06 2883.50 2881.81 2879.98 2877.98 2875.82 2873.71 2871.39 2868.73 2866.07 2862.48 2860.77 2858.27 2855.70 2854.68 2856.06 2852.48 2847.75 2852.31 2851.95 2853.29 2851.71 2849.57 2846.10 2842.83 2846.13 2847.41 2848.41 2846.28 2844.92 2845.74 2846.64 2846.85 2845.50 2843.83 2837.83 2836.44 2836.12 2832.89 2830.33 2830.54 2828.27 2835.27 2820.26 2810.71 2796.19 2792.45 2789.89 2788.74 2787.86 2787.27 2787.03 2791.84 2795.29 2804.83 2801.30 2780.86 2752.03 2740.32 2743.41 2729.36 2736.34 2723.33 2713.37 2701.75 2695.71 2688.35 2680.61 2678.16 2671.89 2665.69 2658.59 2657.33 2655.30 2650.13 2647.39 2643.78 2639.96 2637.14 2610.83 2587.90 2535.10 2488.50 2478.88 2459.52 2452.84 2444.48 2439.43 2444.49 2451.71 2453.21 2459.73
3075.44 3080.93 3086.83 3093.51 3101.60 3109.83 3126.04 3144.56 3166.37 3172.03 3183.70 3195.91 3220.71 3219.17 3215.17 3210.65 3207.97 3205.23 3202.04 3198.66 3195.99 3191.30 3187.05 3183.56 3179.44 3176.15 3173.16 3168.74 3161.70 3156.72 3145.56 3137.95 3126.71 3118.02 3114.36 3111.25 3108.98 3106.51 3104.04 3101.61 3099.19 3097.22 3095.18 3092.96 3090.71 3088.46 3086.04 3083.77 3081.49 3078.69 3075.89 3073.13 3070.45 3067.89 3065.25 3062.46 3059.85 3057.22 3054.61 3051.91 3049.57 3047.18 3044.74 3042.53 3040.09 3037.72 3035.80 3033.46 3031.50 3029.27 3027.43 3025.02 3022.92 3021.12 3018.86 3016.96 3014.99 3012.96 3011.09 3009.19 3007.21 3005.24 3003.31 3001.45 2999.49 2997.57 2995.71 2993.81 2992.09 2990.07 2988.06 2986.22 2984.38 2982.54 2980.74 2979.07 2977.26 2975.36 2973.66 2971.90 2969.96 2968.26 2966.55 2964.75 2963.06 2961.43 2959.66 2958.01 2956.34 2954.62 2953.15 2951.50 2950.02 2948.42 2946.80 2945.23 2943.59 2941.85 2940.28 2938.64 2937.11 2935.65 2933.92 2932.38 2930.84 2929.47 2927.96 2926.42 2924.93 2923.38 2921.77 2920.42 2918.86 2917.28 2915.78 2914.46 2913.31 2912.09 2910.89 2909.66 2908.54 2907.68 2906.65 2905.77 2904.92 2904.52 2903.81 2903.21 2902.63 2902.25 2901.80 2901.41 2900.78 2900.28 2899.84 2899.47 2899.08 2898.45 2897.89 2897.43 2896.70 2895.78 2895.00 2894.15 2893.27 2892.23 2891.21 2889.94 2888.78 2887.36 2885.72 2883.92 2882.02 2880.02 2878.05 2876.14 2873.51 2871.18 2869.08 2867.23 2862.18 2867.80 2872.13 2869.12 2866.24 2868.33 2869.15 2866.13 2867.59 2866.80 2863.26 2858.23 2857.68 2859.56 2857.58 2856.00 2853.77 2853.24 2852.64 2852.81 2853.57 2853.43 2853.33 2853.14 2853.48 2857.48 2852.75 2847.55 2846.49 2845.73 2844.04 2829.54 2819.79 2808.47 2798.66 2796.41 2795.48 2795.03 2794.91 2798.85 2804.22 2812.39 2816.55 2817.60 2759.36 2741.29 2729.07 2725.27 2720.37 2714.02 2713.24 2703.55 2694.71 2687.93 2681.53 2673.86 2670.78 2664.20 2656.84 2649.98 2648.53 2648.31 2643.84 2637.48 2634.52 2629.54 2626.96 2611.17 2573.17 2529.06 2513.94 2488.98 2463.91 2457.40 2450.45 2449.17 2456.03 2466.62 2474.36 2483.42
3076.66 3082.10 3088.07 3094.37 3101.50 3109.65 3120.59 3139.04 3150.69 3167.99 3178.78 3196.11 3216.34 3225.90 3220.20 3216.75 3212.60 3208.87 3207.93 3204.97 3200.65 3195.32 3190.60 3185.87 3181.99 3178.11 3174.31 3169.82 3163.33 3156.25 3148.79 3138.86 3135.47 3120.63 3116.17 3112.91 3110.39 3108.11 3105.64 3103.10 3100.68 3098.55 3096.36 3094.45 3092.15 3089.92 3087.50 3085.11 3082.74 3080.22 3077.62 3075.03 3072.26 3069.62 3066.78 3064.25 3061.46 3058.91 3056.37 3053.68 3051.28 3048.84 3046.38 3044.04 3041.86 3039.42 3037.38 3035.24 3033.23 3031.16 3029.10 3026.79 3024.78 3022.87 3020.69 3018.59 3016.68 3014.77 3012.62 3010.85 3008.91 3007.12 3005.07 3003.15 3001.36 2999.27 2997.50 2995.46 2993.66 2991.85 2989.84 2987.96 2986.06 2984.20 2982.48 2980.73 2979.01 2977.22 2975.53 2973.66 2971.99 2970.14 2968.50 2966.63 2965.00 2963.24 2961.49 2959.89 2958.28 2956.59 2955.07 2953.30 2951.73 2950.38 2948.81 2947.22 2945.88 2944.13 2942.57 2941.03 2939.50 2938.00 2936.35 2934.74 2933.40 2931.74 2930.29 2928.79 2927.31 2925.92 2924.23 2922.80 2921.40 2919.85 2918.25 2917.00 2915.71 2914.34 2913.18 2912.09 2910.99 2909.96 2908.96 2908.11 2907.34 2906.83 2906.17 2905.53 2904.98 2904.67 2904.18 2903.90 2903.42 2903.14 2902.53 2902.18 2901.91 2901.44 2900.97 2900.32 2900.06 2899.42 2898.51 2897.63 2896.85 2895.98 2894.96 2893.92 2892.69 2891.25 2889.87 2888.35 2886.48 2884.56 2882.50 2880.33 2878.96 2876.59 2875.02 2874.06 2872.98 2879.04 2884.95 2882.55 2881.65 2880.34 2882.10 2881.85 2882.24 2879.73 2874.23 2870.32 2869.26 2867.54 2864.20 2862.10 2860.46 2860.59 2859.95 2859.71 2860.46 2860.82 2861.64 2863.28 2864.07 2865.43 2863.61 2860.89 2860.52 2860.22 2859.57 2860.03 2828.05 2817.70 2805.52 2803.00 2802.41 2804.08 2808.82 2816.93 2823.13 2827.87 2802.54 2770.22 2739.50 2724.50 2718.47 2713.84 2709.34 2704.67 2700.55 2697.05 2689.11 2681.52 2674.05 2665.23 2658.43 2657.35 2648.77 2643.37 2638.36 2638.61 2637.46 2632.09 2625.93 2621.47 2619.07 2602.35 2555.25 2515.00 2493.02 2481.48 2468.57 2462.18 2469.51 2460.30 2470.51 2477.24 2485.95 2500.55
3077.87 3083.18 3089.35 3095.77 3102.48 3111.72 3119.99 3135.70 3145.73 3159.29 3177.19 3189.85 3205.72 3214.78 3226.29 3221.46 3217.82 3215.91 3214.05 3210.38 3205.51 3198.57 3192.64 3187.98 3183.74 3179.27 3173.87 3168.09 3162.34 3154.71 3147.13 3141.76 3135.69 3128.68 3119.21 3115.10 3112.15 3109.78 3107.25 3104.81 3102.29 3100.08 3097.79 3095.58 3093.63 3091.34 3088.83 3086.52 3084.18 3081.75 3079.30 3076.60 3073.89 3071.23 3068.52 3065.93 3063.19 3060.51 3058.00 3055.35 3052.94 3050.39 3048.04 3045.63 3043.46 3041.16 3039.08 3036.97 3034.88 3032.67 3030.82 3028.46 3026.50 3024.64 3022.42 3020.48 3018.45 3016.51 3014.31 3012.50 3010.75 3008.83 3006.83 3004.84 3002.93 3001.09 2999.23 2997.22 2995.32 2993.56 2991.49 2989.92 2987.88 2986.20 2984.26 2982.66 2980.86 2979.00 2977.29 2975.55 2973.89 2971.92 2970.30 2968.56 2966.70 2965.12 2963.43 2961.83 2960.25 2958.59 2956.93 2955.22 2953.83 2952.28 2950.78 2949.21 2947.78 2946.20 2944.83 2943.21 2941.68 2940.25 2938.81 2937.16 2935.75 2934.13 2932.73 2931.22 2929.80 2928.29 2926.68 2925.40 2923.75 2922.48 2920.79 2919.44 2918.16 2916.73 2915.51 2914.36 2913.35 2912.29 2911.34 2910.33 2909.54 2909.00 2908.44 2907.83 2907.27 2906.95 2906.55 2906.34 2905.84 2905.66 2905.18 2904.99 2904.75 2904.31 2903.91 2903.57 2903.16 2902.84 2902.07 2901.34 2900.72 2899.67 2898.89 2897.72 2896.68 2895.47 2894.17 2892.71 2891.09 2889.23 2887.15 2885.77 2884.41 2882.27 2881.49 2880.55 2879.65 2892.53 2894.92 2893.95 2894.69 2894.49 2894.47 2895.43 2895.14 2889.55 2884.80 2881.92 2879.92 2877.41 2873.17 2870.06 2868.21 2868.53 2867.22 2867.02 2867.86 2868.13 2870.16 2872.20 2874.35 2874.96 2874.69 2874.17 2874.40 2875.07 2878.71 2875.53 2841.06 2825.82 2814.82 2810.14 2811.49 2818.53 2823.34 2828.70 2829.17 2783.83 2762.79 2740.82 2721.78 2714.67 2710.16 2703.67 2699.84 2695.51 2691.06 2687.93 2683.56 2674.23 2665.87 2658.58 2649.29 2649.12 2642.32 2635.04 2629.29 2627.77 2628.67 2625.91 2619.96 2614.86 2610.35 2593.56 2549.54 2527.76 2512.18 2480.45 2478.87 2492.18 2491.95 2472.43 2478.52 2491.06 2505.53 2518.73
3079.08 3084.74 3090.56 3096.71 3104.75 3111.70 3119.59 3129.81 3145.63 3154.22 3167.57 3179.97 3192.54 3204.55 3215.10 3226.32 3225.31 3222.51 3219.47 3214.67 3206.45 3200.58 3194.88 3189.69 3184.95 3180.00 3173.67 3167.46 3161.42 3155.14 3148.52 3141.42 3135.53 3130.29 3125.66 3120.83 3114.79 3111.88 3109.02 3106.50 3103.89 3101.71 3099.26 3096.93 3094.88 3092.68 3090.08 3087.87 3085.51 3083.10 3080.69 3077.99 3075.42 3072.83 3070.15 3067.55 3064.93 3062.27 3059.62 3057.05 3054.59 3052.08 3049.71 3047.36 3045.11 3042.92 3040.87 3038.52 3036.62 3034.42 3032.57 3030.35 3028.34 3026.44 3024.25 3022.23 3020.16 3018.19 3016.21 3014.19 3012.23 3010.52 3008.46 3006.52 3004.85 3002.80 3000.88 2999.03 2997.12 2995.25 2993.35 2991.59 2989.67 2987.91 2986.06 2984.35 2982.61 2980.81 2979.06 2977.48 2975.58 2973.77 2972.10 2970.38 2968.71 2967.05 2965.33 2963.73 2962.16 2960.37 2958.77 2957.16 2955.84 2954.29 2952.85 2951.15 2949.76 2948.27 2947.04 2945.59 2944.06 2942.60 2940.94 2939.53 2938.12 2936.68 2935.25 2933.67 2932.19 2930.84 2929.28 2927.85 2926.49 2925.06 2923.30 2922.06 2920.64 2919.37 2917.97 2916.80 2915.62 2914.61 2913.57 2912.56 2911.77 2911.25 2910.54 2909.95 2909.62 2909.32 2908.90 2908.62 2908.27 2908.08 2907.74 2907.68 2907.54 2907.30 2906.95 2906.68 2906.39 2905.97 2905.54 2904.94 2904.36 2903.61 2902.77 2901.90 2900.98 2899.92 2898.58 2897.24 2895.86 2894.34 2892.42 2891.20 2889.09 2888.06 2887.46 2887.21 2889.70 2897.21 2902.99 2906.36 2910.92 2912.14 2910.99 2909.36 2904.70 2898.58 2893.59 2890.51 2890.17 2887.57 2883.95 2881.01 2877.12 2876.14 2874.96 2877.41 2877.12 2878.95 2880.48 2882.21 2885.49 2887.11 2887.74 2887.01 2887.74 2889.77 2890.93 2892.33 2847.73 2839.18 2823.53 2820.18 2827.09 2832.69 2836.22 2806.61 2782.26 2757.65 2739.17 2722.59 2715.20 2707.05 2701.26 2696.01 2691.22 2688.06 2683.49 2677.47 2674.51 2666.67 2659.80 2652.17 2642.84 2639.20 2636.86 2628.82 2621.62 2618.68 2618.87 2618.00 2612.75 2606.78 2601.06 2599.33 2568.63 2521.45 2494.95 2493.56 2502.31 2516.51 2504.00 2484.97 2494.00 2511.44 2521.50 2538.38
3080.49 3086.07 3092.06 3098.25 3104.82 3112.41 3119.57 3131.75 3145.90 3151.87 3163.52 3171.50 3184.15 3195.29 3210.33 3223.68 3232.96 3229.23 3222.98 3214.15 3208.25 3202.57 3195.97 3191.42 3185.63 3179.66 3174.02 3168.29 3162.22 3156.06 3149.67 3143.39 3137.26 3131.51 3126.32 3121.43 3117.82 3114.27 3110.98 3108.10 3105.59 3103.31 3100.89 3098.41 3096.08 3093.86 3091.39 3089.14 3086.82 3084.47 3082.02 3079.72 3077.02 3074.49 3071.64 3069.14 3066.65 3063.85 3061.29 3058.68 3056.28 3053.68 3051.47 3049.09 3046.80 3044.45 3042.46 3040.26 3038.29 3035.95 3034.30 3032.11 3030.06 3028.16 3026.03 3024.10 3021.91 3019.87 3017.69 3015.97 3014.01 3012.18 3010.26 3008.38 3006.48 3004.63 3002.78 3000.74 2998.97 2996.89 2995.15 2993.41 2991.46 2989.74 2987.87 2986.18 2984.42 2982.68 2980.98 2979.31 2977.61 2975.72 2974.09 2972.46 2970.83 2968.92 2967.24 2965.60 2964.05 2962.39 2960.79 2959.17 2957.76 2956.27 2954.76 2953.12 2951.93 2950.48 2948.97 2947.66 2946.26 2944.79 2943.47 2941.89 2940.56 2939.08 2937.70 2936.22 2934.82 2933.31 2931.78 2930.47 2929.08 2927.58 2926.14 2924.54 2923.09 2921.91 2920.53 2919.24 2918.11 2916.91 2915.93 2915.04 2914.15 2913.40 2912.81 2912.35 2912.02 2911.60 2911.35 2911.01 2910.84 2910.58 2910.47 2910.36 2910.23 2910.12 2909.91 2909.74 2909.52 2909.28 2908.84 2908.34 2907.96 2907.48 2906.90 2906.22 2905.32 2904.41 2903.32 2902.10 2900.78 2899.42 2898.13 2897.35 2895.49 2894.24 2893.90 2893.85 2894.72 2898.83 2905.63 2914.57 2921.07 2923.99 2924.25 2920.29 2914.79 2907.47 2903.71 2900.85 2900.48 2900.34 2895.35 2892.35 2886.30 2884.62 2885.28 2886.88 2890.90 2890.42 2892.85 2894.77 2897.04 2899.19 2901.06 2900.35 2901.16 2902.27 2903.47 2874.49 2862.39 2846.91 2833.02 2836.48 2842.65 2823.55 2814.17 2793.07 2771.09 2741.55 2725.91 2718.35 2709.35 2702.33 2695.71 2690.60 2684.60 2681.02 2675.05 2667.45 2665.21 2660.04 2652.37 2644.76 2637.18 2628.52 2626.81 2623.91 2615.50 2610.32 2609.77 2609.96 2605.46 2599.75 2592.50 2585.25 2572.24 2515.73 2501.68 2512.51 2529.08 2546.19 2517.73 2499.81 2515.62 2525.44 2541.06 2550.30
3082.23 3087.49 3093.30 3099.50 3106.13 3113.00 3119.88 3135.50 3146.06 3150.99 3159.72 3167.56 3177.77 3191.44 3208.93 3226.00 3240.85 3234.46 3224.74 3216.63 3209.86 3204.45 3199.58 3193.85 3186.58 3180.84 3175.16 3169.53 3163.06 3156.99 3150.70 3145.46 3139.60 3133.86 3128.44 3125.36 3121.87 3116.86 3113.05 3110.30 3107.29 3104.75 3102.44 3099.88 3097.56 3095.21 3092.75 3090.55 3088.00 3085.80 3083.41 3080.90 3078.39 3076.04 3073.30 3070.76 3068.11 3065.48 3063.01 3060.23 3058.00 3055.35 3053.15 3050.74 3048.60 3046.40 3044.09 3041.93 3039.99 3037.77 3035.96 3033.80 3031.91 3029.96 3027.79 3025.83 3023.77 3021.85 3019.60 3017.65 3015.79 3013.97 3011.94 3009.94 3008.21 3006.30 3004.47 3002.51 3000.56 2998.75 2996.96 2995.25 2993.27 2991.59 2989.62 2987.91 2986.08 2984.48 2982.86 2981.19 2979.47 2977.70 2976.05 2974.32 2972.71 2970.95 2969.25 2967.55 2965.93 2964.24 2962.74 2961.27 2959.72 2958.34 2956.69 2955.28 2953.76 2952.48 2951.17 2949.94 2948.44 2947.07 2945.74 2944.21 2942.83 2941.47 2940.16 2938.70 2937.19 2935.83 2934.48 2933.08 2931.65 2930.21 2928.72 2927.20 2925.75 2924.55 2923.18 2921.78 2920.47 2919.30 2918.28 2917.29 2916.45 2915.63 2915.06 2914.67 2914.14 2913.95 2913.71 2913.48 2913.29 2913.07 2913.07 2912.98 2913.06 2912.91 2913.04 2912.94 2912.77 2912.73 2912.39 2912.11 2911.91 2911.50 2911.02 2910.47 2909.67 2908.97 2908.10 2907.04 2905.96 2904.84 2903.81 2902.10 2900.69 2900.02 2900.58 2900.88 2901.43 2904.12 2908.16 2921.86 2927.86 2933.01 2935.68 2930.31 2923.59 2916.94 2912.96 2912.56 2910.79 2908.63 2904.18 2902.77 2895.63 2896.23 2897.68 2898.04 2901.65 2902.72 2904.81 2907.73 2909.42 2912.63 2913.80 2914.21 2913.77 2915.07 2895.45 2880.89 2871.47 2856.89 2845.11 2839.38 2821.72 2803.40 2794.03 2779.82 2752.10 2735.97 2724.61 2716.56 2708.70 2700.16 2692.33 2685.63 2678.79 2672.80 2667.72 2661.04 2656.01 2653.25 2646.13 2636.83 2629.84 2620.65 2615.70 2614.50 2610.37 2602.82 2599.87 2600.26 2598.79 2593.05 2587.92 2569.46 2556.96 2517.05 2523.44 2546.57 2557.82 2569.35 2534.81 2521.57 2527.71 2545.27 2553.46 2543.40
3083.93 3090.58 3095.10 3101.00 3107.31 3114.04 3124.69 3135.25 3145.66 3151.77 3157.59 3165.26 3173.37 3186.95 3204.82 3217.72 3243.87 3237.62 3229.65 3219.90 3212.86 3207.33 3202.77 3197.81 3188.58 3182.52 3176.63 3170.51 3164.19 3157.98 3152.09 3146.21 3141.02 3135.63 3131.83 3126.24 3122.54 3119.01 3117.55 3116.04 3108.90 3106.36 3103.84 3101.25 3098.81 3096.53 3094.18 3091.81 3089.33 3087.03 3084.66 3082.31 3079.71 3077.44 3074.73 3072.19 3069.63 3066.97 3064.51 3062.08 3059.63 3057.06 3054.78 3052.35 3050.13 3048.00 3045.88 3043.54 3041.66 3039.62 3037.69 3035.61 3033.68 3031.57 3029.58 3027.79 3025.67 3023.51 3021.53 3019.54 3017.57 3015.80 3013.76 3011.69 3009.91 3008.02 3006.19 3004.34 3002.44 3000.62 2998.74 2996.90 2995.08 2993.49 2991.49 2989.80 2988.03 2986.43 2984.74 2983.08 2981.43 2979.66 2977.96 2976.32 2974.82 2973.00 2971.25 2969.59 2967.97 2966.19 2964.72 2963.24 2961.66 2960.22 2958.76 2957.35 2955.99 2954.61 2953.38 2952.09 2950.71 2949.39 2948.06 2946.70 2945.26 2943.93 2942.69 2941.28 2939.75 2938.47 2937.11 2935.59 2934.26 2932.83 2931.59 2930.07 2928.48 2927.20 2925.89 2924.32 2923.10 2921.82 2920.71 2919.65 2918.80 2918.01 2917.33 2916.90 2916.40 2916.18 2916.05 2915.88 2915.82 2915.76 2915.82 2915.71 2915.80 2915.83 2916.06 2915.97 2916.12 2916.10 2915.92 2915.86 2915.55 2915.35 2915.08 2914.67 2914.15 2913.47 2912.84 2911.78 2910.95 2909.96 2908.47 2907.71 2906.76 2907.14 2907.44 2907.64 2908.43 2910.61 2914.51 2928.74 2935.14 2939.98 2947.78 2943.39 2932.80 2930.87 2929.98 2926.57 2924.57 2919.06 2916.15 2910.40 2908.83 2909.74 2908.12 2907.50 2912.56 2915.32 2918.85 2921.48 2923.01 2925.74 2927.16 2927.89 2920.26 2899.49 2891.96 2874.69 2857.91 2850.15 2833.45 2816.56 2798.34 2786.04 2767.84 2744.03 2733.64 2732.49 2724.75 2716.80 2708.46 2699.32 2691.41 2681.92 2673.20 2666.09 2660.37 2654.48 2645.84 2645.53 2641.11 2632.12 2623.33 2615.15 2608.20 2603.63 2600.73 2595.51 2591.33 2591.15 2590.61 2585.36 2580.89 2575.74 2548.64 2535.96 2555.11 2563.38 2567.53 2565.70 2558.19 2542.69 2553.94 2555.52 2547.56 2537.88
3087.08 3093.00 3097.42 3102.85 3108.89 3115.26 3127.14 3137.27 3145.46 3150.66 3157.25 3163.84 3171.12 3182.50 3199.26 3213.89 3229.72 3242.48 3236.25 3226.21 3218.25 3212.11 3207.81 3200.56 3190.91 3184.76 3178.62 3172.35 3165.90 3159.77 3153.80 3148.19 3143.77 3140.18 3133.83 3129.61 3125.18 3121.63 3118.82 3116.76 3113.54 3107.83 3105.39 3102.60 3100.20 3097.82 3095.39 3093.11 3090.61 3088.26 3085.90 3083.64 3081.16 3078.73 3076.18 3073.66 3071.14 3068.55 3066.16 3063.61 3061.37 3058.98 3056.41 3054.20 3051.80 3049.64 3047.68 3045.41 3043.33 3041.31 3039.47 3037.31 3035.24 3033.47 3031.49 3029.56 3027.37 3025.41 3023.36 3021.42 3019.50 3017.50 3015.45 3013.49 3011.62 3009.62 3008.03 3006.15 3004.17 3002.36 3000.49 2998.75 2997.01 2995.21 2993.38 2991.51 2990.01 2988.25 2986.61 2985.15 2983.55 2981.64 2980.03 2978.31 2976.73 2974.96 2973.30 2971.60 2969.97 2968.15 2966.83 2965.18 2963.88 2962.38 2960.80 2959.42 2958.00 2956.77 2955.47 2954.29 2952.89 2951.84 2950.38 2948.98 2947.74 2946.38 2945.10 2943.71 2942.30 2940.98 2939.63 2938.13 2936.80 2935.49 2933.99 2932.65 2931.22 2929.90 2928.40 2927.01 2925.66 2924.22 2923.21 2922.04 2921.33 2920.32 2919.66 2919.26 2918.92 2918.70 2918.53 2918.39 2918.47 2918.48 2918.54 2918.53 2918.70 2918.72 2918.98 2919.10 2919.20 2919.30 2919.32 2919.35 2919.27 2919.13 2918.98 2918.71 2918.30 2917.88 2917.14 2916.59 2916.17 2915.50 2914.27 2913.64 2913.78 2913.71 2913.56 2914.17 2915.14 2917.42 2923.78 2937.74 2944.13 2952.00 2954.85 2952.69 2948.35 2946.16 2938.42 2937.72 2934.83 2932.54 2927.89 2923.01 2918.82 2922.06 2917.08 2921.62 2923.61 2928.03 2930.51 2934.39 2937.10 2937.30 2931.41 2923.68 2899.25 2887.53 2867.69 2853.87 2828.05 2816.44 2811.21 2796.44 2783.40 2767.44 2747.58 2729.45 2721.61 2730.61 2725.81 2719.82 2711.36 2702.29 2692.31 2682.35 2670.74 2663.09 2655.49 2647.30 2638.36 2635.51 2633.19 2629.10 2620.79 2611.48 2602.69 2595.51 2590.58 2587.03 2583.89 2581.80 2582.44 2575.30 2572.16 2565.33 2546.46 2562.01 2565.77 2565.45 2559.91 2556.56 2560.01 2556.93 2557.94 2550.76 2544.22 2535.58
3089.72 3093.62 3098.90 3104.33 3110.24 3116.60 3133.12 3142.69 3145.20 3150.21 3155.82 3162.16 3168.85 3176.35 3191.23 3209.95 3223.12 3237.50 3243.96 3234.28 3225.70 3216.46 3210.66 3203.59 3193.95 3187.23 3181.11 3174.92 3168.47 3162.26 3156.27 3151.84 3144.97 3140.03 3136.01 3131.38 3127.56 3124.08 3121.08 3119.84 3116.29 3110.20 3106.83 3103.97 3101.72 3099.14 3096.68 3094.22 3091.85 3089.40 3087.12 3084.89 3082.41 3079.96 3077.54 3075.09 3072.63 3070.08 3067.84 3065.20 3062.83 3060.35 3058.13 3055.79 3053.45 3051.35 3049.31 3047.16 3045.31 3043.05 3041.24 3039.13 3037.15 3035.23 3033.34 3031.40 3029.23 3027.36 3025.24 3023.22 3021.34 3019.36 3017.42 3015.22 3013.49 3011.52 3009.91 3007.89 3005.97 3004.18 3002.36 3000.56 2998.84 2996.93 2995.19 2993.62 2991.77 2990.19 2988.57 2987.15 2985.53 2983.52 2981.92 2980.39 2978.72 2977.04 2975.37 2973.60 2971.95 2970.36 2968.84 2967.34 2965.81 2964.54 2963.03 2961.81 2960.20 2958.98 2957.63 2956.58 2955.13 2953.86 2952.60 2951.55 2950.16 2948.93 2947.52 2946.22 2944.78 2943.57 2942.32 2940.75 2939.45 2938.29 2936.81 2935.44 2933.99 2932.56 2931.22 2929.76 2928.39 2927.01 2925.69 2924.67 2923.75 2922.81 2922.10 2921.73 2921.41 2921.31 2921.14 2921.03 2921.20 2921.31 2921.41 2921.39 2921.66 2921.60 2921.91 2922.10 2922.36 2922.62 2922.54 2922.95 2922.97 2922.98 2922.78 2922.71 2922.43 2921.85 2921.96 2921.69 2921.03 2920.44 2919.99 2919.90 2919.77 2919.17 2920.29 2920.95 2922.30 2925.03 2930.18 2948.10 2955.51 2960.55 2960.40 2957.29 2957.06 2955.08 2950.56 2951.45 2949.16 2941.32 2939.30 2936.52 2929.55 2931.75 2932.75 2934.19 2938.26 2940.38 2941.68 2934.73 2927.68 2927.77 2922.46 2898.83 2877.70 2864.31 2851.01 2826.53 2808.65 2798.53 2780.32 2763.12 2756.26 2746.49 2723.46 2710.90 2715.53 2721.32 2728.87 2724.08 2716.76 2706.24 2694.04 2681.32 2671.96 2660.05 2651.84 2643.87 2632.40 2626.36 2622.71 2618.87 2613.80 2606.92 2597.64 2590.94 2584.16 2579.36 2576.35 2573.36 2572.43 2567.34 2564.69 2561.20 2562.44 2559.35 2557.68 2556.92 2551.28 2547.18 2550.69 2552.66 2552.98 2546.38 2539.58 2532.78
3089.75 3094.78 3099.98 3105.31 3111.38 3117.77 3135.28 3138.62 3142.40 3147.53 3153.72 3160.07 3166.49 3173.42 3183.52 3211.67 3221.34 3231.10 3240.57 3242.24 3232.72 3223.55 3214.30 3206.76 3199.38 3190.77 3184.34 3178.08 3171.63 3165.27 3159.27 3153.18 3147.84 3142.76 3138.21 3134.21 3130.21 3126.69 3123.68 3120.14 3116.58 3112.72 3108.82 3105.58 3103.02 3100.39 3097.94 3095.52 3093.01 3090.61 3088.30 3085.94 3083.62 3081.17 3078.79 3076.38 3073.93 3071.43 3069.15 3066.73 3064.46 3062.13 3059.68 3057.42 3055.24 3053.03 3050.92 3048.93 3047.10 3044.95 3042.94 3040.99 3039.08 3037.25 3035.16 3033.19 3031.12 3029.15 3027.17 3025.15 3023.21 3021.21 3019.38 3017.31 3015.40 3013.36 3011.64 3009.66 3007.56 3005.94 3004.05 3002.32 3000.58 2998.83 2997.07 2995.49 2993.70 2992.10 2990.46 2988.95 2987.25 2985.57 2984.06 2982.43 2980.78 2979.12 2977.30 2975.77 2973.95 2972.42 2971.00 2969.33 2968.18 2966.63 2965.17 2963.67 2962.41 2961.08 2959.95 2958.65 2957.43 2956.14 2954.97 2953.92 2952.54 2951.43 2950.06 2948.73 2947.44 2946.21 2944.87 2943.44 2942.13 2940.91 2939.58 2938.12 2936.69 2935.42 2934.02 2932.61 2931.24 2929.75 2928.56 2927.38 2926.39 2925.50 2924.82 2924.32 2924.09 2924.00 2923.85 2923.82 2923.91 2924.16 2924.32 2924.31 2924.55 2924.67 2924.97 2925.15 2925.45 2925.69 2925.98 2926.25 2926.32 2926.44 2926.47 2926.43 2925.94 2926.20 2926.07 2926.10 2925.86 2925.91 2925.72 2925.01 2925.18 2925.97 2927.10 2927.89 2929.27 2932.33 2935.29 2955.12 2962.83 2965.82 2967.04 2967.15 2966.87 2965.05 2964.31 2964.07 2957.17 2958.23 2952.50 2948.96 2941.16 2949.85 2948.58 2942.99 2937.71 2933.43 2927.89 2924.09 2914.04 2918.76 2890.84 2875.37 2866.25 2852.49 2828.74 2807.08 2790.10 2771.41 2753.51 2746.26 2735.23 2724.67 2707.40 2702.60 2704.01 2710.31 2719.28 2715.88 2712.62 2701.34 2691.23 2679.85 2670.46 2657.81 2649.55 2641.85 2633.05 2622.30 2615.86 2608.03 2601.88 2597.16 2591.32 2584.26 2576.88 2572.43 2568.73 2565.78 2563.91 2560.52 2556.19 2552.67 2553.17 2547.84 2545.46 2545.20 2542.24 2538.91 2540.53 2543.84 2545.22 2542.65 2535.34 2529.12
3090.29 3095.28 3101.86 3106.21 3112.12 3121.25 3131.52 3136.28 3140.17 3146.58 3151.24 3157.36 3163.81 3170.04 3177.23 3197.77 3216.20 3224.05 3231.52 3239.31 3238.36 3230.92 3221.03 3213.38 3203.65 3194.91 3188.24 3181.90 3175.29 3169.08 3162.73 3157.11 3151.08 3146.04 3141.51 3137.10 3133.17 3129.24 3125.59 3122.31 3118.45 3114.97 3110.93 3107.34 3104.53 3101.90 3099.27 3096.86 3094.31 3091.89 3089.51 3087.07 3084.69 3082.50 3079.94 3077.69 3075.17 3072.92 3070.56 3068.12 3065.88 3063.53 3061.40 3059.13 3056.98 3054.94 3052.77 3050.96 3048.69 3046.71 3044.79 3042.93 3040.87 3038.97 3037.08 3035.07 3033.06 3031.15 3029.02 3027.01 3025.11 3023.02 3021.34 3019.39 3017.26 3015.32 3013.58 3011.58 3009.39 3007.62 3005.84 3003.98 3002.53 3000.74 2998.99 2997.43 2995.63 2994.01 2992.45 2990.98 2989.23 2987.66 2986.08 2984.45 2982.87 2981.17 2979.56 2977.85 2976.05 2974.57 2973.10 2971.49 2970.11 2968.78 2967.19 2966.00 2964.62 2963.41 2961.96 2960.97 2959.51 2958.28 2957.21 2956.18 2954.98 2953.67 2952.54 2951.29 2949.96 2948.81 2947.54 2946.13 2944.83 2943.56 2942.33 2940.93 2939.62 2938.18 2936.95 2935.50 2934.10 2932.85 2931.48 2930.36 2929.34 2928.45 2927.68 2927.10 2926.71 2926.69 2926.81 2926.72 2926.77 2926.88 2927.13 2927.25 2927.50 2927.71 2927.83 2928.16 2928.42 2928.76 2929.04 2929.42 2929.67 2929.98 2930.01 2930.08 2930.28 2930.40 2930.76 2930.89 2931.17 2931.28 2931.08 2931.25 2931.83 2932.87 2933.80 2934.91 2936.26 2939.87 2951.54 2961.50 2969.30 2972.68 2974.61 2976.14 2976.48 2975.89 2976.33 2976.40 2974.34 2970.79 2967.13 2965.22 2953.94 2947.10 2940.23 2933.14 2927.96 2922.22 2915.65 2913.85 2901.31 2881.61 2874.62 2863.01 2846.12 2828.06 2797.90 2779.89 2762.39 2753.25 2736.05 2724.83 2719.80 2707.12 2697.72 2694.18 2693.50 2704.28 2705.45 2701.23 2701.98 2698.46 2689.93 2679.21 2670.98 2658.87 2649.21 2639.90 2628.69 2620.84 2613.51 2603.52 2591.64 2584.84 2580.41 2575.47 2570.87 2565.86 2561.66 2558.04 2556.35 2553.15 2550.06 2541.20 2538.91 2533.34 2534.09 2536.32 2533.71 2530.88 2532.85 2535.07 2537.04 2537.95 2531.24 2524.58
3090.80 3095.32 3100.59 3106.17 3113.38 3122.01 3129.03 3133.40 3138.83 3145.69 3149.38 3155.36 3161.43 3167.59 3174.02 3188.34 3205.29 3215.21 3228.26 3239.76 3249.06 3242.00 3233.25 3222.05 3213.07 3200.89 3192.98 3186.51 3179.83 3173.46 3167.03 3160.95 3155.23 3150.04 3145.79 3141.10 3136.96 3133.41 3128.83 3124.42 3120.97 3117.18 3113.00 3109.15 3106.15 3103.48 3100.63 3098.17 3095.54 3092.91 3090.48 3088.14 3085.82 3083.45 3081.09 3078.83 3076.40 3074.21 3071.76 3069.68 3067.42 3065.10 3062.86 3060.77 3058.66 3056.67 3054.53 3052.64 3050.59 3048.66 3046.75 3044.75 3042.89 3040.95 3039.04 3037.07 3035.09 3033.14 3031.23 3029.07 3027.18 3025.06 3023.19 3021.10 3019.21 3017.28 3015.48 3013.46 3011.36 3009.55 3007.65 3005.74 3004.18 3002.47 3000.87 2999.21 2997.58 2995.82 2994.32 2992.79 2991.22 2989.52 2988.14 2986.55 2985.02 2983.35 2981.60 2979.99 2978.32 2976.65 2975.18 2973.63 2972.36 2970.96 2969.62 2968.20 2966.87 2965.53 2964.30 2963.14 2961.80 2960.54 2959.54 2958.44 2957.22 2956.11 2954.92 2953.91 2952.59 2951.43 2950.28 2948.86 2947.66 2946.36 2945.20 2943.77 2942.55 2941.17 2939.81 2938.63 2937.23 2935.97 2934.62 2933.37 2932.38 2931.41 2930.73 2930.09 2929.70 2929.58 2929.66 2929.62 2929.70 2929.81 2930.13 2930.16 2930.42 2930.54 2930.80 2931.07 2931.34 2931.76 2932.07 2932.61 2932.90 2933.22 2933.07 2933.89 2934.22 2935.01 2935.42 2936.02 2936.20 2936.74 2936.97 2937.59 2938.18 2938.70 2940.31 2941.44 2943.45 2946.89 2953.67 2967.37 2975.23 2979.34 2982.46 2984.64 2987.45 2989.02 2988.69 2980.81 2975.61 2969.32 2963.27 2954.60 2949.79 2937.09 2931.50 2923.59 2918.66 2913.53 2906.20 2899.52 2882.45 2866.92 2851.15 2840.97 2820.95 2796.80 2771.96 2755.63 2747.88 2745.00 2720.51 2712.25 2704.88 2698.15 2690.64 2686.62 2684.11 2689.76 2687.78 2689.60 2690.38 2688.14 2683.22 2675.85 2670.36 2656.89 2648.89 2638.13 2628.01 2619.46 2608.93 2596.36 2586.14 2580.07 2574.84 2569.98 2566.42 2560.91 2554.67 2552.18 2549.41 2546.33 2542.00 2534.70 2521.82 2521.58 2525.47 2525.56 2525.00 2522.28 2525.22 2526.79 2527.36 2528.47 2525.62 2519.45
3089.93 3094.84 3101.23 3106.26 3111.84 3120.94 3125.65 3130.27 3135.93 3142.07 3147.80 3153.76 3159.58 3165.50 3172.01 3179.33 3196.61 3216.81 3231.52 3243.10 3260.89 3254.25 3241.45 3232.37 3222.64 3213.04 3202.67 3192.09 3185.31 3178.44 3171.86 3165.42 3159.77 3154.77 3151.34 3146.45 3141.88 3136.72 3132.40 3127.64 3123.63 3119.79 3115.60 3111.37 3108.11 3104.98 3102.04 3099.36 3096.74 3094.14 3091.59 3089.22 3086.95 3084.71 3082.18 3079.88 3077.54 3075.27 3073.03 3070.70 3068.75 3066.40 3064.43 3062.27 3060.38 3058.27 3056.31 3054.50 3052.51 3050.54 3048.61 3046.80 3044.83 3042.97 3041.00 3039.02 3037.06 3035.07 3033.11 3031.03 3029.07 3027.01 3025.15 3023.13 3021.21 3019.26 3017.43 3015.36 3013.22 3011.52 3009.55 3007.54 3005.91 3004.18 3002.55 3001.12 2999.34 2997.79 2996.18 2994.74 2993.09 2991.62 2990.08 2988.72 2987.24 2985.29 2983.67 2982.03 2980.47 2978.90 2977.34 2975.87 2974.58 2973.09 2971.60 2970.42 2969.09 2967.88 2966.59 2965.51 2964.13 2963.00 2961.85 2960.89 2959.55 2958.40 2957.50 2956.28 2955.20 2953.87 2952.85 2951.61 2950.55 2949.17 2948.05 2946.70 2945.52 2944.27 2942.98 2941.92 2940.53 2939.23 2937.86 2936.67 2935.78 2934.72 2933.82 2933.15 2932.64 2932.47 2932.59 2932.56 2932.65 2933.02 2933.25 2933.36 2933.49 2933.55 2933.86 2933.97 2934.32 2934.82 2935.21 2935.63 2935.97 2936.43 2936.87 2937.57 2938.30 2939.27 2940.09 2941.06 2941.34 2941.98 2942.68 2943.42 2944.37 2945.74 2946.94 2948.67 2950.91 2954.16 2966.13 2974.56 2981.19 2986.40 2990.46 2993.68 2997.48 2990.01 2984.25 2977.10 2969.56 2962.20 2954.04 2945.96 2937.97 2933.79 2921.05 2915.99 2908.58 2901.23 2892.70 2885.29 2866.46 2845.66 2831.99 2798.49 2792.82 2766.75 2754.61 2743.17 2736.54 2721.66 2710.75 2701.77 2695.23 2688.26 2683.88 2677.94 2674.18 2677.61 2674.14 2675.92 2675.80 2674.67 2673.75 2669.38 2664.63 2649.98 2641.89 2632.74 2623.60 2614.14 2605.51 2594.39 2582.76 2575.62 2570.15 2565.94 2558.79 2556.48 2550.10 2545.52 2540.10 2537.01 2534.73 2526.27 2513.57 2510.55 2515.83 2513.05 2512.97 2512.85 2515.99 2518.79 2517.54 2517.26 2516.65 2513.14
3089.73 3095.09 3100.05 3105.79 3111.30 3117.71 3123.29 3129.32 3135.18 3141.02 3146.70 3152.15 3157.72 3163.31 3169.60 3176.68 3188.41 3211.82 3230.44 3244.60 3255.34 3261.17 3250.75 3239.28 3228.82 3221.77 3215.69 3205.86 3193.94 3187.29 3176.55 3170.20 3164.56 3161.57 3157.25 3151.93 3146.65 3140.16 3135.42 3131.02 3126.89 3122.87 3118.50 3114.16 3110.34 3107.03 3103.78 3100.97 3097.87 3095.20 3092.64 3090.32 3087.88 3085.54 3083.18 3080.99 3078.57 3076.51 3074.25 3072.11 3069.92 3067.78 3065.79 3063.74 3061.84 3059.98 3058.15 3056.51 3054.54 3052.61 3050.60 3048.82 3047.01 3045.16 3043.10 3041.14 3039.23 3037.10 3035.15 3033.12 3031.03 3029.01 3027.06 3025.18 3023.28 3021.29 3019.48 3017.59 3015.29 3013.45 3011.53 3009.61 3007.70 3006.16 3004.44 3002.84 3001.16 2999.67 2998.05 2996.69 2995.26 2993.65 2992.17 2990.72 2989.10 2987.63 2985.85 2984.33 2982.58 2981.01 2979.48 2978.05 2976.72 2975.37 2973.97 2972.78 2971.40 2970.16 2968.85 2967.81 2966.57 2965.47 2964.40 2963.20 2962.02 2961.00 2960.00 2958.87 2957.85 2956.72 2955.69 2954.49 2953.34 2952.16 2951.15 2949.73 2948.55 2947.36 2946.07 2945.13 2943.76 2942.66 2941.20 2940.06 2939.11 2938.13 2937.13 2936.44 2935.84 2935.51 2935.55 2935.64 2935.72 2936.25 2936.67 2936.75 2936.93 2936.72 2936.71 2937.00 2937.48 2937.81 2938.27 2938.80 2939.35 2940.09 2940.84 2941.62 2942.48 2943.47 2944.44 2945.33 2946.34 2946.79 2948.26 2949.20 2950.59 2951.94 2953.56 2955.86 2957.93 2962.26 2974.17 2982.21 2988.12 2994.49 2998.45 3001.70 2992.65 2984.26 2977.08 2970.07 2961.08 2950.58 2945.20 2936.82 2929.67 2921.72 2915.00 2907.53 2899.93 2891.53 2878.65 2858.23 2812.06 2801.37 2791.01 2781.93 2772.20 2759.94 2747.38 2737.31 2727.08 2715.18 2704.61 2697.10 2688.06 2680.38 2675.24 2667.31 2665.98 2666.25 2662.64 2664.48 2662.85 2662.52 2662.57 2658.60 2656.00 2648.41 2636.89 2627.54 2619.52 2607.20 2598.33 2589.76 2579.73 2571.18 2565.26 2559.87 2555.56 2550.59 2545.70 2536.16 2529.27 2524.14 2520.43 2516.64 2505.75 2499.99 2504.32 2501.04 2500.98 2500.63 2507.52 2510.16 2507.02 2502.94 2507.87 2500.99
3089.79 3094.43 3100.42 3105.31 3110.87 3116.90 3122.45 3128.36 3134.16 3139.87 3145.46 3151.00 3156.59 3162.22 3168.40 3175.23 3183.31 3205.48 3228.57 3241.87 3252.25 3266.34 3257.86 3248.67 3238.50 3231.72 3224.71 3216.65 3206.21 3196.56 3182.82 3175.17 3170.15 3167.47 3162.72 3156.16 3149.38 3143.91 3139.32 3135.07 3130.71 3126.35 3121.72 3117.10 3113.10 3109.22 3105.72 3102.65 3099.46 3096.91 3093.84 3091.49 3088.92 3086.55 3084.26 3082.04 3079.67 3077.53 3075.27 3072.98 3071.11 3068.96 3066.99 3065.10 3063.33 3061.60 3059.96 3058.19 3056.62 3054.65 3052.86 3051.09 3049.36 3047.37 3045.46 3043.42 3041.31 3039.28 3037.38 3035.21 3033.13 3031.03 3029.16 3027.35 3025.26 3023.36 3021.57 3019.63 3017.61 3015.59 3013.51 3011.45 3009.62 3007.80 3006.09 3004.71 3003.09 3001.64 2999.85 2998.53 2997.04 2995.77 2994.34 2992.87 2991.41 2989.73 2988.01 2986.42 2984.83 2983.39 2981.78 2980.29 2979.01 2977.64 2976.27 2974.93 2973.79 2972.57 2971.42 2970.10 2968.92 2967.77 2966.75 2965.70 2964.63 2963.68 2962.55 2961.41 2960.48 2959.37 2958.55 2957.44 2956.35 2955.10 2953.97 2952.83 2951.81 2950.52 2949.34 2948.36 2947.03 2945.97 2944.76 2943.58 2942.35 2941.48 2940.82 2939.77 2939.33 2938.74 2938.57 2938.56 2938.91 2939.52 2939.97 2940.22 2940.23 2939.93 2939.75 2940.10 2940.64 2941.17 2941.75 2942.15 2942.76 2943.53 2944.65 2945.30 2946.62 2947.45 2948.72 2949.72 2951.19 2952.16 2953.96 2955.74 2956.77 2958.54 2960.60 2963.01 2966.14 2971.10 2983.45 2990.88 2999.08 3006.10 3004.97 2993.91 2986.18 2978.92 2972.02 2961.91 2952.88 2943.33 2936.56 2930.52 2921.96 2914.00 2906.07 2900.78 2886.74 2871.20 2852.42 2841.10 2814.10 2799.52 2782.48 2770.85 2761.88 2751.63 2744.63 2732.43 2722.25 2712.81 2704.33 2694.37 2682.95 2674.13 2667.18 2660.01 2657.98 2655.52 2652.69 2653.29 2651.80 2651.91 2653.40 2649.26 2647.74 2642.64 2635.04 2625.42 2616.35 2607.22 2595.52 2586.12 2576.91 2567.92 2560.99 2554.97 2549.58 2542.91 2534.10 2528.86 2519.73 2514.19 2509.57 2505.07 2498.53 2490.56 2488.80 2488.45 2490.17 2489.78 2500.33 2496.83 2493.34 2488.72 2492.49 2488.76
3088.30 3093.68 3099.01 3104.71 3110.26 3116.00 3121.83 3127.68 3133.38 3139.11 3144.78 3150.44 3156.01 3161.71 3168.01 3175.07 3182.57 3196.37 3225.58 3238.73 3251.01 3259.94 3270.05 3257.68 3248.88 3240.72 3231.27 3224.26 3211.41 3203.10 3193.11 3181.21 3175.44 3170.85 3164.01 3158.04 3153.26 3148.35 3143.93 3139.72 3135.29 3130.70 3125.97 3120.88 3116.31 3112.24 3108.31 3104.74 3101.27 3098.24 3095.26 3092.52 3090.14 3087.69 3085.34 3082.92 3080.67 3078.47 3076.24 3073.95 3072.02 3069.83 3068.00 3066.40 3064.79 3063.20 3061.55 3060.15 3058.58 3056.81 3055.07 3053.39 3051.70 3049.75 3047.67 3045.65 3043.71 3041.62 3039.54 3037.41 3035.37 3033.06 3031.22 3029.20 3027.45 3025.45 3023.60 3021.81 3019.75 3018.06 3015.72 3013.54 3011.57 3009.94 3007.89 3006.43 3005.00 3003.24 3001.89 3000.42 2999.19 2997.71 2996.29 2995.02 2993.41 2991.88 2990.25 2988.73 2987.01 2985.45 2984.09 2982.54 2981.21 2979.90 2978.62 2977.24 2976.10 2974.99 2973.80 2972.68 2971.57 2970.44 2969.19 2968.17 2967.08 2966.21 2965.21 2964.17 2963.19 2962.15 2961.11 2960.28 2959.22 2958.05 2957.20 2956.01 2954.87 2953.91 2952.71 2951.58 2950.51 2949.48 2948.16 2947.08 2946.19 2945.13 2944.21 2943.24 2942.60 2942.12 2941.87 2941.83 2942.15 2942.53 2942.99 2943.18 2943.30 2943.24 2943.05 2943.39 2944.07 2944.78 2945.37 2946.00 2946.60 2947.49 2948.50 2949.43 2950.50 2951.90 2953.45 2954.97 2958.41 2961.04 2962.21 2962.61 2964.84 2966.56 2968.39 2971.62 2976.04 2986.59 2993.88 3006.09 3011.24 3009.09 2999.49 2989.41 2980.02 2972.07 2963.75 2954.78 2944.52 2936.32 2928.97 2924.16 2916.46 2909.27 2900.24 2889.00 2883.37 2875.19 2862.52 2848.83 2820.74 2802.26 2783.87 2770.95 2757.09 2745.86 2740.78 2730.17 2719.54 2709.83 2701.85 2693.60 2682.64 2673.80 2663.76 2655.43 2648.54 2645.47 2642.46 2642.82 2641.40 2642.02 2644.96 2640.70 2638.42 2634.43 2629.50 2623.06 2614.30 2602.70 2591.50 2581.73 2573.01 2564.80 2557.98 2549.76 2541.63 2532.99 2526.13 2519.67 2512.52 2506.07 2498.42 2492.76 2490.04 2483.61 2478.22 2478.25 2480.47 2481.36 2488.87 2487.16 2480.82 2474.01 2469.60 2477.03
3088.39 3093.71 3099.25 3105.33 3110.44 3116.51 3122.01 3127.62 3133.23 3138.76 3144.42 3149.75 3155.57 3161.55 3167.92 3174.71 3182.07 3198.07 3225.85 3235.73 3247.55 3258.21 3270.86 3265.29 3255.75 3248.44 3237.25 3228.52 3218.17 3206.77 3197.00 3188.21 3179.91 3174.05 3168.51 3162.85 3158.08 3153.28 3148.96 3146.73 3144.77 3142.71 3136.76 3132.26 3126.23 3116.35 3111.33 3107.64 3103.71 3100.27 3097.06 3094.04 3091.22 3088.84 3086.29 3084.17 3081.69 3079.35 3077.07 3074.80 3072.74 3070.67 3068.99 3067.62 3066.17 3064.87 3063.31 3062.11 3060.74 3059.16 3057.49 3055.71 3053.97 3052.26 3050.16 3048.16 3046.15 3044.02 3041.94 3039.83 3037.69 3035.38 3033.43 3031.46 3029.46 3027.42 3025.68 3023.87 3022.05 3020.20 3018.03 3015.86 3013.75 3011.82 3009.79 3008.44 3006.71 3005.18 3003.67 3002.21 3001.05 2999.70 2998.41 2997.00 2995.67 2994.24 2992.42 2990.93 2989.28 2987.81 2986.42 2984.97 2983.45 2982.22 2981.01 2979.83 2978.52 2977.48 2976.36 2975.26 2974.07 2972.94 2971.85 2970.79 2969.57 2968.65 2967.79 2966.78 2965.92 2964.91 2963.87 2963.01 2962.12 2960.96 2960.07 2959.07 2958.22 2957.14 2956.10 2954.96 2953.93 2952.85 2951.58 2950.65 2949.60 2948.71 2947.73 2946.72 2945.94 2945.46 2945.07 2944.97 2945.36 2945.54 2945.77 2946.01 2946.10 2946.26 2946.35 2946.88 2947.68 2948.54 2949.17 2949.89 2950.64 2951.65 2952.40 2953.42 2954.82 2956.41 2960.32 2963.56 2968.06 2972.93 2974.12 2973.58 2973.41 2975.02 2977.19 2981.80 2990.04 2996.44 3003.23 3011.66 3013.21 3005.52 2993.54 2983.66 2974.32 2964.40 2956.98 2948.21 2940.49 2931.43 2922.49 2915.28 2910.00 2902.57 2892.26 2883.05 2874.92 2867.46 2858.36 2843.27 2821.54 2804.75 2785.99 2770.08 2753.70 2740.69 2733.39 2723.39 2713.91 2706.45 2698.13 2687.87 2678.14 2666.31 2655.02 2647.12 2642.69 2633.77 2632.82 2631.81 2630.74 2630.81 2633.87 2630.96 2629.41 2628.02 2622.35 2617.11 2610.12 2600.16 2590.60 2579.55 2570.42 2560.87 2552.81 2545.74 2538.17 2527.23 2518.74 2509.55 2499.67 2496.31 2487.16 2482.83 2479.50 2477.03 2469.42 2468.22 2471.18 2473.06 2478.40 2473.99 2465.62 2454.10 2459.75 2466.89
3087.92 3095.42 3100.81 3107.89 3113.06 3118.12 3122.25 3127.78 3133.31 3138.69 3144.21 3149.70 3155.49 3161.63 3168.04 3174.91 3182.88 3198.30 3221.02 3235.72 3244.55 3256.85 3268.75 3265.41 3258.53 3251.24 3246.42 3233.76 3222.65 3212.51 3203.08 3195.23 3189.72 3185.01 3174.20 3169.12 3163.31 3159.37 3154.70 3152.27 3150.03 3147.77 3144.73 3139.81 3134.49 3129.18 3121.67 3115.78 3110.58 3103.46 3099.49 3095.94 3092.81 3090.14 3087.51 3085.12 3082.86 3080.46 3078.00 3075.43 3073.26 3071.20 3069.78 3068.64 3067.45 3066.46 3065.09 3063.82 3062.79 3061.16 3059.86 3058.27 3056.61 3054.97 3052.96 3050.85 3048.87 3046.74 3044.57 3042.38 3040.06 3037.79 3035.65 3033.54 3031.46 3029.53 3027.69 3026.02 3024.16 3022.65 3020.73 3018.58 3016.33 3014.15 3012.15 3010.36 3008.68 3007.10 3005.45 3004.00 3002.91 3001.66 3000.44 2999.11 2997.97 2996.38 2994.67 2993.20 2991.53 2990.10 2988.72 2987.38 2985.93 2984.71 2983.42 2982.32 2981.13 2979.91 2978.89 2977.81 2976.68 2975.61 2974.53 2973.46 2972.27 2971.31 2970.40 2969.61 2968.74 2967.73 2966.70 2965.81 2964.95 2963.87 2963.16 2962.20 2961.25 2960.24 2959.38 2958.41 2957.39 2956.33 2955.21 2954.12 2952.93 2952.13 2951.24 2950.27 2949.45 2948.68 2948.26 2948.27 2948.52 2948.65 2948.62 2948.56 2949.13 2949.76 2950.01 2950.57 2951.75 2952.61 2953.25 2954.09 2954.82 2955.76 2956.45 2957.85 2961.41 2968.44 2974.41 2978.07 2980.70 2983.45 2986.26 2988.72 2987.06 2987.70 2987.95 2993.12 2998.71 3005.21 3013.48 3018.49 3008.88 2999.68 2969.85 2979.30 2969.07 2959.41 2951.63 2942.99 2933.12 2927.85 2919.93 2910.26 2899.65 2891.43 2883.95 2875.10 2866.48 2858.56 2849.91 2835.74 2816.97 2797.73 2781.52 2759.30 2743.65 2740.32 2723.47 2715.18 2708.15 2702.84 2692.09 2682.44 2672.32 2661.20 2653.69 2644.99 2636.69 2630.17 2624.90 2620.10 2616.17 2618.73 2621.26 2619.92 2619.83 2620.28 2615.62 2610.26 2603.49 2596.66 2586.97 2577.80 2567.94 2559.70 2549.53 2541.33 2532.24 2522.99 2513.11 2499.38 2490.89 2483.06 2478.58 2471.33 2469.02 2469.40 2461.38 2458.40 2461.03 2466.52 2470.39 2458.28 2451.83 2443.04 2450.04 2455.31
3089.69 3095.77 3101.29 3107.04 3114.21 3117.01 3121.96 3127.64 3133.47 3138.93 3144.28 3149.78 3155.35 3161.49 3168.18 3174.87 3183.33 3197.13 3218.32 3230.39 3241.88 3254.56 3270.46 3259.91 3250.44 3244.43 3238.76 3234.45 3229.16 3219.12 3212.43 3206.04 3198.21 3191.76 3189.94 3182.24 3174.96 3169.23 3162.89 3158.89 3154.23 3151.04 3147.96 3144.40 3138.54 3132.99 3126.10 3120.20 3115.83 3109.30 3106.80 3103.32 3098.00 3094.25 3089.29 3086.66 3083.98 3081.74 3079.00 3076.46 3073.67 3071.63 3070.24 3069.40 3068.76 3067.93 3066.61 3065.43 3064.47 3063.58 3062.27 3060.93 3059.25 3057.47 3055.73 3053.73 3051.67 3049.62 3047.49 3045.25 3042.84 3040.41 3038.15 3035.71 3033.75 3031.74 3030.06 3027.88 3026.21 3024.67 3023.34 3021.82 3020.44 3016.92 3016.65 3013.68 3010.59 3008.90 3007.28 3005.78 3004.84 3003.56 3002.41 3001.35 3000.05 2998.61 2997.15 2995.46 2994.01 2992.53 2991.04 2989.68 2988.29 2987.15 2985.89 2984.77 2983.65 2982.53 2981.51 2980.54 2979.50 2978.28 2977.23 2976.13 2975.13 2974.02 2973.16 2972.13 2971.29 2970.47 2969.61 2968.78 2967.89 2967.04 2966.33 2965.25 2964.45 2963.57 2962.47 2961.74 2960.71 2959.74 2958.61 2957.55 2956.56 2955.58 2954.53 2953.53 2952.80 2952.08 2951.64 2951.45 2951.47 2951.58 2951.58 2951.84 2952.42 2953.22 2953.57 2954.07 2955.45 2956.55 2957.42 2958.15 2959.11 2959.98 2961.48 2965.06 2973.56 2980.34 2985.43 2989.49 2992.02 2993.63 2998.16 2998.01 2998.27 2998.46 2999.92 3003.74 3010.61 3015.33 3021.40 3016.16 2986.15 2951.68 2959.68 2970.45 2965.60 2955.53 2946.66 2937.78 2929.18 2919.81 2911.98 2902.13 2893.92 2884.32 2874.66 2866.37 2858.36 2843.70 2837.87 2832.86 2788.12 2772.12 2747.89 2731.35 2733.64 2717.95 2712.41 2703.75 2698.55 2695.28 2688.69 2678.54 2671.25 2663.67 2655.00 2643.23 2635.41 2626.99 2619.43 2611.80 2608.44 2605.44 2606.21 2608.42 2608.61 2608.86 2606.42 2601.81 2594.55 2588.10 2582.81 2574.93 2566.64 2556.11 2545.85 2536.30 2528.34 2518.61 2504.35 2491.42 2481.84 2474.48 2467.42 2462.36 2459.52 2459.14 2454.57 2447.97 2449.31 2459.72 2458.25 2446.29 2436.22 2430.38 2438.01 2443.73
3092.78 3096.10 3100.42 3105.25 3110.59 3116.13 3121.68 3127.26 3132.89 3138.42 3143.87 3149.45 3155.26 3161.23 3167.55 3174.22 3181.96 3200.54 3221.37 3234.10 3245.75 3256.44 3268.84 3256.33 3245.88 3236.49 3230.50 3225.61 3224.09 3219.48 3215.71 3210.83 3199.26 3192.48 3181.24 3179.85 3171.66 3168.90 3169.85 3151.70 3144.93 3137.92 3140.37 3138.98 3128.94 3120.07 3118.11 3118.17 3111.69 3107.87 3109.44 3097.51 3100.37 3093.27 3089.03 3089.78 3087.31 3084.02 3083.85 3076.37 3075.10 3071.95 3069.66 3069.79 3069.92 3069.37 3068.11 3066.33 3065.30 3065.66 3064.94 3063.81 3062.11 3060.45 3058.78 3056.73 3054.84 3052.81 3050.54 3048.33 3045.85 3043.19 3040.67 3038.15 3035.85 3033.81 3032.13 3030.25 3028.53 3026.90 3025.51 3024.83 3024.65 3021.60 3020.31 3016.47 3014.66 3013.04 3010.42 3007.49 3006.34 3005.25 3004.47 3003.59 3002.27 3000.88 2999.35 2998.06 2996.33 2994.95 2993.44 2992.12 2990.78 2989.63 2988.49 2987.47 2986.29 2985.18 2984.14 2983.21 2982.16 2981.13 2980.12 2979.07 2977.88 2976.96 2976.02 2975.20 2974.10 2973.38 2972.46 2971.75 2970.98 2970.03 2969.22 2968.38 2967.56 2966.69 2965.81 2964.88 2963.95 2962.89 2962.07 2961.01 2960.13 2958.96 2958.00 2957.08 2956.21 2955.30 2954.81 2954.53 2954.47 2954.50 2954.83 2955.19 2955.86 2956.76 2957.40 2957.96 2959.07 2960.12 2961.37 2962.34 2963.64 2964.61 2967.49 2976.56 2985.47 2989.89 2995.58 3000.63 3002.90 3006.46 3007.98 3007.43 3008.61 3009.82 3012.24 3016.81 3022.16 3027.70 3021.64 2976.60 2933.71 2941.45 2951.97 2959.99 2962.27 2953.35 2944.09 2932.92 2922.98 2911.80 2899.08 2892.92 2886.65 2879.00 2868.41 2858.58 2845.73 2820.81 2808.32 2774.97 2765.47 2754.49 2717.45 2722.49 2719.32 2707.44 2700.38 2688.86 2688.96 2694.70 2686.52 2679.08 2675.48 2668.03 2657.91 2644.41 2633.59 2625.21 2617.21 2608.78 2602.95 2597.17 2595.45 2597.14 2597.92 2598.42 2596.52 2592.31 2587.32 2579.16 2573.09 2573.36 2562.45 2553.89 2544.32 2532.82 2524.58 2513.23 2499.30 2486.96 2475.93 2466.65 2457.06 2452.92 2447.56 2445.88 2440.27 2432.79 2438.80 2449.74 2449.60 2435.68 2426.43 2421.55 2428.33 2412.13
3090.44 3095.05 3100.68 3104.81 3109.95 3115.39 3120.88 3126.46 3132.08 3137.81 3143.47 3148.93 3154.47 3160.75 3167.22 3174.04 3182.37 3199.52 3221.68 3234.94 3249.50 3259.83 3267.48 3255.17 3242.65 3232.71 3222.13 3215.15 3214.31 3209.91 3206.79 3203.42 3206.19 3183.56 3172.12 3167.99 3162.02 3154.04 3161.06 3149.66 3132.20 3126.47 3122.82 3124.34 3114.88 3109.47 3106.05 3105.72 3102.94 3094.38 3092.42 3087.05 3085.78 3085.23 3079.60 3081.21 3079.90 3078.11 3079.67 3074.09 3066.86 3063.53 3062.66 3073.45 3071.24 3071.09 3069.79 3065.75 3060.73 3059.30 3062.02 3065.90 3065.05 3063.44 3061.76 3060.04 3058.11 3056.43 3054.14 3051.73 3049.13 3046.42 3043.74 3040.96 3038.27 3035.88 3034.06 3032.87 3032.34 3033.77 3031.58 3029.21 3027.55 3026.01 3025.06 3022.51 3020.62 3018.74 3016.04 3010.88 3007.85 3007.05 3006.34 3005.51 3004.48 3003.07 3001.79 3000.29 2998.77 2997.41 2995.89 2994.61 2993.34 2992.20 2991.08 2989.95 2989.07 2988.05 2987.03 2986.15 2985.06 2984.11 2983.15 2982.03 2980.81 2979.97 2978.90 2978.13 2977.14 2976.36 2975.39 2974.77 2974.05 2973.14 2972.31 2971.34 2970.71 2969.96 2968.88 2968.06 2967.10 2966.22 2965.38 2964.57 2963.64 2962.49 2961.47 2960.66 2959.59 2958.78 2958.21 2957.93 2957.91 2957.84 2958.16 2958.71 2959.40 2960.15 2961.11 2961.92 2963.00 2963.98 2965.46 2966.75 2968.22 2970.00 2977.12 2989.07 2995.94 3001.52 3005.90 3011.50 3014.06 3015.80 3017.52 3018.76 3019.28 3021.99 3026.18 3031.02 3033.50 3027.77 2976.95 2926.64 2924.85 2930.41 2940.71 2952.57 2959.58 2950.80 2940.28 2928.71 2918.91 2905.68 2877.64 2864.71 2866.97 2865.08 2860.34 2833.06 2796.83 2780.68 2766.42 2756.70 2724.39 2695.77 2701.65 2706.98 2694.05 2691.56 2680.84 2676.72 2676.36 2680.36 2681.74 2671.93 2675.50 2667.75 2659.79 2647.01 2633.89 2624.15 2615.25 2606.63 2598.69 2592.19 2587.78 2585.28 2584.14 2585.94 2584.58 2582.71 2579.39 2574.89 2564.10 2558.44 2552.68 2547.97 2538.20 2531.09 2521.52 2512.80 2502.56 2488.83 2474.76 2462.46 2451.12 2439.02 2431.70 2433.00 2423.06 2422.42 2428.50 2437.43 2440.03 2429.52 2420.21 2412.25 2419.60 2403.49
3090.77 3095.44 3099.74 3104.67 3109.29 3114.52 3119.84 3125.62 3130.98 3136.59 3142.57 3148.11 3154.04 3160.71 3167.64 3175.21 3184.51 3201.99 3220.20 3236.18 3249.28 3264.02 3262.93 3252.76 3240.80 3228.84 3219.01 3208.57 3201.82 3200.36 3192.84 3191.53 3190.19 3176.03 3166.20 3158.84 3151.99 3143.11 3138.92 3130.21 3122.76 3118.12 3111.93 3106.80 3103.09 3097.77 3090.57 3088.49 3090.67 3084.38 3079.31 3076.45 3072.75 3074.73 3071.48 3067.16 3068.69 3065.14 3063.54 3053.97 3042.62 3033.33 3044.84 3078.09 3075.27 3073.65 3072.38 3069.57 3064.94 3063.15 3061.12 3060.75 3063.43 3065.41 3064.61 3063.26 3061.79 3059.92 3057.97 3055.58 3053.00 3050.11 3047.28 3044.32 3041.64 3038.93 3038.11 3036.78 3034.79 3030.47 3024.59 3020.85 3016.27 3033.13 3029.47 3027.37 3025.02 3022.79 3020.39 3016.93 3012.61 3009.64 3008.46 3007.69 3006.81 3005.52 3004.23 3002.88 3001.44 3000.01 2998.53 2997.38 2995.92 2994.83 2993.81 2992.91 2991.76 2990.92 2989.77 2988.92 2988.06 2987.12 2985.99 2985.08 2983.95 2982.99 2982.00 2981.15 2980.16 2979.43 2978.45 2977.80 2977.08 2976.24 2975.45 2974.45 2973.82 2973.17 2972.18 2971.26 2970.35 2969.55 2968.78 2967.88 2966.92 2966.05 2965.08 2964.15 2963.24 2962.41 2961.78 2961.59 2961.47 2961.43 2961.78 2962.24 2963.13 2963.85 2965.02 2966.10 2967.00 2968.03 2969.42 2970.88 2972.61 2974.96 2982.05 2991.95 3002.19 3009.30 3012.60 3017.74 3021.96 3025.43 3027.52 3028.59 3030.05 3033.95 3038.46 3035.92 3029.92 2992.94 2923.47 2910.89 2911.79 2920.22 2934.40 2944.47 2940.81 2928.57 2921.19 2924.71 2915.32 2893.74 2852.59 2851.62 2828.31 2814.35 2803.86 2784.22 2771.60 2762.08 2743.66 2710.18 2696.60 2690.46 2680.40 2677.32 2678.28 2668.62 2668.64 2667.82 2664.96 2668.96 2669.39 2659.12 2656.84 2657.45 2657.52 2644.62 2634.06 2623.62 2614.44 2606.12 2597.99 2589.30 2579.67 2574.04 2572.51 2571.33 2571.21 2572.84 2571.75 2565.30 2558.07 2545.76 2538.80 2534.98 2532.83 2526.25 2518.32 2511.86 2501.36 2488.22 2476.59 2460.97 2447.71 2428.97 2421.94 2415.30 2411.56 2415.10 2422.69 2430.54 2430.47 2423.97 2413.96 2404.67 2406.01 2391.46
3090.18 3095.11 3099.65 3104.17 3108.75 3113.93 3119.32 3124.81 3130.34 3136.05 3141.90 3147.93 3154.35 3161.40 3168.75 3176.65 3186.52 3204.61 3219.90 3237.36 3249.71 3263.34 3260.74 3252.22 3239.32 3225.86 3214.95 3205.80 3195.94 3188.06 3184.25 3181.11 3183.57 3171.03 3161.02 3151.35 3143.38 3134.23 3128.32 3123.66 3115.61 3110.56 3100.72 3094.13 3089.40 3084.97 3079.94 3076.02 3077.38 3071.97 3068.55 3069.76 3057.94 3061.95 3058.95 3055.84 3057.02 3052.03 3047.78 3039.00 3025.64 3013.17 3035.15 3058.83 3065.05 3067.89 3070.11 3078.41 3080.51 3083.47 3078.12 3068.39 3069.47 3067.31 3065.49 3064.98 3065.31 3064.06 3062.37 3060.03 3057.57 3055.27 3052.11 3050.97 3043.03 3036.19 3031.30 3025.94 3019.29 3017.60 3012.31 3009.53 3002.36 3025.57 3034.80 3030.83 3023.61 3018.70 3013.27 3008.76 3005.79 3015.28 3012.68 3010.49 3009.54 3008.12 3006.93 3005.49 3004.05 3002.75 3001.16 2999.88 2998.81 2997.60 2996.59 2995.72 2994.75 2993.78 2992.82 2991.95 2991.13 2990.27 2989.26 2988.35 2987.22 2986.15 2985.19 2984.34 2983.34 2982.44 2981.57 2980.88 2980.07 2979.29 2978.53 2977.59 2976.95 2976.04 2975.41 2974.57 2973.57 2972.71 2972.01 2971.24 2970.38 2969.49 2968.74 2967.88 2966.91 2966.02 2965.37 2965.23 2965.15 2965.08 2965.36 2966.36 2966.95 2967.82 2968.80 2970.05 2970.99 2972.26 2973.54 2975.12 2977.19 2980.16 2983.50 2993.26 3004.97 3011.87 3019.43 3023.07 3027.45 3032.22 3035.93 3038.36 3040.78 3041.51 3036.52 3030.71 2949.03 2923.20 2914.00 2900.89 2902.77 2913.10 2926.06 2926.25 2916.62 2897.62 2905.20 2916.80 2911.41 2866.12 2841.55 2827.21 2803.75 2797.30 2781.85 2765.17 2753.89 2736.21 2708.29 2698.89 2690.46 2684.00 2666.65 2660.66 2656.72 2656.28 2659.76 2657.10 2655.56 2656.25 2655.37 2649.04 2645.35 2647.92 2655.86 2644.99 2633.58 2623.07 2614.09 2606.56 2597.94 2589.91 2580.88 2566.38 2560.68 2556.83 2560.28 2569.61 2559.50 2550.24 2541.61 2532.68 2525.68 2520.57 2516.56 2514.45 2508.82 2501.98 2494.34 2481.14 2456.71 2450.75 2434.39 2422.29 2411.16 2404.82 2404.41 2411.55 2422.25 2422.01 2415.28 2410.44 2405.44 2399.14 2385.12 2381.08
3088.84 3093.88 3098.79 3103.39 3107.90 3113.37 3118.77 3124.48 3130.22 3136.25 3142.06 3148.12 3155.45 3162.16 3170.06 3178.83 3192.59 3208.73 3222.36 3234.01 3246.76 3256.10 3251.41 3246.80 3238.18 3229.32 3215.75 3203.01 3193.03 3182.91 3174.32 3170.50 3170.65 3177.68 3160.58 3147.86 3136.61 3129.36 3122.67 3113.81 3104.59 3096.67 3090.27 3084.77 3078.61 3073.02 3072.36 3065.07 3060.71 3061.58 3055.30 3049.00 3037.16 3017.77 3001.75 3029.37 3036.37 3030.11 3023.36 2992.06 2991.02 3025.72 3042.51 3040.86 3047.36 3053.94 3056.68 3045.08 3042.04 3045.17 3062.93 3060.63 3057.96 3057.46 3057.47 3073.98 3073.04 3071.94 3069.48 3068.28 3065.73 3065.46 3037.51 3029.81 3022.40 3021.48 3015.73 3011.38 3006.08 3003.81 3000.38 2997.20 2992.23 2989.14 3007.71 3018.69 3012.12 3006.81 3004.71 2999.92 2999.20 3007.04 3017.60 3015.57 3013.00 3011.24 3009.47 3008.20 3006.84 3005.60 3004.02 3002.60 3001.43 3000.41 2999.37 2998.56 2997.74 2996.92 2995.97 2995.16 2994.47 2993.48 2992.63 2991.59 2990.61 2989.63 2988.67 2987.48 2986.70 2985.71 2984.83 2984.03 2983.23 2982.42 2981.69 2980.88 2980.00 2979.20 2978.53 2977.67 2976.90 2976.02 2975.35 2974.54 2973.80 2973.13 2972.35 2971.50 2970.64 2969.80 2969.20 2968.91 2968.72 2968.84 2969.46 2970.47 2971.01 2972.13 2972.87 2973.81 2975.18 2976.60 2978.00 2979.88 2981.80 2984.50 2987.73 2995.69 3006.10 3012.81 3020.64 3028.10 3032.94 3037.55 3042.78 3044.68 3041.49 3036.61 3029.58 2956.89 2941.91 2915.87 2902.05 2890.78 2896.66 2899.50 2905.53 2902.60 2875.86 2879.84 2880.26 2897.43 2903.55 2829.87 2826.21 2795.06 2781.41 2775.49 2755.44 2743.32 2728.79 2718.49 2703.26 2696.10 2683.28 2669.54 2656.58 2651.94 2647.37 2646.08 2644.77 2645.19 2647.58 2644.14 2641.72 2638.84 2632.08 2636.44 2648.75 2638.81 2634.23 2622.78 2613.86 2604.88 2596.12 2588.20 2579.41 2566.62 2555.58 2547.67 2549.90 2554.81 2540.15 2533.34 2527.97 2517.56 2506.48 2506.14 2498.92 2502.91 2492.92 2488.02 2475.31 2468.89 2450.64 2439.95 2424.48 2414.00 2404.29 2397.76 2398.54 2403.82 2405.79 2400.14 2398.20 2395.83 2393.63 2388.18 2378.32 2369.98
3087.12 3092.28 3097.34 3102.24 3107.79 3114.06 3119.41 3124.29 3130.12 3136.00 3142.12 3148.59 3155.63 3162.99 3171.16 3182.23 3199.63 3210.69 3223.69 3235.21 3249.72 3247.50 3239.55 3237.07 3232.26 3224.96 3212.90 3200.92 3189.72 3180.74 3168.97 3161.11 3159.62 3159.60 3151.38 3144.13 3135.81 3124.28 3114.47 3104.06 3094.60 3087.76 3081.81 3075.13 3068.96 3060.85 3060.01 3055.77 3049.79 3046.84 3035.39 2995.01 2986.02 2974.23 2966.79 2962.39 2966.26 2974.02 2976.03 2970.43 2971.70 3023.62 3007.54 3020.59 3022.91 3030.90 3024.96 3006.45 3024.04 3019.10 3023.10 3019.85 3034.42 3027.97 3036.38 3071.24 3072.59 3073.13 3059.39 3051.72 3047.56 3041.75 3024.23 3015.81 3011.07 3009.46 3004.67 3000.98 2996.48 2992.73 2989.35 2985.60 2981.60 2978.76 2974.04 2984.03 2999.45 2994.55 2989.75 2991.96 2991.07 2999.90 3011.60 3021.28 3018.45 3016.58 3013.16 3011.43 3009.83 3008.58 3007.04 3005.70 3004.40 3003.42 3002.47 3001.77 3001.03 3000.13 2999.32 2998.55 2997.72 2997.12 2996.14 2995.21 2994.26 2993.24 2992.22 2991.08 2990.14 2989.07 2988.13 2987.26 2986.34 2985.67 2984.80 2983.92 2983.15 2982.26 2981.54 2980.87 2980.15 2979.18 2978.62 2978.10 2977.48 2976.82 2976.04 2975.29 2974.47 2973.57 2973.04 2972.74 2972.49 2972.79 2973.59 2974.60 2975.47 2976.48 2977.14 2978.15 2979.58 2981.02 2982.61 2984.37 2986.59 2989.11 2991.70 2998.37 3009.48 3016.37 3022.49 3029.53 3036.31 3041.97 3043.01 3040.21 3036.00 3031.22 3008.55 2955.39 2949.48 2907.68 2886.13 2884.15 2888.53 2886.24 2889.33 2874.67 2864.44 2858.20 2849.29 2840.59 2822.47 2814.51 2816.46 2808.06 2759.69 2747.85 2740.95 2722.74 2711.67 2702.28 2690.62 2684.27 2674.23 2663.23 2652.11 2644.14 2639.43 2636.34 2632.04 2634.17 2633.67 2630.79 2632.53 2628.46 2624.68 2626.13 2627.68 2629.53 2624.50 2621.81 2612.47 2603.04 2594.63 2585.71 2576.97 2566.56 2556.82 2543.23 2533.41 2528.77 2524.00 2520.71 2512.04 2501.26 2486.72 2476.34 2480.09 2476.20 2480.78 2472.26 2457.90 2456.13 2436.40 2432.00 2425.07 2409.15 2401.21 2392.23 2389.07 2390.85 2393.05 2389.98 2389.54 2387.03 2384.39 2376.08 2368.66 2356.64
3084.73 3090.01 3095.30 3100.98 3107.41 3112.79 3118.40 3124.79 3130.69 3136.19 3142.60 3149.25 3156.43 3164.31 3174.79 3189.03 3203.35 3216.36 3232.95 3240.78 3248.85 3241.08 3231.29 3226.68 3225.29 3212.88 3208.73 3201.42 3188.90 3178.06 3167.01 3155.45 3148.84 3152.48 3143.53 3132.58 3123.48 3114.10 3106.08 3097.30 3089.44 3079.91 3071.75 3064.22 3059.38 3049.65 3051.80 3044.19 3020.85 2997.14 2986.75 2975.97 2967.28 2960.50 2956.18 2949.23 2955.13 2962.16 2966.59 2955.13 2959.34 2973.36 2985.76 2994.01 3005.23 2999.17 2990.66 2995.34 3009.25 2998.38 2996.33 2998.99 3002.28 2986.08 2978.57 3059.81 3060.96 3060.99 3045.36 3040.08 3033.54 3026.66 3010.93 3005.00 2999.97 2997.79 2995.46 2990.61 2985.88 2982.81 2979.05 2973.56 2967.26 2964.66 2956.02 2952.90 2961.92 2972.78 2978.06 2979.86 2984.45 2994.47 3004.50 3015.17 3025.96 3023.78 3020.41 3016.86 3014.21 3011.90 3010.19 3008.89 3007.51 3006.57 3005.62 3004.97 3004.28 3003.53 3002.86 3002.27 3001.43 3000.65 2999.81 2998.93 2997.82 2996.97 2995.85 2994.71 2993.74 2992.58 2991.68 2990.71 2989.78 2988.87 2987.84 2987.09 2986.18 2985.40 2984.67 2983.90 2983.30 2982.47 2981.81 2981.40 2980.88 2980.39 2979.78 2979.17 2978.60 2977.89 2977.12 2976.46 2976.48 2978.05 2978.65 2979.14 2980.32 2980.99 2982.15 2983.00 2984.03 2985.60 2987.38 2989.22 2991.54 2993.59 2996.25 3000.58 3009.32 3020.23 3026.61 3033.73 3039.33 3040.60 3037.79 3034.09 3029.52 3012.61 2989.72 2973.63 2942.62 2895.33 2879.32 2873.41 2876.63 2874.48 2868.55 2863.42 2851.66 2830.66 2820.98 2814.36 2805.51 2803.10 2799.80 2785.30 2740.39 2736.39 2726.69 2725.18 2716.69 2706.63 2699.01 2691.54 2687.84 2676.05 2658.66 2645.04 2633.34 2627.03 2623.26 2618.51 2617.47 2621.47 2619.33 2616.87 2616.35 2609.13 2612.13 2614.71 2613.36 2613.35 2611.12 2603.31 2594.12 2585.53 2575.93 2567.33 2555.50 2538.94 2525.74 2511.67 2507.04 2505.40 2493.08 2486.05 2471.67 2460.54 2457.37 2457.61 2463.02 2452.12 2440.79 2432.66 2423.94 2425.07 2409.39 2403.21 2397.08 2390.22 2381.18 2381.78 2383.51 2380.84 2380.02 2379.03 2375.66 2364.65 2355.13 2340.37
3081.97 3087.16 3094.66 3101.53 3105.71 3111.30 3119.06 3122.93 3129.50 3136.00 3142.52 3149.77 3157.20 3166.33 3179.27 3193.47 3206.67 3219.16 3233.85 3248.01 3239.42 3230.61 3223.94 3215.03 3214.86 3203.88 3197.52 3196.07 3185.08 3174.29 3162.01 3148.67 3137.65 3132.77 3127.57 3124.68 3114.78 3106.96 3098.36 3089.52 3081.38 3072.48 3062.57 3053.66 3047.51 3035.24 3018.60 3003.46 2992.42 2980.56 2969.00 2962.18 2956.44 2952.03 2944.22 2939.76 2940.37 2939.00 2944.18 2942.32 2947.38 2948.93 2958.68 2957.43 2955.85 2970.09 2982.78 2996.16 2988.46 2983.05 2980.06 2980.60 2978.13 2967.42 2961.20 3009.39 3043.02 3034.36 3031.09 3025.32 3019.46 3006.76 2999.96 2995.05 2991.18 2986.69 2985.68 2980.25 2976.17 2972.58 2968.37 2959.79 2955.77 2948.84 2945.78 2948.56 2956.16 2964.09 2965.67 2973.59 2979.48 2982.34 2985.46 3006.09 3022.81 3020.39 3016.05 3022.73 3016.75 3015.15 3013.35 3012.35 3010.86 3009.82 3008.99 3008.42 3007.65 3006.99 3006.48 3005.65 3005.22 3004.37 3003.72 3002.74 3001.86 3000.78 2999.69 2998.54 2997.50 2996.34 2995.28 2994.21 2993.24 2992.29 2991.36 2990.43 2989.38 2988.72 2987.80 2987.16 2986.67 2985.84 2985.09 2984.67 2984.37 2983.85 2983.51 2983.01 2982.68 2982.34 2981.96 2982.26 2982.44 2983.18 2984.26 2985.06 2985.32 2986.31 2988.09 2990.18 2990.31 2991.68 2992.97 2994.52 2996.42 2998.82 3001.42 3004.84 3013.92 3021.95 3030.57 3036.98 3037.10 3034.89 3031.81 3028.03 3022.99 3011.25 2995.55 2979.61 2918.44 2897.74 2875.33 2863.86 2868.77 2867.22 2858.85 2838.64 2819.98 2811.83 2807.03 2801.23 2794.19 2790.53 2771.60 2743.08 2733.14 2725.72 2722.88 2725.11 2714.30 2699.68 2694.56 2683.97 2678.83 2657.73 2652.24 2645.08 2634.14 2622.71 2614.46 2609.39 2606.47 2607.28 2605.38 2606.03 2602.48 2595.36 2596.03 2601.55 2603.05 2601.50 2599.74 2599.60 2591.97 2584.31 2576.43 2565.94 2550.15 2535.32 2516.20 2498.33 2490.67 2490.04 2483.56 2471.12 2462.33 2452.12 2445.70 2449.53 2443.91 2435.15 2424.64 2416.18 2411.42 2409.10 2402.87 2396.38 2390.19 2383.80 2375.63 2371.91 2373.44 2369.76 2369.55 2369.21 2368.23 2356.30 2340.35 2330.90
3081.15 3088.92 3094.50 3099.94 3105.10 3110.00 3116.23 3122.77 3129.28 3135.98 3143.01 3150.24 3159.53 3171.10 3183.45 3197.80 3212.25 3223.13 3232.97 3241.37 3231.05 3221.63 3213.97 3205.03 3201.35 3199.46 3187.91 3182.07 3176.64 3173.64 3159.65 3147.87 3134.06 3122.18 3116.42 3111.16 3105.63 3099.84 3091.40 3082.31 3072.56 3061.96 3052.97 3044.22 3026.09 3012.62 3002.52 2983.87 2974.27 2967.33 2959.98 2954.84 2949.27 2940.55 2935.94 2931.60 2929.08 2927.21 2929.11 2934.00 2936.14 2936.18 2933.84 2934.66 2942.48 2951.54 2955.33 2976.33 2976.31 2972.09 2967.62 2962.39 2959.51 2952.28 2951.41 2978.45 3025.79 3023.37 3019.44 3012.90 3004.92 2996.59 2989.05 2985.51 2981.46 2976.81 2975.18 2969.77 2965.05 2960.68 2956.26 2948.03 2942.16 2937.88 2937.64 2943.19 2950.17 2955.68 2960.38 2969.03 2968.61 2962.45 2970.98 2998.84 3007.44 3003.34 3005.13 3010.73 3023.32 3019.26 3017.05 3015.67 3014.36 3013.30 3012.55 3011.89 3011.23 3010.71 3010.12 3009.81 3009.07 3008.36 3007.45 3006.73 3005.96 3004.96 3003.93 3002.69 3001.55 3000.47 2999.10 2998.02 2996.74 2995.81 2994.72 2993.81 2992.66 2991.79 2991.00 2990.35 2989.77 2989.03 2988.60 2988.12 2987.68 2987.45 2987.20 2986.83 2986.71 2986.73 2986.88 2987.15 2987.38 2988.89 2992.23 2990.96 2991.61 2993.12 2997.62 3002.59 3002.67 2998.47 2999.30 3000.47 3002.22 3004.26 3006.94 3010.86 3022.50 3029.20 3035.48 3034.35 3031.73 3028.34 3025.04 3021.08 3017.38 3008.92 3005.67 2972.74 2913.76 2890.55 2869.23 2853.78 2857.32 2855.73 2846.36 2827.99 2809.07 2801.70 2796.93 2791.21 2778.18 2766.62 2746.05 2735.34 2727.37 2721.66 2712.81 2710.92 2709.22 2691.08 2683.58 2676.72 2668.13 2660.32 2643.89 2637.24 2631.30 2622.90 2612.35 2603.27 2598.06 2594.30 2594.88 2592.12 2590.97 2587.39 2587.48 2592.49 2590.80 2591.19 2589.55 2590.08 2582.44 2580.74 2573.15 2558.62 2542.75 2531.02 2511.43 2492.18 2472.36 2471.88 2467.07 2461.93 2451.83 2445.36 2433.53 2431.69 2432.14 2419.77 2413.57 2405.79 2402.52 2400.82 2396.49 2389.87 2383.40 2374.90 2366.54 2359.91 2359.41 2358.24 2358.48 2358.10 2355.97 2345.35 2330.60 2321.13
3079.55 3087.22 3092.11 3096.50 3102.68 3108.89 3115.39 3122.38 3129.81 3136.80 3144.25 3152.26 3164.77 3178.62 3193.97 3201.02 3212.83 3223.39 3235.33 3230.34 3224.87 3215.59 3205.51 3196.89 3188.75 3188.56 3180.06 3171.90 3164.70 3162.21 3157.51 3145.94 3132.08 3118.52 3105.15 3093.62 3090.66 3088.11 3083.03 3072.77 3066.42 3056.01 3039.62 3024.72 3011.99 2997.36 2981.91 2976.02 2967.95 2961.27 2953.44 2948.39 2940.91 2934.48 2928.85 2924.50 2921.65 2920.45 2921.08 2927.43 2927.08 2926.29 2926.32 2926.41 2928.88 2934.88 2953.51 2965.31 2966.42 2961.27 2957.43 2954.53 2950.54 2944.70 2940.38 2962.98 3010.66 3013.28 3007.67 3001.06 2994.30 2987.88 2981.58 2976.26 2971.52 2968.27 2966.19 2959.74 2953.35 2949.17 2943.90 2934.86 2930.57 2929.26 2932.10 2936.90 2942.72 2943.53 2948.16 2951.71 2954.91 2946.35 2964.24 2985.12 2995.61 2991.02 2991.24 3003.65 3027.47 3023.72 3021.34 3019.54 3018.06 3017.00 3016.34 3015.53 3015.16 3014.60 3014.22 3013.72 3013.15 3012.49 3011.76 3011.02 3010.25 3009.26 3008.07 3007.01 3005.90 3004.61 3003.41 3002.02 3000.66 2999.52 2998.36 2997.18 2996.19 2995.12 2994.26 2993.61 2992.98 2992.41 2991.91 2991.46 2991.22 2991.08 2990.91 2990.89 2990.88 2991.07 2991.50 2992.34 2993.18 2994.20 2995.81 2996.70 2997.95 2999.84 3002.80 3007.32 3010.42 3007.70 3006.24 3006.89 3008.09 3010.16 3013.10 3019.59 3029.69 3033.19 3032.05 3028.98 3025.98 3012.14 3006.64 3014.43 3009.90 2994.79 2971.52 2925.09 2907.66 2892.48 2869.32 2848.92 2845.91 2843.54 2831.52 2817.50 2799.16 2792.73 2783.37 2770.83 2759.89 2748.45 2737.04 2726.42 2719.46 2714.61 2707.53 2700.48 2692.06 2688.25 2679.54 2668.90 2661.43 2647.32 2633.83 2627.52 2623.91 2616.64 2607.98 2597.20 2588.89 2584.26 2583.97 2582.93 2580.22 2578.44 2577.56 2582.53 2580.60 2577.54 2575.11 2569.88 2575.48 2573.11 2570.36 2558.00 2535.45 2521.79 2505.49 2486.09 2468.32 2452.75 2449.97 2450.09 2439.51 2429.81 2428.52 2418.14 2411.85 2410.06 2406.14 2401.87 2392.84 2390.59 2387.03 2382.00 2373.89 2363.69 2356.87 2351.27 2347.76 2346.46 2347.20 2344.17 2341.50 2334.50 2317.88 2307.34
3077.82 3083.64 3089.52 3095.49 3101.77 3108.65 3115.93 3124.12 3131.03 3139.02 3146.71 3158.88 3167.71 3178.45 3187.61 3196.82 3206.98 3218.90 3229.26 3219.89 3215.31 3205.23 3197.64 3188.35 3177.97 3174.76 3173.19 3163.76 3152.48 3147.36 3143.16 3138.86 3129.14 3114.74 3102.07 3080.73 3075.89 3072.99 3076.42 3063.40 3052.62 3031.04 3018.59 3003.94 2986.88 2979.07 2973.00 2966.13 2959.08 2952.69 2946.30 2939.82 2934.25 2928.58 2923.85 2919.15 2915.95 2913.76 2913.58 2917.30 2917.71 2918.80 2918.18 2918.93 2920.84 2922.20 2926.09 2938.92 2946.87 2954.75 2949.00 2945.10 2941.46 2935.05 2931.11 2937.93 2952.63 2998.45 2997.80 2993.36 2983.92 2978.60 2973.79 2968.65 2963.79 2959.26 2953.25 2948.49 2941.82 2937.76 2932.68 2926.24 2922.24 2921.59 2925.01 2930.49 2934.20 2937.33 2940.51 2942.48 2939.66 2935.07 2952.11 2974.66 2983.28 2979.87 2981.71 3002.85 3029.44 3028.77 3025.31 3024.80 3022.23 3020.97 3020.20 3019.42 3019.11 3018.67 3018.24 3017.86 3017.46 3016.87 3016.28 3015.41 3014.74 3013.84 3012.64 3011.55 3010.47 3009.21 3007.81 3006.29 3004.85 3003.30 3002.12 3000.82 2999.62 2998.60 2997.68 2996.82 2996.42 2995.77 2995.18 2995.06 2994.57 2994.64 2994.59 2994.75 2994.94 2995.45 2996.18 2997.11 2998.67 3000.30 3001.72 3003.15 3004.35 3005.47 3007.92 3011.76 3015.66 3017.16 3017.28 3014.11 3014.96 3016.90 3019.73 3029.02 3030.01 3028.58 3026.40 3023.25 3019.59 2998.62 2997.02 3004.10 2998.25 2964.22 2953.20 2922.44 2909.63 2896.78 2856.23 2840.34 2827.49 2826.67 2816.02 2803.43 2789.27 2782.62 2777.90 2770.45 2758.37 2743.91 2734.51 2725.35 2715.63 2705.54 2701.95 2694.63 2681.58 2678.67 2676.64 2660.69 2650.17 2643.96 2631.32 2619.50 2612.83 2613.62 2605.30 2589.35 2580.83 2577.84 2577.16 2574.31 2570.37 2570.36 2567.99 2571.99 2573.01 2569.60 2562.66 2562.62 2559.98 2560.43 2562.57 2550.69 2533.18 2513.85 2498.32 2479.57 2460.19 2443.15 2434.98 2429.22 2422.30 2412.32 2416.62 2404.06 2402.19 2401.52 2397.88 2394.09 2387.06 2377.37 2376.93 2372.15 2365.96 2355.01 2346.67 2339.54 2335.22 2332.62 2332.95 2330.12 2327.99 2317.32 2305.28 2290.92
3078.06 3083.93 3090.24 3097.19 3103.91 3113.93 3119.42 3125.95 3133.63 3141.18 3151.21 3161.27 3176.56 3179.61 3190.72 3201.14 3213.06 3223.09 3218.20 3211.56 3203.09 3197.12 3189.53 3182.56 3170.81 3162.97 3161.27 3155.89 3145.57 3135.36 3128.07 3121.63 3103.11 3085.75 3075.21 3064.08 3059.60 3060.94 3061.80 3045.97 3035.36 3003.81 2989.00 2984.46 2971.98 2967.42 2962.61 2957.65 2952.93 2946.44 2940.25 2934.70 2929.31 2924.32 2919.78 2914.94 2910.83 2908.10 2906.88 2907.06 2907.39 2911.19 2912.39 2914.66 2913.52 2914.85 2916.09 2915.94 2915.35 2920.39 2931.79 2931.06 2928.32 2922.63 2916.64 2917.06 2941.08 2978.11 2989.79 2984.83 2974.79 2968.30 2964.19 2959.73 2955.18 2949.77 2942.52 2937.77 2931.98 2927.58 2923.19 2917.26 2914.29 2915.57 2918.51 2925.19 2928.21 2929.00 2933.09 2931.70 2929.05 2927.40 2935.03 2961.51 2970.79 2970.23 2976.58 2997.18 3016.32 3033.74 3031.38 3029.29 3028.15 3026.49 3024.53 3023.74 3023.39 3022.86 3022.59 3022.36 3022.03 3021.68 3021.20 3020.44 3019.73 3018.80 3017.71 3016.62 3015.52 3014.17 3012.41 3011.11 3009.46 3007.78 3006.00 3004.57 3003.18 3002.27 3001.30 3000.29 2999.87 2999.34 2998.86 2998.62 2998.39 2998.41 2998.56 2998.63 2999.14 2999.79 3001.06 3003.03 3004.70 3006.09 3008.01 3010.97 3013.10 3013.62 3016.14 3018.79 3024.88 3027.39 3023.27 3021.51 3021.58 3019.85 3025.37 3025.42 3024.92 3022.56 3019.03 3016.01 3009.59 2990.00 2990.59 2998.07 2982.21 2959.63 2941.49 2919.15 2902.15 2874.14 2854.94 2833.95 2819.32 2803.55 2792.88 2784.92 2782.35 2776.83 2771.71 2767.79 2762.57 2758.98 2732.98 2718.78 2708.60 2698.39 2696.38 2690.02 2679.46 2667.25 2663.40 2652.29 2646.62 2631.15 2615.91 2611.91 2604.96 2603.94 2598.48 2584.08 2576.38 2570.25 2570.15 2568.45 2562.14 2557.84 2559.09 2561.47 2559.79 2556.33 2553.69 2551.36 2549.52 2547.06 2549.56 2540.58 2525.68 2506.25 2490.41 2469.60 2443.46 2431.59 2416.80 2409.42 2400.93 2397.37 2393.56 2394.16 2395.20 2392.77 2388.71 2382.83 2378.29 2369.72 2364.22 2362.09 2356.64 2345.01 2338.02 2330.83 2319.39 2317.17 2316.05 2317.26 2311.46 2307.80 2292.77 2272.83
3079.75 3086.70 3092.70 3098.92 3105.81 3112.85 3119.78 3126.74 3136.77 3145.12 3159.61 3170.87 3177.40 3187.87 3197.27 3209.70 3220.36 3229.18 3220.66 3209.02 3189.78 3182.50 3178.50 3170.33 3165.43 3156.95 3148.65 3148.47 3140.09 3131.64 3120.15 3110.02 3110.99 3101.52 3088.40 3073.32 3046.86 3047.13 3042.70 3036.31 3015.53 2995.23 2976.74 2971.50 2966.43 2961.52 2956.87 2952.66 2947.90 2940.84 2935.06 2930.00 2925.17 2920.48 2915.37 2911.27 2906.99 2903.43 2901.01 2900.33 2900.88 2904.01 2906.29 2908.25 2908.31 2908.94 2908.64 2908.59 2909.82 2908.80 2913.09 2914.71 2913.07 2909.15 2905.08 2904.30 2919.59 2983.28 2980.33 2971.96 2965.77 2960.69 2955.30 2950.21 2945.83 2940.65 2934.07 2927.72 2922.79 2918.48 2915.23 2909.97 2906.71 2911.27 2913.99 2918.86 2922.00 2920.97 2925.71 2923.93 2920.67 2919.86 2919.99 2947.99 2961.61 2961.77 2972.94 2982.30 3017.08 3021.82 3038.31 3035.37 3033.77 3031.97 3029.36 3028.53 3028.51 3027.62 3027.40 3027.22 3027.25 3026.85 3026.54 3025.87 3025.36 3024.53 3023.34 3022.66 3021.08 3019.29 3018.13 3016.26 3014.41 3012.19 3010.28 3008.85 3007.26 3005.91 3004.97 3003.94 3003.45 3002.97 3002.67 3002.24 3002.16 3002.22 3002.44 3002.68 3003.22 3004.02 3005.45 3009.56 3010.69 3013.54 3020.01 3020.12 3026.04 3026.60 3026.24 3025.39 3025.65 3024.84 3023.74 3022.38 3021.83 3021.27 3020.07 3019.11 3017.83 3014.79 3011.85 3008.51 2993.39 2976.59 2984.44 2990.94 2976.77 2970.19 2962.24 2957.76 2899.05 2880.21 2854.21 2824.26 2805.80 2788.05 2780.69 2774.77 2774.40 2770.71 2766.96 2761.84 2758.23 2748.43 2729.90 2719.21 2701.91 2691.81 2688.21 2678.57 2668.55 2656.10 2652.34 2642.47 2630.04 2620.66 2610.34 2602.00 2590.54 2590.55 2589.98 2581.12 2571.67 2562.97 2560.44 2556.40 2552.23 2545.20 2543.12 2552.02 2546.37 2550.56 2546.20 2541.98 2541.28 2535.07 2528.02 2526.37 2517.18 2499.49 2477.42 2452.61 2434.50 2419.94 2409.01 2399.21 2394.68 2389.57 2385.15 2386.93 2387.12 2384.26 2377.78 2368.74 2363.59 2360.73 2352.83 2350.49 2342.48 2337.27 2329.29 2318.65 2305.51 2301.74 2299.98 2299.57 2298.10 2287.51 2271.97 2258.60
3079.03 3086.32 3093.02 3099.65 3105.83 3112.90 3121.06 3131.67 3138.71 3147.39 3158.85 3171.69 3185.38 3193.49 3202.03 3217.74 3228.23 3226.24 3214.97 3204.47 3191.83 3180.94 3167.73 3159.46 3154.22 3148.88 3140.36 3138.16 3133.29 3124.44 3114.02 3105.16 3094.54 3093.31 3088.41 3084.29 3061.26 3032.62 3026.83 3023.30 3001.95 2985.52 2973.62 2967.79 2962.41 2956.99 2951.90 2947.89 2944.50 2937.47 2931.02 2927.32 2921.05 2918.57 2915.98 2907.05 2902.89 2899.30 2896.43 2894.91 2895.60 2899.45 2900.09 2901.99 2903.75 2902.42 2901.05 2900.75 2898.39 2896.58 2900.50 2900.64 2900.35 2897.21 2896.38 2897.01 2903.33 2975.47 2970.85 2963.85 2958.14 2952.19 2946.77 2941.38 2936.08 2930.10 2922.57 2916.97 2912.05 2909.91 2905.96 2900.87 2900.11 2904.24 2909.19 2915.86 2916.29 2914.00 2918.88 2916.24 2913.18 2913.00 2913.50 2931.32 2948.02 2952.58 2963.64 2982.41 2996.87 3008.82 3029.99 3042.28 3040.87 3038.47 3037.07 3035.79 3035.33 3033.69 3033.88 3033.97 3034.58 3035.04 3035.52 3035.22 3032.50 3034.93 3033.58 3028.74 3027.90 3026.33 3024.34 3022.08 3019.78 3017.95 3014.75 3013.04 3011.26 3009.92 3008.92 3007.69 3007.19 3006.61 3006.40 3006.09 3006.34 3006.47 3006.89 3007.34 3007.75 3008.86 3014.31 3018.05 3020.89 3023.11 3022.72 3022.52 3022.14 3021.41 3020.50 3019.37 3018.32 3017.32 3016.48 3015.60 3015.33 3014.61 3013.33 3012.01 3010.11 3007.58 3003.81 2995.20 2963.16 2969.11 2979.29 2985.09 2978.31 2972.37 2964.32 2932.73 2884.01 2864.12 2836.72 2803.70 2790.44 2776.37 2770.08 2767.19 2765.67 2764.11 2760.74 2756.47 2751.11 2747.50 2731.30 2712.14 2699.25 2688.16 2675.34 2665.80 2655.32 2652.19 2643.35 2630.37 2622.04 2615.81 2609.38 2597.32 2582.88 2576.95 2571.36 2576.49 2569.61 2556.44 2548.08 2547.84 2545.40 2530.55 2532.47 2530.92 2541.30 2543.99 2538.16 2533.11 2528.44 2521.50 2513.70 2514.90 2506.15 2490.96 2453.16 2438.62 2424.57 2411.35 2403.93 2397.81 2392.52 2387.09 2381.43 2378.52 2378.72 2373.76 2366.47 2354.26 2351.03 2348.42 2340.50 2332.21 2325.22 2311.08 2306.65 2306.48 2294.69 2287.89 2284.97 2285.19 2275.77 2264.70 2257.24 2251.08
3079.30 3086.27 3093.44 3100.59 3107.33 3114.86 3124.78 3133.90 3143.64 3151.67 3163.77 3176.82 3191.13 3205.31 3214.06 3224.66 3228.77 3217.57 3207.46 3198.15 3187.24 3175.97 3163.21 3150.57 3142.31 3141.86 3134.81 3124.19 3123.11 3116.26 3108.55 3097.87 3086.52 3081.16 3078.92 3071.02 3061.84 3042.31 3014.59 3009.50 2988.35 2980.14 2972.62 2965.66 2959.55 2954.14 2948.66 2945.16 2937.81 2932.76 2927.94 2922.23 2918.51 2915.71 2911.14 2903.98 2898.95 2895.41 2892.26 2890.65 2890.18 2890.61 2893.38 2898.67 2897.84 2895.44 2893.15 2890.67 2889.10 2887.43 2889.45 2893.09 2891.55 2889.70 2888.48 2887.57 2891.63 2963.50 2959.98 2956.38 2949.51 2945.34 2940.80 2933.36 2926.25 2918.38 2911.70 2907.05 2903.28 2901.48 2898.08 2893.48 2894.07 2898.38 2902.39 2908.20 2910.99 2907.28 2910.36 2907.73 2906.40 2906.53 2907.88 2923.27 2935.06 2941.14 2951.91 2977.97 2991.70 3008.60 3024.14 3032.11 3043.31 3046.79 3044.39 3043.09 3043.32 3042.63 3042.46 3043.22 3043.94 3045.17 3044.89 3044.69 3044.36 3044.57 3044.25 3043.13 3041.70 3040.99 3040.71 3034.65 3027.74 3023.37 3019.90 3017.78 3015.68 3014.11 3013.23 3012.09 3011.25 3010.59 3010.15 3010.12 3010.70 3011.97 3014.56 3014.05 3014.24 3016.83 3016.70 3015.82 3015.60 3015.43 3014.68 3014.26 3013.69 3013.32 3012.42 3011.44 3009.85 3009.43 3008.84 3008.24 3007.27 3006.71 3005.10 3003.16 3001.24 2998.91 2992.14 2966.56 2951.24 2959.76 2954.74 2968.42 2969.94 2960.41 2947.86 2901.51 2873.94 2856.59 2820.74 2797.32 2784.91 2773.27 2763.55 2761.07 2757.76 2755.13 2753.03 2749.93 2743.65 2735.79 2728.55 2711.45 2701.07 2690.41 2673.81 2659.63 2648.70 2643.46 2633.82 2624.14 2614.19 2609.15 2597.04 2584.54 2578.52 2564.35 2560.92 2566.02 2563.80 2555.89 2536.73 2535.42 2527.24 2522.52 2519.20 2528.32 2531.47 2535.71 2523.39 2522.05 2519.33 2506.81 2497.50 2499.38 2495.71 2466.01 2448.04 2437.67 2420.26 2413.20 2405.55 2397.58 2389.34 2382.73 2376.17 2369.44 2367.60 2362.66 2352.33 2343.00 2338.11 2334.31 2330.65 2314.06 2304.22 2297.66 2291.86 2283.79 2278.13 2269.73 2271.63 2268.46 2257.34 2249.63 2245.96 2242.13
3078.80 3085.88 3092.40 3100.19 3108.01 3118.87 3127.25 3136.59 3149.19 3158.90 3169.82 3183.21 3193.95 3207.27 3222.42 3230.07 3223.49 3213.30 3200.08 3190.07 3180.47 3170.29 3158.18 3144.95 3131.52 3130.75 3124.29 3118.23 3112.00 3108.54 3100.55 3090.63 3079.16 3070.39 3065.27 3058.14 3045.80 3038.49 3026.36 3006.91 2984.62 2977.45 2970.22 2963.30 2956.74 2951.03 2946.67 2939.68 2934.83 2930.90 2925.61 2918.98 2914.61 2911.65 2907.07 2902.34 2895.76 2892.21 2889.15 2887.22 2886.48 2886.71 2888.06 2892.26 2891.42 2889.02 2886.44 2884.58 2883.26 2881.99 2880.74 2881.42 2883.40 2882.07 2880.57 2876.87 2881.06 2945.69 2948.05 2944.51 2943.10 2937.56 2931.00 2916.79 2912.32 2908.42 2902.66 2899.01 2898.25 2894.00 2890.24 2886.92 2887.75 2892.79 2895.63 2902.41 2904.01 2900.34 2903.15 2902.09 2900.91 2901.87 2902.46 2907.17 2922.15 2930.22 2933.08 2967.75 2987.79 3006.00 3016.74 3028.97 3037.77 3044.41 3053.46 3053.41 3051.69 3051.44 3051.09 3050.93 3050.55 3050.06 3048.94 3048.17 3048.81 3050.35 3051.48 3052.27 3053.64 3052.37 3051.28 3048.76 3045.93 3042.68 3039.83 3022.01 3020.52 3018.58 3018.32 3017.36 3016.26 3015.54 3015.50 3016.18 3017.39 3019.91 3020.51 3015.57 3011.30 3010.43 3007.56 3006.99 3006.98 3006.36 3006.04 3005.41 3005.09 3004.98 3003.96 3002.78 3001.81 3001.64 3001.09 2999.89 2998.95 2998.17 2996.79 2993.60 2992.70 2990.46 2977.72 2958.35 2945.78 2938.02 2937.44 2947.81 2954.34 2947.97 2921.75 2882.81 2861.72 2832.07 2806.73 2790.95 2777.56 2766.79 2758.92 2754.97 2750.20 2745.33 2742.68 2738.98 2729.89 2724.33 2717.52 2715.49 2712.48 2692.21 2672.14 2658.53 2647.30 2634.03 2624.53 2612.88 2605.78 2589.55 2582.17 2575.55 2566.24 2557.32 2551.33 2554.83 2553.69 2545.31 2535.64 2525.78 2515.88 2510.79 2512.08 2520.02 2519.89 2517.80 2512.55 2509.33 2502.76 2488.58 2486.55 2487.90 2483.16 2463.87 2441.32 2429.21 2423.72 2416.24 2406.37 2397.21 2389.36 2381.89 2371.70 2360.60 2353.50 2347.15 2336.86 2331.75 2326.96 2323.73 2309.45 2299.96 2288.09 2279.03 2274.29 2269.33 2262.32 2256.67 2254.43 2251.18 2243.65 2236.16 2231.02 2223.33
3078.85 3086.18 3093.53 3102.63 3112.06 3122.80 3135.77 3144.46 3156.43 3166.66 3178.36 3189.16 3205.06 3219.27 3230.41 3229.36 3219.15 3207.07 3195.44 3184.53 3172.92 3162.57 3151.69 3138.86 3127.05 3119.66 3116.82 3107.50 3102.20 3098.45 3091.01 3077.57 3066.39 3051.84 3046.80 3038.86 3033.75 3028.02 3018.02 2992.53 2977.69 2972.89 2966.15 2959.74 2953.57 2947.51 2943.34 2937.71 2931.89 2929.17 2924.08 2917.83 2912.11 2906.78 2902.86 2896.59 2893.06 2889.23 2886.15 2884.37 2883.60 2883.06 2883.58 2887.32 2884.94 2883.04 2880.14 2878.20 2878.04 2874.93 2874.68 2874.08 2874.31 2875.42 2871.18 2867.66 2871.72 2875.32 2932.97 2922.22 2917.84 2914.86 2910.04 2903.13 2904.02 2900.64 2898.46 2894.65 2892.78 2886.41 2881.90 2881.02 2881.88 2887.73 2891.62 2896.34 2898.16 2894.36 2897.20 2895.24 2894.09 2895.21 2897.13 2900.64 2912.75 2921.76 2925.41 2951.41 2987.10 3001.20 3012.73 3020.99 3028.21 3036.39 3043.83 3049.31 3054.12 3057.83 3056.53 3054.94 3053.01 3049.60 3048.45 3047.75 3048.13 3053.31 3054.00 3054.70 3053.26 3051.77 3050.00 3045.77 3042.49 3039.49 3036.86 3034.08 3025.18 3024.93 3025.51 3026.15 3025.87 3023.30 3020.98 3017.18 3014.99 3010.17 3009.01 3005.51 3001.87 3000.06 2997.91 2998.28 2997.50 2997.42 2997.05 2996.70 2996.23 2995.94 2994.11 2993.71 2992.85 2992.99 2992.32 2990.81 2989.42 2989.61 2987.64 2985.86 2984.37 2981.68 2979.39 2967.54 2949.05 2934.70 2918.13 2925.69 2927.52 2928.60 2900.25 2871.73 2850.17 2816.96 2796.89 2782.58 2772.11 2762.46 2754.75 2747.62 2743.17 2736.09 2731.85 2727.90 2721.67 2716.18 2713.06 2709.62 2706.72 2697.74 2670.79 2656.00 2641.18 2631.14 2616.50 2611.80 2596.29 2587.41 2578.95 2569.87 2559.42 2551.59 2544.58 2543.14 2549.61 2537.90 2527.38 2514.43 2505.00 2500.17 2502.91 2509.58 2504.22 2503.72 2500.15 2487.25 2478.72 2475.65 2476.58 2471.50 2465.20 2461.44 2444.24 2435.97 2441.75 2429.13 2413.27 2401.39 2392.65 2384.02 2372.01 2358.29 2340.60 2330.22 2325.26 2320.11 2308.94 2296.74 2287.15 2278.58 2270.52 2265.04 2260.49 2254.79 2248.77 2245.34 2239.78 2233.46 2227.88 2223.99 2215.59 2208.93
3080.28 3087.33 3097.85 3106.16 3116.57 3129.08 3139.69 3151.73 3161.74 3174.62 3183.98 3194.96 3209.44 3222.24 3236.66 3224.80 3212.81 3201.44 3190.33 3179.26 3167.93 3156.72 3146.72 3135.23 3122.33 3113.07 3106.61 3101.58 3093.23 3088.01 3077.60 3057.45 3047.46 3040.33 3033.81 3030.69 3026.06 3016.21 3003.64 2987.72 2973.74 2966.36 2961.25 2955.38 2949.65 2944.60 2940.82 2933.61 2926.89 2923.68 2919.03 2914.58 2908.76 2904.05 2897.55 2893.49 2889.78 2886.43 2883.55 2881.80 2880.67 2879.53 2881.12 2881.91 2878.12 2876.01 2872.76 2868.79 2865.34 2863.84 2864.36 2869.33 2868.49 2865.48 2862.62 2860.73 2865.72 2867.35 2872.83 2896.04 2901.95 2897.74 2894.45 2890.06 2891.30 2891.77 2889.18 2888.15 2884.52 2879.37 2875.70 2875.09 2876.24 2883.33 2888.76 2891.20 2890.88 2887.92 2889.19 2888.10 2887.51 2888.15 2891.29 2893.49 2899.85 2908.85 2916.60 2941.75 2976.55 2995.15 3004.16 3011.28 3017.02 3028.83 3035.71 3039.74 3040.25 3053.05 3053.92 3051.56 3047.69 3043.13 3041.28 3040.71 3039.84 3048.53 3046.13 3049.40 3048.62 3046.58 3041.31 3037.51 3032.19 3029.91 3028.03 3028.91 3025.40 3022.74 3020.02 3019.24 3016.85 3012.51 3009.43 3005.98 3002.83 3000.54 2998.25 2994.78 2991.65 2989.96 2988.31 2988.56 2988.36 2988.34 2988.03 2987.70 2986.76 2986.55 2985.77 2985.26 2984.79 2984.10 2983.08 2982.16 2980.84 2980.58 2978.84 2977.23 2976.04 2973.66 2970.49 2967.47 2961.68 2933.76 2915.31 2902.24 2909.80 2908.84 2872.90 2851.25 2823.43 2802.40 2787.79 2777.67 2766.48 2759.09 2752.07 2742.53 2734.06 2727.73 2723.21 2718.52 2710.75 2707.14 2706.56 2702.18 2703.43 2681.58 2668.16 2644.48 2625.60 2613.07 2604.42 2601.79 2596.89 2588.31 2579.91 2567.85 2560.40 2547.16 2538.61 2534.09 2535.41 2532.94 2518.56 2502.75 2489.50 2494.60 2495.65 2493.61 2494.63 2494.52 2474.09 2472.13 2463.68 2462.33 2460.52 2458.89 2455.55 2453.22 2451.50 2447.73 2438.96 2423.74 2412.81 2404.52 2397.67 2388.97 2374.64 2359.73 2340.08 2325.36 2309.66 2293.43 2285.65 2277.88 2266.68 2264.38 2258.81 2252.39 2248.40 2242.89 2239.27 2231.32 2223.27 2220.86 2218.36 2211.10 2203.70 2195.70
3083.99 3093.08 3101.57 3111.65 3120.46 3131.57 3141.82 3152.80 3164.01 3175.38 3186.86 3196.28 3208.02 3222.67 3231.28 3221.19 3208.30 3196.95 3182.90 3171.34 3161.10 3150.31 3141.37 3130.56 3119.24 3107.29 3096.77 3095.13 3085.67 3080.07 3066.74 3047.32 3035.83 3031.46 3026.85 3022.17 3012.58 3003.08 2987.35 2974.20 2968.43 2963.40 2955.76 2951.96 2947.40 2938.08 2933.51 2928.37 2924.10 2920.31 2915.01 2910.20 2904.82 2898.93 2895.29 2891.60 2887.38 2883.98 2881.42 2879.36 2877.85 2876.32 2877.27 2876.56 2872.77 2871.71 2867.53 2862.25 2859.16 2857.58 2856.32 2861.74 2861.50 2858.39 2854.24 2853.82 2857.35 2861.16 2863.36 2874.95 2882.16 2882.74 2882.51 2883.45 2882.05 2882.08 2880.67 2880.62 2876.50 2870.72 2869.43 2869.24 2870.40 2878.12 2882.53 2884.66 2882.36 2882.07 2881.76 2881.96 2881.15 2882.84 2884.29 2887.55 2892.51 2900.75 2907.07 2930.59 2972.10 2988.91 2996.31 3001.28 3008.90 3021.01 3027.74 3029.16 3034.03 3042.77 3048.06 3043.11 3039.94 3036.46 3034.05 3032.48 3031.09 3037.02 3037.31 3040.15 3039.33 3035.91 3030.42 3027.40 3024.53 3021.73 3019.40 3018.74 3016.56 3014.56 3010.73 3008.67 3004.55 3001.42 2999.51 2997.53 2993.73 2989.74 2988.38 2985.31 2982.85 2979.97 2980.01 2979.29 2979.33 2978.74 2978.46 2978.51 2977.74 2977.14 2976.61 2976.01 2975.10 2974.70 2973.94 2973.07 2972.15 2972.23 2970.56 2968.75 2967.42 2964.93 2962.17 2958.56 2955.34 2939.86 2909.28 2889.01 2897.69 2883.33 2856.23 2829.65 2806.58 2794.38 2784.80 2769.19 2759.75 2752.78 2745.64 2736.93 2727.40 2721.32 2715.82 2710.42 2704.11 2698.95 2698.88 2698.15 2685.06 2673.81 2656.50 2638.06 2620.67 2610.32 2597.81 2594.06 2592.02 2587.72 2579.24 2565.41 2548.94 2543.02 2535.22 2526.51 2524.08 2523.99 2517.44 2489.60 2484.27 2487.82 2485.01 2486.44 2484.10 2477.71 2460.30 2456.26 2452.17 2449.55 2444.64 2445.22 2446.75 2446.96 2442.87 2443.63 2435.90 2427.73 2410.34 2398.78 2390.06 2378.26 2368.27 2358.45 2345.69 2319.32 2300.43 2282.02 2267.46 2260.25 2255.26 2252.14 2248.79 2241.77 2237.37 2232.98 2227.47 2217.15 2213.66 2211.79 2206.85 2202.50 2192.91 2185.38
3087.73 3095.99 3104.03 3114.67 3125.30 3133.47 3146.25 3156.85 3167.13 3176.91 3190.13 3200.92 3213.91 3225.22 3224.09 3212.23 3206.95 3192.38 3180.41 3166.69 3154.53 3143.72 3131.34 3121.44 3114.81 3103.72 3086.60 3082.55 3079.40 3069.16 3061.44 3038.22 3026.49 3023.16 3012.91 3004.92 3003.09 2987.28 2976.68 2970.64 2964.12 2959.09 2954.15 2948.32 2941.97 2934.09 2929.70 2926.57 2918.98 2915.38 2910.31 2904.85 2901.37 2895.86 2892.10 2889.19 2885.25 2881.88 2878.99 2876.93 2875.27 2873.49 2871.20 2869.47 2866.77 2861.72 2859.80 2857.09 2854.63 2852.52 2849.68 2849.42 2849.74 2849.38 2847.22 2847.14 2851.96 2853.56 2857.13 2860.33 2867.10 2871.72 2874.48 2876.83 2876.02 2874.82 2874.11 2873.80 2869.84 2865.39 2863.96 2863.64 2863.58 2874.43 2877.92 2876.88 2876.29 2875.48 2874.34 2875.78 2876.52 2877.84 2879.41 2883.02 2886.80 2893.10 2898.81 2918.79 2932.80 2979.86 2987.24 2994.14 3001.12 3013.09 3018.22 3021.11 3025.81 3037.64 3039.10 3036.42 3033.10 3029.47 3026.79 3023.60 3023.23 3024.42 3030.26 3027.00 3027.57 3027.03 3022.12 3019.41 3017.09 3013.93 3011.17 3009.06 3006.63 3003.80 3000.81 2998.05 2995.59 2993.21 2987.07 2985.92 2983.32 2980.67 2979.04 2976.05 2974.20 2971.55 2971.17 2970.55 2970.23 2969.61 2969.62 2968.78 2968.00 2967.38 2966.53 2966.15 2965.70 2965.43 2964.74 2964.45 2963.88 2963.64 2961.74 2960.30 2957.89 2954.93 2952.72 2949.78 2946.86 2935.75 2901.50 2876.78 2878.43 2866.82 2844.46 2821.50 2801.21 2787.43 2774.44 2765.48 2755.92 2746.83 2738.88 2730.15 2722.78 2714.34 2708.19 2701.66 2697.44 2689.61 2689.72 2687.15 2680.23 2673.72 2654.47 2630.84 2618.25 2607.19 2593.03 2586.76 2586.67 2580.10 2568.37 2552.49 2542.42 2540.01 2531.99 2524.03 2515.12 2513.49 2505.54 2497.81 2478.54 2477.26 2478.46 2478.36 2467.83 2456.44 2447.60 2442.51 2437.48 2431.57 2428.57 2435.60 2439.83 2439.93 2433.74 2430.02 2421.79 2408.52 2396.79 2387.51 2377.73 2367.97 2358.95 2351.53 2342.48 2328.60 2299.45 2277.59 2257.13 2251.84 2246.15 2241.58 2237.89 2231.69 2226.14 2219.43 2215.12 2208.86 2204.77 2203.28 2194.18 2187.94 2184.03 2178.35
3090.03 3099.91 3110.28 3118.86 3128.20 3137.87 3150.20 3161.78 3170.04 3180.45 3190.18 3202.73 3215.54 3225.46 3214.33 3204.44 3194.12 3184.97 3176.33 3165.09 3151.94 3138.37 3127.17 3113.27 3102.70 3093.10 3071.12 3071.59 3069.47 3060.56 3052.06 3028.07 3018.98 3003.90 2999.81 2997.50 2986.82 2974.92 2969.11 2962.54 2959.11 2954.20 2948.98 2943.19 2934.93 2931.42 2926.09 2922.65 2918.35 2913.96 2908.22 2903.62 2898.76 2893.75 2889.31 2886.80 2883.94 2879.29 2876.85 2874.71 2872.99 2871.18 2868.88 2865.97 2862.69 2859.29 2856.25 2853.38 2850.42 2848.02 2844.85 2841.57 2838.82 2839.15 2840.23 2841.28 2845.04 2848.63 2852.06 2855.32 2860.97 2863.54 2869.28 2869.13 2869.03 2868.94 2868.09 2865.88 2862.22 2860.35 2858.78 2858.13 2858.93 2869.33 2872.04 2871.12 2869.90 2868.97 2868.88 2869.44 2871.56 2874.96 2876.43 2879.26 2880.91 2888.51 2892.56 2905.58 2916.24 2963.02 2977.81 2986.03 2994.50 3002.28 3007.97 3012.57 3018.41 3030.23 3032.17 3029.54 3026.47 3023.03 3019.47 3015.50 3014.93 3015.82 3019.66 3018.58 3017.16 3017.47 3014.99 3012.62 3009.81 3006.27 3002.33 2998.66 2996.75 2992.95 2990.71 2989.55 2986.73 2980.71 2977.96 2976.20 2974.06 2971.59 2970.39 2967.29 2964.96 2963.40 2960.96 2961.53 2961.32 2960.82 2959.96 2959.14 2957.45 2957.55 2956.78 2956.79 2956.25 2955.77 2955.26 2955.65 2955.44 2954.75 2953.10 2951.58 2949.29 2946.68 2943.93 2940.31 2938.20 2924.85 2904.34 2887.85 2854.37 2832.75 2830.93 2815.22 2798.91 2784.87 2769.92 2761.91 2752.95 2743.46 2733.55 2724.45 2716.50 2708.41 2700.10 2694.35 2687.23 2681.61 2679.65 2677.46 2672.41 2665.62 2650.89 2627.56 2617.06 2606.59 2589.32 2576.19 2577.31 2571.65 2555.08 2548.79 2539.98 2531.55 2527.86 2520.83 2502.45 2493.10 2493.37 2489.36 2470.13 2471.50 2465.86 2458.95 2454.38 2437.72 2437.65 2427.48 2421.30 2418.64 2421.99 2428.85 2432.44 2432.67 2427.88 2420.00 2408.50 2396.82 2385.57 2375.79 2368.14 2358.70 2351.43 2343.59 2328.77 2316.63 2303.14 2266.33 2249.99 2244.27 2237.92 2233.26 2227.96 2220.87 2213.87 2207.65 2202.85 2195.25 2191.08 2186.84 2182.92 2179.03 2175.67 2172.50
