ncols        260
nrows        153
xllcorner    2678950
yllcorner    1140310
cellsize     10
NODATA_value  -9999
2677.90 2679.53 2679.68 2674.65 2674.03 2676.92 2674.62 2672.86 2668.03 2666.54 2666.05 2666.40 2671.68 2674.03 2677.53 2676.70 2680.22 2679.23 2680.82 2684.71 2686.76 2686.83 2688.03 2688.75 2690.47 2689.73 2691.31 2691.47 2692.14 2690.96 2695.28 2699.77 2707.50 2712.98 2717.67 2732.17 2765.09 2788.98 2791.70 2792.73 2794.83 2795.55 2796.04 2795.17 2793.56 2791.62 2788.21 2785.80 2784.91 2783.46 2779.68 2776.51 2774.95 2771.17 2768.71 2765.94 2762.93 2759.79 2758.77 2760.81 2761.10 2760.92 2757.81 2759.11 2760.97 2759.39 2759.64 2758.77 2759.37 2759.00 2758.37 2757.73 2756.36 2755.63 2754.18 2751.89 2749.33 2746.39 2741.89 2732.35 2728.63 2719.88 2715.31 2711.28 2707.96 2704.96 2702.38 2699.77 2697.24 2695.84 2694.10 2693.09 2692.31 2691.35 2689.62 2686.59 2683.54 2680.88 2677.78 2674.52 2671.49 2666.80 2664.97 2663.16 2661.88 2657.99 2656.39 2654.10 2651.82 2650.16 2648.50 2647.12 2645.11 2644.32 2642.30 2637.48 2631.90 2626.50 2622.57 2616.02 2617.41 2613.40 2609.78 2605.34 2601.22 2598.15 2592.11 2588.01 2585.96 2583.40 2582.05 2582.14 2580.32 2578.09 2575.25 2574.48 2572.06 2570.85 2569.76 2567.45 2564.01 2561.94 2562.16 2559.04 2556.40 2553.08 2550.00 2547.05 2544.75 2542.38 2540.46 2537.53 2534.72 2532.19 2530.02 2527.33 2523.77 2523.10 2521.62 2521.34 2520.15 2517.00 2515.27 2514.60 2512.12 2508.61 2506.94 2504.69 2502.13 2500.11 2498.10 2496.65 2495.86 2495.50 2494.77 2494.91 2494.72 2491.59 2488.22 2487.26 2485.47 2482.29 2478.96 2476.49 2473.89 2471.19 2469.56 2466.98 2464.34 2462.15 2460.07 2457.57 2455.90 2454.34 2453.07 2451.38 2449.17 2446.63 2442.61 2439.26 2435.65 2431.00 2427.61 2426.48 2420.56 2413.39 2404.81 2399.09 2395.30 2394.33 2393.45 2392.64 2392.29 2390.03 2388.63 2387.53 2385.84 2386.04 2384.00 2382.22 2381.67 2382.10 2382.56 2383.98 2383.82 2381.32 2377.15 2372.19 2370.27 2369.51 2368.53 2365.81 2363.58 2362.32 2361.53 2359.68 2355.49 2355.95 2354.69 2352.46 2348.94 2347.31 2348.70 2348.33 2346.91 2345.52 2344.05 2342.55 2341.26 2339.07 2339.91 2340.50 2341.47 2343.38 2343.41 2343.90 2344.49 2345.50 2347.01 2349.38
2684.13 2684.25 2680.63 2680.09 2681.50 2680.85 2679.51 2677.62 2674.13 2671.78 2671.11 2674.43 2677.75 2679.78 2684.24 2683.85 2685.33 2686.74 2685.62 2688.06 2691.65 2692.24 2693.75 2691.86 2692.87 2692.87 2694.50 2695.07 2695.48 2695.57 2700.40 2708.00 2713.65 2719.56 2723.95 2736.59 2779.88 2793.21 2794.73 2794.68 2796.29 2797.86 2798.99 2797.86 2797.13 2795.92 2792.84 2792.55 2791.36 2789.07 2787.61 2783.49 2781.01 2779.18 2775.81 2774.87 2770.21 2767.09 2766.51 2761.11 2761.31 2762.09 2761.64 2763.60 2763.12 2762.64 2762.18 2760.94 2761.24 2760.70 2760.47 2759.74 2758.61 2756.92 2755.93 2752.76 2750.87 2748.60 2745.13 2736.85 2727.95 2722.27 2717.15 2712.59 2708.61 2705.71 2702.50 2700.16 2698.79 2696.66 2695.78 2694.65 2693.51 2691.89 2689.52 2687.57 2686.09 2682.91 2680.74 2676.17 2673.24 2669.13 2667.29 2665.86 2664.04 2661.72 2658.50 2655.37 2653.58 2652.12 2650.76 2648.90 2647.94 2646.69 2645.70 2642.22 2637.80 2632.03 2627.40 2624.25 2621.32 2617.06 2612.52 2609.29 2605.12 2602.58 2598.96 2591.98 2586.17 2583.42 2582.16 2582.85 2580.71 2578.74 2576.53 2573.78 2571.31 2571.22 2569.89 2568.35 2566.57 2564.58 2562.61 2560.39 2557.19 2554.38 2550.77 2547.93 2545.94 2544.19 2541.77 2539.66 2537.30 2534.47 2532.18 2530.13 2527.29 2525.90 2523.40 2521.37 2520.32 2519.31 2516.83 2515.27 2512.90 2510.14 2508.08 2507.26 2505.73 2500.85 2499.53 2499.78 2498.23 2497.83 2498.00 2497.41 2495.96 2494.32 2492.53 2489.87 2485.23 2481.75 2479.17 2476.53 2474.71 2472.66 2469.95 2467.57 2465.39 2463.32 2461.28 2459.70 2458.27 2456.54 2454.68 2452.59 2450.47 2447.51 2442.30 2440.11 2437.30 2434.49 2433.16 2431.04 2428.21 2420.99 2411.88 2403.38 2399.60 2397.67 2395.11 2394.59 2395.49 2394.54 2394.11 2392.38 2391.07 2390.16 2389.00 2388.54 2384.38 2384.52 2383.18 2382.47 2384.48 2383.65 2380.82 2374.46 2372.66 2371.66 2369.90 2369.00 2367.88 2367.98 2366.71 2365.30 2362.72 2360.33 2357.71 2356.33 2355.96 2355.69 2354.03 2353.07 2352.62 2351.96 2350.53 2348.44 2346.70 2346.29 2346.03 2346.43 2348.60 2349.35 2349.68 2350.14 2349.74 2351.84 2355.56 2356.13
2686.43 2686.01 2685.98 2686.72 2685.35 2687.14 2684.37 2680.39 2677.43 2675.93 2676.36 2683.03 2683.05 2687.21 2688.39 2688.97 2690.15 2693.50 2693.37 2695.25 2697.17 2698.90 2697.02 2697.16 2694.81 2696.42 2697.66 2697.97 2699.16 2700.30 2704.73 2713.53 2718.66 2723.95 2733.44 2745.60 2790.10 2795.51 2796.14 2796.13 2798.57 2800.55 2800.70 2800.38 2799.73 2799.22 2797.14 2795.51 2795.13 2793.20 2792.11 2790.76 2786.89 2786.72 2781.86 2780.59 2776.85 2773.60 2772.81 2767.94 2764.06 2764.05 2763.99 2765.85 2766.39 2766.26 2764.64 2763.19 2764.07 2762.94 2762.09 2762.21 2761.20 2758.28 2756.35 2753.17 2750.73 2748.93 2747.34 2743.75 2733.12 2724.92 2719.58 2715.08 2709.72 2705.95 2703.25 2700.51 2698.39 2697.67 2696.84 2695.89 2694.29 2691.53 2690.14 2688.92 2687.45 2684.92 2682.80 2679.16 2675.16 2672.37 2670.11 2668.89 2666.32 2663.54 2659.85 2657.25 2655.64 2654.27 2652.50 2650.95 2649.89 2649.28 2647.27 2644.74 2641.74 2635.67 2632.08 2627.13 2625.11 2622.96 2617.22 2612.88 2609.17 2605.94 2601.44 2598.03 2593.52 2588.94 2582.95 2580.79 2581.68 2580.94 2578.97 2574.77 2570.98 2570.11 2569.61 2569.52 2570.27 2568.30 2564.62 2561.14 2558.54 2555.54 2552.45 2548.99 2547.71 2546.47 2544.19 2542.29 2538.88 2537.23 2535.63 2533.32 2530.06 2528.17 2526.41 2524.50 2522.77 2521.40 2519.67 2517.74 2516.43 2513.91 2512.14 2509.21 2508.53 2505.71 2503.07 2500.66 2501.15 2500.58 2499.52 2498.75 2496.82 2495.87 2493.58 2490.59 2487.50 2483.96 2481.36 2479.26 2476.83 2474.30 2471.56 2468.72 2466.91 2464.78 2463.16 2460.79 2459.10 2457.65 2455.66 2453.38 2450.97 2447.18 2444.54 2441.89 2439.82 2438.23 2436.71 2435.05 2432.69 2427.26 2415.58 2408.32 2403.28 2397.81 2396.17 2395.98 2397.77 2398.91 2397.70 2396.25 2396.01 2395.04 2392.77 2391.65 2389.33 2385.94 2386.72 2388.78 2389.33 2387.41 2385.10 2378.05 2374.94 2376.82 2374.71 2373.06 2373.08 2371.93 2369.70 2367.24 2364.08 2363.43 2363.53 2361.54 2360.60 2359.53 2358.51 2358.53 2358.40 2357.68 2355.61 2353.18 2353.26 2352.46 2351.66 2353.75 2354.84 2354.87 2354.10 2355.13 2355.89 2358.53 2359.93 2360.31
2691.06 2691.16 2691.44 2692.01 2690.90 2690.27 2689.47 2683.18 2681.05 2681.10 2682.67 2688.42 2689.07 2691.03 2691.62 2694.85 2699.71 2700.74 2701.97 2702.38 2702.81 2702.77 2702.05 2700.86 2698.20 2698.79 2699.46 2700.40 2703.46 2704.49 2707.62 2717.07 2721.92 2732.37 2741.00 2773.12 2786.92 2792.66 2796.98 2797.02 2800.07 2801.69 2802.12 2803.40 2803.47 2801.31 2801.12 2798.45 2798.33 2796.15 2794.59 2794.31 2794.22 2789.50 2789.70 2786.74 2781.70 2777.42 2779.26 2776.23 2772.55 2767.74 2766.48 2769.30 2768.90 2768.83 2768.91 2767.03 2764.74 2764.81 2763.44 2762.92 2761.53 2759.68 2757.42 2753.09 2751.84 2749.14 2748.08 2744.42 2739.12 2730.71 2721.95 2716.96 2712.23 2707.42 2704.74 2702.92 2701.14 2700.23 2698.32 2696.23 2694.08 2692.45 2691.14 2689.81 2688.26 2687.20 2684.34 2682.21 2679.23 2674.21 2672.10 2670.30 2666.59 2663.66 2661.70 2658.91 2657.59 2656.01 2654.01 2652.43 2651.32 2650.52 2648.63 2646.66 2644.42 2640.94 2635.33 2630.56 2628.68 2626.32 2623.24 2618.07 2615.60 2611.94 2608.72 2604.07 2598.95 2593.28 2591.77 2582.32 2579.20 2579.79 2578.28 2574.45 2572.66 2571.33 2571.44 2572.11 2570.53 2567.96 2565.61 2562.35 2559.29 2556.44 2553.77 2552.44 2550.62 2551.03 2547.20 2543.96 2541.60 2539.67 2538.61 2536.40 2533.42 2530.06 2527.79 2526.31 2524.58 2523.61 2520.83 2519.36 2517.65 2515.92 2515.27 2513.63 2511.35 2509.64 2504.96 2503.38 2504.31 2502.91 2502.38 2500.72 2499.26 2497.38 2493.91 2491.38 2488.07 2485.50 2483.53 2481.97 2480.30 2477.04 2474.47 2472.16 2469.69 2467.72 2464.55 2462.19 2460.72 2458.68 2456.73 2454.69 2452.30 2448.91 2446.69 2444.56 2442.99 2441.33 2439.61 2438.53 2435.66 2430.86 2422.64 2413.50 2408.48 2404.04 2398.35 2398.95 2399.54 2402.01 2400.45 2399.69 2398.51 2398.74 2396.63 2392.63 2390.55 2391.00 2390.39 2392.23 2391.73 2390.60 2389.00 2386.35 2379.99 2382.37 2380.23 2377.75 2375.22 2373.07 2371.36 2369.39 2369.90 2369.56 2367.46 2365.61 2364.28 2364.04 2364.18 2363.95 2363.29 2361.56 2360.29 2359.09 2358.29 2357.94 2359.44 2359.53 2360.75 2359.33 2360.67 2361.50 2361.64 2364.29 2365.81 2365.03
2696.61 2697.29 2696.36 2697.57 2698.01 2695.42 2689.99 2686.27 2685.20 2686.13 2691.72 2693.03 2693.88 2694.66 2697.66 2702.82 2706.22 2707.22 2709.29 2708.71 2708.64 2707.60 2705.83 2704.66 2702.29 2702.43 2702.88 2703.67 2706.86 2709.25 2713.34 2722.00 2729.50 2738.72 2751.06 2773.94 2785.02 2789.74 2793.99 2797.02 2799.93 2802.98 2803.63 2803.73 2805.32 2804.23 2802.56 2800.53 2800.15 2798.70 2798.22 2797.91 2798.71 2797.29 2794.68 2793.86 2790.42 2785.29 2785.20 2782.92 2780.34 2776.29 2770.43 2771.07 2771.62 2771.18 2771.09 2769.53 2768.22 2765.52 2765.16 2763.36 2761.97 2759.92 2759.18 2755.88 2752.91 2750.65 2747.54 2743.93 2739.62 2735.94 2726.56 2720.11 2715.21 2711.72 2707.41 2706.02 2705.10 2701.15 2699.46 2696.06 2694.78 2692.95 2691.50 2690.33 2689.23 2686.58 2685.65 2683.91 2682.50 2679.74 2673.79 2669.54 2667.20 2664.57 2662.97 2661.16 2658.93 2657.43 2655.17 2653.71 2653.16 2651.91 2649.70 2648.38 2646.95 2641.97 2638.26 2633.97 2630.44 2627.87 2626.34 2622.88 2619.46 2616.17 2612.69 2607.13 2603.63 2600.03 2595.69 2589.22 2582.75 2579.46 2575.79 2573.27 2572.32 2574.12 2573.06 2572.35 2571.76 2570.33 2568.35 2563.70 2560.38 2558.51 2557.08 2555.52 2554.85 2552.65 2549.20 2547.23 2544.34 2543.24 2541.75 2539.62 2536.07 2532.66 2530.08 2527.28 2526.85 2525.11 2523.63 2522.05 2519.87 2518.96 2517.08 2515.62 2514.22 2512.57 2509.40 2504.86 2506.83 2504.97 2503.73 2502.03 2499.51 2496.78 2494.78 2491.79 2489.31 2487.79 2486.82 2484.43 2482.46 2480.34 2477.23 2474.98 2472.45 2469.71 2467.49 2465.67 2461.70 2460.08 2458.58 2456.18 2453.28 2451.25 2449.29 2447.80 2445.86 2444.20 2443.45 2442.45 2439.22 2435.16 2427.01 2419.33 2411.54 2415.21 2405.17 2401.66 2402.23 2403.41 2404.21 2402.41 2400.40 2399.96 2397.64 2396.41 2393.25 2392.60 2396.30 2395.09 2394.36 2393.01 2393.63 2391.90 2385.63 2382.22 2381.94 2377.32 2378.13 2376.46 2374.14 2373.35 2373.06 2372.45 2369.71 2369.38 2368.90 2369.38 2369.77 2369.63 2367.44 2366.44 2364.83 2363.83 2363.93 2364.63 2365.12 2364.10 2363.03 2363.71 2365.37 2366.98 2366.20 2367.61 2368.57 2367.66
2704.08 2704.12 2700.87 2701.52 2703.40 2697.70 2693.04 2690.16 2690.39 2691.44 2695.97 2698.64 2698.62 2701.34 2707.19 2708.99 2714.44 2715.57 2715.12 2714.14 2713.06 2712.00 2710.13 2708.14 2706.07 2706.19 2706.85 2707.74 2710.81 2713.58 2719.26 2727.90 2737.65 2745.12 2761.94 2777.73 2788.28 2788.36 2791.76 2798.07 2800.53 2802.40 2804.17 2805.33 2803.14 2802.75 2804.26 2803.33 2801.12 2800.43 2799.73 2799.56 2799.82 2801.19 2799.58 2798.00 2797.51 2793.68 2791.93 2789.13 2785.64 2783.31 2779.77 2774.01 2775.39 2774.50 2772.67 2772.27 2771.48 2769.97 2765.68 2764.87 2763.26 2759.29 2758.15 2756.59 2754.48 2751.36 2748.78 2746.99 2741.73 2737.77 2732.08 2725.48 2717.95 2714.27 2710.79 2708.01 2705.92 2702.56 2700.43 2697.65 2695.41 2694.34 2692.22 2691.12 2689.52 2687.98 2686.67 2685.88 2683.67 2680.37 2676.99 2670.16 2667.28 2665.02 2663.78 2662.79 2661.01 2658.54 2656.64 2655.12 2654.28 2652.41 2651.01 2648.68 2645.56 2642.77 2639.12 2634.23 2631.85 2630.16 2627.56 2624.72 2621.69 2618.79 2617.83 2613.56 2608.91 2603.88 2600.02 2594.49 2586.84 2583.25 2580.34 2574.01 2572.61 2572.34 2573.85 2573.35 2574.53 2571.57 2569.51 2567.23 2563.88 2562.99 2560.91 2559.82 2557.15 2554.75 2551.96 2550.39 2549.34 2546.23 2544.01 2541.23 2538.81 2536.17 2533.48 2530.72 2529.08 2526.21 2524.56 2523.32 2522.02 2520.90 2519.14 2518.03 2516.51 2514.86 2513.26 2508.69 2508.56 2506.52 2505.38 2502.85 2499.31 2498.65 2495.68 2493.79 2491.82 2490.58 2488.16 2486.39 2485.13 2483.10 2480.43 2478.04 2475.23 2473.24 2471.20 2468.33 2465.74 2462.20 2460.00 2458.41 2456.02 2454.54 2453.26 2449.76 2448.36 2447.52 2447.79 2446.43 2443.73 2439.02 2430.36 2422.76 2415.69 2421.29 2416.76 2406.76 2404.37 2405.11 2403.31 2402.30 2401.16 2402.38 2402.06 2400.26 2397.75 2397.11 2398.17 2399.09 2396.81 2395.25 2395.26 2392.17 2388.92 2383.66 2385.07 2382.60 2380.40 2379.06 2377.80 2379.47 2378.20 2376.42 2373.24 2373.17 2374.64 2375.52 2374.79 2373.72 2371.67 2370.19 2369.09 2369.15 2368.45 2367.36 2367.29 2366.47 2367.14 2368.95 2370.58 2373.04 2373.75 2373.04 2372.42 2371.88
2709.44 2708.74 2706.21 2704.36 2703.10 2701.09 2696.20 2696.05 2695.00 2697.03 2703.42 2706.09 2708.81 2711.84 2714.11 2717.19 2720.52 2720.85 2717.41 2719.39 2717.49 2715.06 2714.52 2713.78 2711.35 2710.15 2711.02 2712.42 2715.37 2720.07 2724.88 2732.35 2741.58 2750.41 2764.89 2782.80 2788.93 2789.43 2791.02 2796.39 2804.34 2804.79 2804.87 2806.08 2804.53 2803.57 2803.61 2804.29 2803.96 2802.56 2801.54 2800.83 2801.13 2801.14 2801.31 2800.83 2800.39 2798.61 2797.61 2794.81 2790.25 2788.08 2784.39 2781.22 2776.80 2776.60 2773.82 2774.44 2772.96 2772.80 2771.02 2767.98 2764.67 2762.34 2759.52 2758.20 2755.92 2752.64 2749.56 2748.30 2743.65 2740.97 2735.05 2730.68 2721.63 2715.92 2711.96 2707.68 2706.08 2703.83 2700.45 2698.66 2696.20 2694.57 2692.80 2691.53 2690.86 2689.08 2688.48 2686.78 2684.20 2681.10 2677.21 2671.86 2668.69 2665.92 2664.92 2663.63 2662.37 2660.32 2658.32 2657.15 2655.07 2653.55 2651.50 2647.62 2645.78 2643.25 2640.36 2637.37 2634.85 2632.59 2628.79 2626.33 2623.84 2620.94 2618.84 2617.19 2613.68 2608.48 2603.05 2599.30 2593.26 2588.84 2583.83 2582.64 2576.24 2577.89 2576.19 2574.55 2576.36 2573.72 2572.13 2570.53 2568.94 2565.61 2562.25 2562.02 2558.82 2555.95 2552.90 2552.43 2549.56 2547.75 2544.93 2543.53 2541.02 2538.98 2536.26 2533.43 2531.15 2529.21 2527.20 2525.54 2524.50 2522.86 2521.52 2520.89 2518.51 2519.45 2518.25 2511.88 2508.59 2508.49 2506.75 2504.67 2502.74 2500.01 2498.54 2497.03 2494.80 2492.44 2491.24 2489.84 2487.03 2485.75 2483.03 2480.61 2478.31 2475.99 2473.89 2470.74 2467.68 2465.66 2463.41 2461.02 2459.65 2458.02 2456.50 2454.97 2452.13 2451.88 2450.86 2448.76 2446.28 2443.84 2432.67 2426.33 2429.40 2424.33 2420.84 2414.94 2407.98 2405.06 2405.19 2402.05 2401.33 2401.17 2401.42 2400.07 2400.53 2400.89 2400.69 2404.40 2402.32 2397.75 2397.29 2395.77 2395.92 2388.62 2386.85 2384.75 2383.29 2383.19 2385.13 2383.52 2381.89 2380.19 2380.50 2380.46 2378.49 2379.89 2378.43 2376.82 2375.64 2374.88 2372.16 2371.51 2372.49 2369.69 2371.40 2372.59 2373.46 2374.39 2375.06 2378.04 2376.52 2376.30 2374.84 2373.20
2714.27 2713.30 2710.64 2709.06 2706.84 2703.02 2702.13 2701.33 2701.33 2704.19 2709.54 2712.84 2715.13 2719.45 2720.43 2722.22 2724.34 2726.13 2723.18 2722.33 2721.95 2720.06 2719.47 2719.29 2716.42 2714.38 2715.47 2716.67 2719.93 2724.41 2731.42 2735.29 2745.36 2752.94 2766.04 2778.56 2787.57 2791.34 2794.35 2797.93 2803.56 2806.86 2806.90 2806.59 2805.82 2804.77 2804.92 2804.67 2805.88 2804.50 2803.25 2802.93 2803.54 2802.91 2804.70 2802.94 2803.86 2802.02 2803.22 2801.59 2797.55 2791.28 2789.37 2784.37 2780.93 2778.67 2777.49 2776.77 2775.77 2775.61 2773.33 2771.00 2767.06 2763.51 2762.50 2760.14 2757.25 2754.43 2751.87 2749.06 2746.37 2741.48 2738.81 2734.64 2725.87 2718.92 2713.93 2709.62 2706.00 2704.43 2702.10 2699.58 2697.65 2695.12 2693.72 2693.38 2691.54 2690.51 2688.85 2685.15 2682.88 2680.56 2677.72 2673.31 2670.05 2667.03 2665.71 2664.90 2663.49 2661.76 2660.47 2658.33 2656.18 2654.01 2651.19 2651.79 2649.30 2646.62 2644.77 2642.19 2639.98 2637.35 2634.29 2630.02 2627.43 2625.75 2623.92 2621.09 2618.59 2615.19 2607.59 2603.69 2598.68 2594.75 2592.29 2589.78 2586.96 2582.56 2580.64 2581.32 2579.59 2577.95 2575.86 2575.74 2572.27 2568.52 2568.27 2565.68 2562.80 2558.07 2553.32 2551.60 2549.36 2551.45 2549.41 2545.48 2542.92 2541.06 2538.51 2536.38 2533.59 2531.66 2529.60 2527.94 2526.68 2525.41 2525.02 2524.22 2522.52 2520.70 2518.69 2514.82 2511.52 2510.06 2508.62 2506.01 2504.08 2502.61 2500.58 2498.45 2496.37 2494.79 2493.43 2492.16 2490.10 2486.97 2484.86 2483.57 2480.98 2478.92 2476.21 2473.21 2470.84 2468.32 2466.09 2464.84 2462.71 2459.06 2458.39 2456.46 2454.97 2454.45 2451.75 2450.48 2447.83 2444.10 2439.31 2434.80 2433.24 2429.28 2426.07 2418.19 2413.51 2409.21 2410.87 2408.23 2407.20 2406.68 2408.67 2408.67 2408.61 2409.71 2411.33 2407.99 2407.03 2404.28 2399.48 2401.60 2399.04 2393.63 2388.86 2389.51 2388.33 2385.77 2390.20 2388.45 2385.22 2386.01 2384.91 2383.64 2382.67 2383.09 2380.99 2378.00 2375.69 2375.04 2375.63 2373.98 2376.86 2376.10 2376.68 2377.04 2376.85 2376.67 2378.17 2378.88 2375.87 2374.95 2373.33 2372.49
2717.29 2718.26 2718.30 2714.35 2711.25 2709.25 2706.73 2705.95 2706.29 2708.15 2712.99 2719.64 2722.71 2725.95 2726.71 2727.27 2728.66 2730.10 2727.60 2724.21 2724.66 2725.18 2723.71 2723.21 2721.30 2719.42 2719.92 2721.19 2723.29 2728.56 2733.38 2738.76 2748.43 2756.60 2766.54 2781.33 2788.37 2792.44 2793.89 2800.63 2805.06 2809.88 2809.99 2809.22 2809.69 2807.16 2806.28 2807.11 2807.61 2806.59 2805.50 2804.98 2804.99 2807.39 2808.30 2807.64 2806.69 2805.74 2808.14 2806.80 2803.95 2797.84 2792.99 2788.75 2784.98 2782.22 2780.54 2779.70 2779.26 2778.31 2776.24 2774.71 2770.34 2766.23 2763.21 2761.76 2760.16 2755.74 2753.56 2749.97 2746.00 2743.95 2740.14 2737.64 2728.55 2721.66 2716.66 2711.78 2707.93 2705.80 2702.86 2701.10 2699.83 2697.52 2695.83 2694.57 2693.86 2690.82 2687.76 2685.66 2682.14 2679.52 2677.05 2674.15 2671.85 2667.34 2666.96 2666.28 2664.96 2663.89 2661.39 2658.91 2658.75 2658.05 2656.74 2655.04 2653.23 2652.55 2650.32 2647.99 2646.05 2643.08 2640.31 2637.83 2635.09 2633.60 2630.68 2628.53 2625.89 2623.70 2621.47 2618.05 2613.63 2610.88 2604.86 2601.07 2599.05 2597.51 2595.11 2592.98 2591.97 2589.24 2589.14 2586.94 2582.82 2581.28 2577.26 2574.54 2571.53 2562.60 2560.33 2557.99 2552.37 2553.28 2551.00 2547.06 2545.71 2543.45 2541.03 2538.74 2537.02 2535.52 2533.00 2530.77 2530.03 2529.71 2528.59 2526.27 2525.74 2523.18 2520.55 2517.47 2515.64 2511.92 2507.64 2505.97 2505.53 2503.20 2501.39 2499.40 2499.21 2498.09 2495.90 2494.35 2491.98 2490.24 2489.03 2486.46 2484.34 2481.38 2478.82 2477.26 2473.70 2471.44 2468.73 2467.29 2464.47 2461.21 2458.94 2456.68 2454.21 2453.91 2454.95 2453.83 2452.27 2449.91 2444.51 2437.94 2437.31 2431.43 2432.16 2424.28 2421.64 2420.86 2417.40 2414.47 2412.86 2413.56 2414.43 2415.39 2416.94 2419.22 2420.08 2419.88 2414.64 2408.80 2401.86 2402.92 2401.29 2398.34 2396.08 2395.34 2393.86 2391.51 2391.01 2391.51 2389.66 2389.54 2385.52 2383.29 2383.22 2384.49 2382.81 2379.29 2379.19 2379.52 2378.75 2379.21 2381.71 2381.26 2380.48 2380.54 2376.68 2375.45 2375.72 2375.07 2374.91 2373.69 2373.89 2374.80
2723.02 2721.78 2722.54 2719.64 2715.87 2714.03 2711.62 2710.73 2710.78 2713.45 2716.89 2720.57 2727.94 2729.09 2729.43 2730.15 2731.63 2732.61 2730.99 2727.70 2727.89 2729.09 2728.26 2727.29 2725.63 2723.58 2724.14 2725.69 2727.77 2731.20 2736.80 2744.58 2751.36 2761.10 2767.55 2781.95 2791.89 2793.20 2797.25 2800.18 2806.16 2810.88 2812.80 2812.76 2810.58 2810.10 2808.75 2807.58 2809.95 2809.72 2809.27 2809.21 2808.23 2808.28 2810.59 2811.12 2810.69 2810.97 2811.08 2809.66 2808.40 2804.77 2799.90 2795.15 2791.05 2787.24 2784.61 2784.60 2783.10 2780.40 2778.00 2776.84 2773.86 2769.96 2768.45 2764.25 2761.84 2758.53 2753.97 2751.76 2749.62 2744.79 2742.44 2739.20 2733.01 2728.95 2723.27 2716.98 2709.90 2708.05 2704.93 2702.72 2701.60 2699.96 2697.72 2696.59 2693.22 2690.19 2687.72 2685.94 2681.82 2679.48 2677.36 2674.92 2673.07 2671.28 2669.59 2668.10 2668.09 2666.75 2665.11 2663.10 2661.83 2661.17 2660.03 2657.95 2655.88 2655.60 2653.38 2651.74 2649.32 2646.90 2643.68 2641.20 2639.69 2637.21 2634.73 2632.57 2629.92 2628.92 2627.64 2624.04 2619.30 2616.55 2612.77 2609.52 2607.00 2603.03 2600.63 2599.60 2597.42 2595.23 2593.99 2591.79 2588.48 2585.86 2583.25 2579.09 2576.08 2569.25 2566.45 2562.95 2559.96 2554.58 2552.11 2549.51 2549.03 2546.76 2544.43 2542.61 2540.85 2538.60 2535.80 2534.52 2533.97 2532.68 2530.73 2528.79 2527.33 2525.43 2522.36 2520.12 2517.33 2512.41 2509.70 2507.60 2506.34 2505.11 2502.69 2501.99 2500.79 2499.68 2497.99 2495.76 2494.03 2492.95 2491.43 2489.19 2486.01 2483.00 2481.78 2478.97 2474.85 2471.25 2471.71 2469.92 2468.69 2467.11 2465.17 2464.00 2462.11 2460.92 2457.46 2456.42 2455.14 2452.21 2449.42 2442.52 2441.58 2440.08 2437.33 2432.66 2434.62 2430.25 2424.30 2419.17 2416.91 2418.56 2420.34 2422.07 2424.39 2426.48 2422.64 2420.71 2415.99 2413.11 2407.75 2405.45 2404.12 2400.83 2397.96 2397.48 2396.05 2391.79 2390.53 2388.49 2390.29 2388.49 2388.14 2387.53 2385.50 2386.82 2384.20 2383.94 2386.18 2386.19 2386.12 2388.37 2388.71 2389.78 2387.47 2385.46 2383.81 2381.51 2379.87 2378.63 2378.00 2380.12 2379.83 2378.16
2729.78 2727.74 2726.54 2724.83 2721.22 2716.60 2714.75 2714.72 2716.33 2720.43 2730.55 2729.50 2728.34 2731.81 2731.43 2732.07 2734.29 2735.06 2733.47 2730.80 2731.03 2732.69 2732.34 2731.83 2731.27 2729.27 2729.17 2730.38 2732.23 2735.36 2739.49 2747.31 2755.64 2764.29 2771.32 2785.55 2796.33 2797.20 2798.78 2798.78 2806.32 2810.73 2813.48 2815.02 2815.15 2814.17 2812.63 2812.58 2810.44 2812.14 2811.65 2811.52 2811.05 2809.55 2811.99 2812.47 2812.61 2812.52 2812.74 2812.52 2810.84 2809.25 2805.22 2801.06 2796.90 2792.95 2789.68 2788.09 2787.60 2784.36 2783.97 2781.67 2778.96 2774.02 2771.20 2765.58 2761.60 2760.43 2757.82 2754.19 2750.00 2744.79 2743.43 2739.05 2737.03 2733.23 2730.85 2725.25 2716.21 2710.53 2708.93 2705.71 2703.66 2701.66 2699.78 2697.83 2692.56 2690.64 2687.82 2684.84 2682.55 2682.48 2680.83 2678.71 2676.97 2674.98 2672.99 2671.37 2671.24 2670.30 2668.69 2666.89 2665.75 2664.88 2663.16 2660.87 2659.39 2658.65 2656.43 2654.60 2652.59 2649.84 2647.06 2644.57 2642.70 2640.82 2638.23 2636.60 2633.96 2632.53 2630.73 2627.95 2624.97 2622.22 2618.73 2614.86 2612.34 2608.56 2606.15 2605.36 2602.86 2601.40 2598.84 2596.64 2593.67 2590.45 2587.89 2583.63 2580.62 2575.46 2571.13 2568.75 2564.96 2560.55 2557.18 2554.51 2551.79 2550.04 2547.85 2545.51 2544.47 2540.88 2539.16 2537.57 2535.47 2534.85 2532.97 2531.48 2530.86 2528.95 2525.80 2521.86 2519.43 2517.50 2513.46 2509.52 2508.57 2506.70 2505.03 2504.48 2503.62 2501.75 2500.06 2497.98 2496.84 2495.94 2494.08 2490.68 2486.69 2485.09 2482.15 2479.55 2476.78 2477.07 2474.37 2473.36 2472.48 2470.93 2469.19 2467.94 2466.12 2464.14 2462.67 2460.39 2457.14 2455.39 2451.37 2445.99 2443.88 2442.66 2442.18 2440.52 2439.68 2436.86 2432.97 2428.48 2425.14 2422.20 2424.33 2427.18 2427.64 2427.82 2427.73 2424.51 2421.49 2417.48 2412.77 2404.36 2406.47 2401.18 2396.61 2394.83 2392.88 2391.51 2391.13 2391.79 2392.08 2388.63 2391.43 2392.06 2390.92 2389.04 2391.41 2392.04 2394.68 2391.07 2393.42 2393.65 2393.39 2393.66 2392.13 2389.88 2388.25 2386.09 2386.20 2387.60 2388.16 2386.28 2385.68 2386.28
2734.25 2733.96 2732.23 2729.56 2724.64 2719.71 2718.86 2719.75 2723.73 2732.14 2736.71 2733.81 2734.19 2732.83 2733.25 2735.54 2737.63 2738.82 2735.25 2733.66 2734.67 2735.13 2735.09 2734.99 2734.44 2733.64 2734.20 2735.21 2736.99 2739.63 2743.48 2752.95 2755.81 2767.67 2774.49 2791.16 2795.42 2800.60 2799.32 2802.01 2803.18 2810.83 2811.39 2813.38 2815.49 2816.54 2815.78 2815.65 2813.30 2813.65 2814.59 2814.39 2813.80 2812.40 2812.64 2813.49 2813.61 2813.28 2814.66 2814.99 2814.53 2813.02 2810.14 2806.21 2801.76 2798.80 2795.87 2791.39 2790.32 2787.07 2787.31 2785.59 2784.33 2778.85 2774.92 2770.77 2765.16 2760.82 2757.71 2754.45 2751.21 2747.30 2744.13 2742.23 2739.69 2737.20 2733.84 2731.09 2726.27 2716.68 2712.34 2710.49 2704.24 2703.00 2700.92 2698.34 2695.05 2690.93 2688.16 2688.15 2685.72 2684.52 2683.36 2681.28 2681.44 2679.55 2677.66 2677.94 2676.07 2674.52 2672.58 2670.63 2669.59 2668.84 2666.76 2664.67 2662.51 2660.55 2658.33 2656.49 2654.29 2651.53 2648.43 2646.18 2644.42 2642.21 2640.00 2638.95 2636.74 2635.66 2633.39 2631.12 2629.54 2627.21 2624.90 2622.53 2620.16 2619.00 2616.71 2614.08 2611.67 2609.26 2605.15 2602.64 2599.59 2596.95 2594.30 2590.58 2587.72 2582.94 2579.96 2576.99 2572.15 2569.18 2563.72 2560.91 2555.89 2556.25 2550.56 2548.50 2546.42 2543.97 2541.99 2540.49 2539.57 2537.13 2536.37 2534.99 2534.56 2533.34 2528.35 2524.67 2520.60 2517.42 2515.18 2512.04 2510.45 2508.39 2508.52 2507.14 2505.29 2503.59 2501.40 2500.18 2498.98 2497.73 2492.77 2490.58 2487.21 2484.41 2483.62 2482.54 2481.75 2479.92 2478.73 2476.03 2474.86 2473.56 2471.98 2470.58 2469.57 2467.96 2467.11 2466.29 2464.06 2460.05 2457.26 2451.28 2448.05 2446.16 2446.16 2446.61 2442.58 2441.77 2439.40 2434.57 2430.69 2427.28 2427.94 2429.97 2432.47 2430.68 2428.24 2425.80 2422.81 2417.77 2413.92 2410.89 2402.85 2399.77 2397.15 2394.39 2392.36 2393.29 2390.49 2391.07 2393.29 2393.16 2394.97 2391.68 2393.77 2392.41 2397.34 2400.48 2399.71 2396.66 2396.08 2396.72 2396.82 2395.83 2393.78 2393.29 2391.90 2392.44 2392.26 2391.36 2391.27 2391.22 2390.98 2391.98
2739.27 2739.23 2738.22 2733.10 2727.55 2725.80 2725.93 2727.82 2729.93 2738.35 2739.18 2740.75 2738.78 2737.29 2736.63 2736.96 2738.94 2739.14 2738.36 2739.08 2739.59 2738.63 2738.62 2738.68 2738.51 2738.66 2739.24 2740.05 2741.99 2744.54 2748.12 2756.06 2761.22 2774.31 2782.20 2794.81 2797.71 2802.51 2803.30 2805.14 2805.43 2808.61 2811.75 2813.56 2814.67 2816.59 2815.86 2815.79 2814.95 2815.17 2816.10 2816.39 2816.14 2816.02 2814.01 2814.07 2813.24 2813.81 2814.78 2817.16 2816.50 2816.55 2815.04 2810.64 2805.84 2803.62 2799.63 2796.77 2791.75 2790.51 2789.24 2789.02 2785.37 2783.34 2779.78 2775.58 2769.86 2764.83 2759.84 2756.39 2752.92 2749.94 2746.09 2743.42 2740.82 2737.93 2735.54 2733.05 2728.29 2722.74 2712.98 2711.83 2709.51 2704.24 2701.60 2700.18 2697.62 2696.07 2693.63 2691.31 2689.14 2687.60 2686.19 2684.11 2684.46 2682.57 2680.68 2681.10 2679.23 2677.55 2675.60 2673.66 2672.54 2671.49 2669.78 2667.49 2665.26 2663.43 2661.21 2658.57 2656.05 2653.70 2651.50 2649.24 2647.67 2645.46 2643.25 2642.49 2640.28 2639.60 2637.33 2635.06 2633.91 2631.58 2629.66 2627.29 2624.92 2623.84 2621.55 2618.79 2616.38 2613.97 2609.62 2607.10 2603.96 2601.31 2598.67 2595.03 2592.18 2587.53 2584.55 2581.58 2576.65 2573.68 2568.43 2565.62 2562.81 2563.56 2558.33 2552.64 2547.67 2545.65 2544.87 2543.88 2543.07 2539.86 2538.65 2538.64 2536.77 2534.19 2530.44 2525.94 2521.46 2519.79 2517.89 2516.18 2514.09 2513.32 2511.65 2509.04 2507.61 2505.15 2502.90 2501.62 2500.04 2495.26 2492.32 2490.40 2488.03 2485.43 2483.74 2483.56 2481.89 2481.62 2479.76 2478.53 2477.02 2476.51 2475.18 2474.17 2473.61 2472.92 2470.68 2469.23 2465.96 2463.71 2461.55 2457.10 2454.56 2454.12 2454.44 2454.46 2452.25 2449.35 2446.32 2439.58 2434.64 2432.83 2430.43 2434.36 2432.94 2430.13 2428.84 2424.63 2421.35 2419.82 2412.37 2408.37 2404.87 2402.90 2398.48 2395.38 2396.58 2396.32 2396.98 2393.52 2396.91 2397.56 2398.76 2400.27 2399.66 2399.02 2400.16 2401.06 2396.96 2395.37 2396.46 2397.81 2398.92 2398.16 2398.50 2398.27 2398.35 2397.80 2397.00 2397.50 2397.55 2398.12 2398.11 2399.01
2744.14 2743.60 2743.72 2741.13 2737.08 2732.07 2732.20 2734.80 2737.22 2739.85 2741.77 2741.74 2742.64 2740.43 2743.79 2740.82 2742.53 2742.95 2742.28 2742.72 2742.63 2742.59 2742.89 2743.39 2743.46 2743.63 2744.21 2745.24 2747.12 2749.55 2754.13 2759.79 2766.83 2777.81 2796.80 2796.45 2800.69 2803.31 2805.90 2806.38 2806.86 2808.55 2811.11 2812.46 2814.12 2817.67 2817.93 2817.56 2818.27 2817.46 2817.31 2819.45 2819.98 2818.74 2817.39 2815.39 2814.19 2815.08 2816.00 2816.79 2817.68 2817.58 2816.41 2814.62 2808.76 2807.42 2804.13 2801.77 2796.33 2791.89 2793.11 2790.75 2787.72 2784.55 2782.02 2778.22 2772.64 2768.23 2764.43 2758.95 2754.98 2751.30 2747.84 2744.62 2742.80 2739.41 2738.37 2735.52 2731.50 2726.27 2720.36 2716.73 2712.08 2709.27 2706.59 2707.94 2704.20 2700.12 2697.55 2695.14 2693.18 2691.76 2692.30 2690.29 2688.49 2686.40 2684.66 2683.96 2682.37 2680.61 2678.68 2676.78 2675.19 2673.61 2671.69 2669.38 2666.91 2664.27 2662.16 2660.18 2657.77 2655.59 2652.96 2650.86 2649.44 2647.17 2645.38 2643.92 2641.95 2641.86 2639.98 2638.31 2637.32 2635.25 2634.29 2632.54 2630.14 2628.45 2626.16 2623.67 2621.38 2618.64 2614.86 2612.30 2608.77 2606.01 2603.32 2600.46 2597.75 2593.69 2590.86 2586.59 2579.91 2577.14 2575.84 2574.56 2570.36 2566.39 2563.44 2559.16 2556.33 2550.91 2547.54 2547.04 2544.83 2541.83 2538.81 2538.78 2536.77 2535.03 2531.64 2527.65 2525.32 2522.33 2520.39 2518.98 2518.34 2515.27 2513.28 2510.84 2507.63 2503.08 2499.83 2498.57 2497.58 2495.99 2494.15 2492.21 2488.91 2488.58 2487.44 2482.84 2483.11 2482.67 2481.76 2481.58 2480.57 2479.76 2478.61 2478.17 2477.52 2476.29 2473.26 2470.83 2468.94 2467.67 2465.00 2462.80 2463.08 2462.20 2461.56 2459.84 2458.59 2457.33 2451.82 2448.20 2439.59 2436.80 2435.50 2434.15 2433.58 2431.75 2427.32 2422.15 2420.01 2416.31 2414.11 2414.28 2412.87 2410.17 2404.12 2398.48 2402.32 2402.36 2397.63 2396.17 2397.85 2403.10 2403.02 2404.37 2403.21 2403.98 2402.77 2403.60 2401.75 2404.31 2401.06 2402.43 2402.42 2401.36 2401.89 2402.76 2402.68 2402.11 2401.69 2402.21 2402.39 2403.40 2403.68 2405.08
2747.10 2746.58 2746.98 2747.17 2746.68 2742.51 2740.23 2741.31 2744.06 2744.16 2746.83 2747.83 2745.26 2744.86 2746.84 2746.06 2747.11 2747.37 2747.03 2747.07 2747.33 2747.71 2748.23 2748.34 2748.49 2748.94 2749.73 2750.46 2752.26 2754.61 2758.73 2764.16 2774.98 2787.88 2803.02 2805.30 2804.59 2805.84 2808.15 2808.86 2809.22 2812.12 2814.15 2812.95 2813.97 2816.82 2818.47 2821.18 2820.43 2819.74 2819.51 2821.67 2823.13 2821.80 2819.85 2817.20 2816.81 2816.53 2816.28 2817.43 2817.95 2818.22 2818.77 2817.70 2813.31 2810.71 2806.35 2802.20 2800.08 2795.81 2794.72 2793.02 2790.61 2785.99 2785.13 2781.42 2777.44 2772.12 2768.38 2761.25 2759.56 2754.37 2750.85 2747.13 2745.63 2742.89 2739.55 2738.20 2734.61 2729.61 2724.46 2721.33 2717.29 2714.49 2714.20 2711.65 2709.10 2703.43 2700.85 2698.53 2696.32 2694.10 2695.53 2693.51 2691.89 2690.04 2688.37 2687.18 2685.56 2683.72 2681.75 2679.75 2677.72 2675.63 2673.45 2671.26 2669.15 2667.19 2665.08 2663.03 2660.87 2658.71 2656.15 2654.05 2652.52 2650.48 2648.44 2647.37 2645.40 2645.61 2643.63 2641.65 2641.19 2639.12 2638.71 2636.50 2634.30 2632.40 2630.12 2627.79 2625.37 2622.94 2618.90 2616.34 2612.67 2610.07 2607.47 2604.67 2601.96 2598.16 2595.26 2592.35 2584.57 2581.81 2582.21 2579.48 2576.74 2571.26 2568.31 2564.53 2561.28 2556.80 2552.50 2549.86 2547.37 2545.15 2540.69 2539.59 2538.77 2535.34 2533.52 2531.18 2528.14 2524.44 2523.27 2520.98 2519.26 2515.24 2513.04 2508.37 2504.12 2507.49 2505.45 2502.68 2498.73 2498.08 2496.83 2494.74 2493.01 2492.51 2490.65 2488.66 2485.11 2482.95 2483.13 2484.73 2483.71 2481.92 2480.85 2479.65 2479.28 2478.37 2475.56 2473.69 2471.71 2471.66 2470.93 2471.88 2470.03 2469.06 2467.93 2464.12 2462.47 2458.33 2452.13 2448.50 2444.51 2443.64 2443.82 2437.18 2432.22 2430.45 2428.12 2425.56 2424.71 2424.05 2422.34 2422.07 2419.60 2416.00 2411.01 2407.66 2404.32 2404.51 2402.53 2402.08 2406.29 2407.59 2407.48 2408.70 2407.44 2409.49 2407.43 2404.69 2404.81 2407.72 2407.07 2406.27 2405.95 2406.19 2406.88 2406.63 2406.10 2406.58 2406.94 2406.79 2407.93 2408.23 2408.40 2408.88
2751.83 2752.54 2752.36 2752.71 2755.37 2753.20 2750.05 2749.65 2750.93 2750.25 2751.26 2751.17 2749.94 2751.08 2750.68 2751.42 2752.15 2751.96 2751.68 2751.93 2752.22 2752.68 2753.12 2753.28 2753.73 2754.28 2755.06 2756.21 2757.62 2760.56 2763.89 2773.56 2782.28 2798.63 2809.84 2812.69 2810.08 2810.32 2810.65 2812.09 2813.59 2817.55 2818.49 2816.83 2815.86 2816.70 2817.61 2820.29 2822.94 2823.00 2822.35 2822.25 2823.45 2823.65 2823.66 2821.37 2819.60 2818.94 2817.81 2818.70 2818.45 2818.98 2818.87 2819.12 2817.56 2815.38 2812.13 2806.02 2803.39 2799.63 2795.81 2796.56 2792.06 2790.52 2786.95 2783.54 2780.23 2774.60 2768.93 2768.04 2763.28 2759.00 2754.97 2751.93 2747.36 2745.57 2740.55 2739.33 2735.73 2731.26 2727.48 2724.18 2721.13 2718.32 2717.41 2715.36 2711.73 2706.74 2704.16 2701.91 2699.45 2698.11 2698.75 2696.74 2695.36 2693.53 2691.78 2690.61 2688.83 2686.87 2684.81 2682.72 2680.23 2677.69 2675.26 2673.18 2671.38 2670.11 2668.00 2666.00 2663.97 2661.72 2659.35 2657.24 2655.71 2653.78 2652.01 2650.82 2648.85 2648.79 2647.28 2645.65 2645.06 2642.99 2641.85 2640.47 2638.02 2636.35 2634.07 2631.45 2629.36 2626.26 2622.94 2620.38 2616.67 2614.13 2611.37 2608.89 2606.18 2602.66 2599.65 2595.52 2589.23 2586.47 2586.63 2584.39 2581.48 2576.12 2573.17 2570.63 2566.22 2563.97 2558.53 2552.05 2550.18 2546.35 2542.51 2540.00 2540.97 2537.97 2534.59 2530.23 2527.69 2525.10 2522.34 2518.68 2516.33 2513.87 2511.25 2511.75 2510.38 2507.62 2504.79 2502.39 2500.79 2500.86 2499.31 2497.60 2497.57 2495.66 2493.63 2491.97 2490.85 2487.87 2484.47 2485.66 2485.39 2485.06 2485.87 2485.08 2484.28 2481.98 2479.55 2476.25 2477.02 2479.72 2480.21 2478.52 2476.58 2474.71 2471.05 2465.52 2459.30 2455.83 2451.59 2447.91 2446.32 2443.52 2439.50 2436.75 2434.09 2431.82 2429.09 2428.47 2428.01 2427.88 2427.15 2426.82 2422.15 2420.18 2419.96 2415.84 2412.51 2409.75 2406.55 2409.27 2410.48 2411.45 2411.54 2412.22 2411.21 2411.14 2409.73 2408.01 2407.51 2410.10 2411.53 2411.96 2407.70 2408.97 2409.31 2410.31 2410.99 2411.66 2411.64 2411.60 2412.53 2412.57 2412.46 2413.53
2756.53 2757.69 2759.62 2760.46 2763.21 2762.18 2759.88 2757.56 2757.14 2756.66 2756.90 2756.19 2755.75 2755.63 2755.86 2756.55 2756.84 2756.80 2756.70 2757.11 2757.46 2757.84 2758.12 2758.50 2758.88 2759.60 2760.48 2761.51 2763.58 2765.91 2769.53 2782.27 2794.89 2805.92 2812.54 2817.35 2815.56 2813.60 2814.59 2815.96 2817.56 2818.39 2820.51 2818.97 2819.51 2820.26 2818.77 2819.59 2821.03 2824.25 2823.50 2824.80 2824.82 2825.50 2825.77 2825.60 2822.27 2821.81 2820.58 2819.09 2819.20 2818.50 2819.80 2819.20 2820.40 2819.76 2817.29 2813.61 2807.06 2803.26 2800.37 2795.85 2793.65 2792.68 2788.53 2785.93 2782.24 2777.85 2775.23 2770.77 2767.58 2764.40 2760.48 2757.30 2752.20 2747.51 2745.01 2743.06 2740.24 2737.05 2732.69 2729.36 2726.47 2723.34 2720.40 2717.64 2714.87 2711.88 2709.22 2706.40 2703.98 2701.56 2701.10 2699.92 2698.98 2696.91 2694.85 2694.11 2692.03 2689.96 2687.84 2685.75 2682.70 2679.85 2677.27 2675.26 2673.24 2671.99 2670.39 2668.82 2666.83 2664.83 2662.93 2660.93 2659.42 2657.47 2655.53 2654.42 2652.52 2652.64 2650.69 2648.73 2647.66 2645.85 2643.90 2641.70 2639.50 2637.05 2634.81 2633.09 2630.78 2628.46 2625.81 2623.37 2619.46 2616.92 2614.38 2611.83 2609.19 2606.28 2603.82 2601.37 2600.98 2598.50 2594.71 2592.12 2589.52 2587.29 2584.48 2581.42 2578.34 2575.26 2568.41 2561.58 2556.94 2554.19 2551.91 2548.25 2544.27 2540.71 2537.05 2534.54 2529.56 2526.01 2523.29 2522.27 2520.44 2517.54 2514.77 2509.36 2506.85 2506.84 2505.42 2503.10 2502.93 2503.07 2500.99 2500.22 2498.78 2497.55 2494.77 2495.34 2493.45 2488.79 2487.26 2485.59 2488.26 2489.41 2489.43 2488.09 2487.46 2486.74 2481.80 2484.55 2488.10 2487.47 2484.92 2481.68 2480.61 2477.27 2469.17 2459.46 2458.78 2459.02 2455.74 2448.76 2445.55 2447.17 2445.13 2441.73 2439.32 2431.46 2431.19 2430.84 2431.74 2431.45 2429.79 2429.02 2428.70 2428.35 2426.57 2420.96 2416.96 2416.20 2411.83 2410.49 2410.61 2414.05 2412.85 2416.26 2414.67 2413.14 2414.86 2413.34 2411.35 2411.97 2414.56 2414.92 2413.90 2413.73 2414.16 2414.93 2415.98 2415.47 2415.58 2414.26 2414.79 2415.73 2416.21 2418.06
2760.92 2763.34 2765.35 2766.90 2768.60 2769.49 2767.66 2766.11 2764.56 2763.79 2763.59 2762.49 2761.83 2761.81 2761.79 2761.90 2761.94 2761.86 2761.76 2762.25 2762.44 2763.08 2763.38 2763.75 2764.28 2764.90 2765.87 2767.18 2769.06 2771.31 2775.11 2794.26 2804.56 2811.52 2818.29 2821.63 2819.16 2815.79 2817.57 2818.39 2821.27 2821.91 2823.47 2822.98 2823.00 2823.41 2823.33 2824.03 2825.11 2825.22 2825.44 2826.17 2827.51 2829.56 2829.71 2828.89 2826.33 2821.99 2824.34 2822.74 2822.44 2821.45 2820.55 2820.61 2821.65 2822.07 2821.10 2816.53 2811.92 2807.88 2805.80 2801.88 2795.51 2793.86 2789.49 2786.29 2786.14 2782.74 2779.50 2774.64 2771.45 2768.27 2764.47 2761.30 2756.90 2753.86 2750.82 2748.01 2745.11 2741.59 2738.00 2735.12 2732.76 2729.22 2724.17 2721.40 2718.64 2715.44 2712.77 2709.74 2707.32 2704.90 2703.74 2702.54 2702.11 2700.04 2697.98 2696.76 2695.10 2692.74 2690.24 2687.76 2684.71 2682.26 2680.37 2678.36 2676.34 2674.33 2672.80 2672.06 2670.07 2668.07 2666.35 2664.36 2662.92 2660.97 2659.03 2658.02 2656.12 2656.27 2654.31 2652.36 2650.70 2648.98 2647.41 2645.21 2643.01 2640.55 2638.31 2636.63 2634.31 2632.00 2629.51 2627.07 2623.31 2620.77 2618.23 2614.70 2612.17 2610.40 2607.94 2605.49 2605.60 2603.12 2599.62 2597.02 2594.43 2592.49 2589.69 2586.76 2583.68 2580.60 2576.87 2571.68 2564.94 2558.46 2556.41 2552.39 2548.51 2544.72 2542.42 2536.03 2531.74 2529.44 2528.36 2527.16 2525.83 2523.80 2517.24 2512.65 2511.41 2512.26 2510.17 2506.07 2503.19 2502.18 2500.39 2499.21 2497.93 2497.91 2495.43 2495.12 2492.03 2488.80 2487.63 2488.11 2489.91 2490.85 2491.39 2492.55 2493.99 2490.54 2486.44 2491.54 2490.04 2487.90 2486.62 2484.82 2477.32 2469.57 2462.41 2466.13 2464.93 2463.96 2458.21 2453.06 2446.96 2448.82 2447.39 2444.08 2442.10 2435.90 2435.36 2436.87 2434.49 2434.46 2433.81 2435.13 2431.48 2428.71 2427.83 2427.07 2422.69 2420.99 2418.29 2419.00 2413.13 2414.42 2417.12 2415.18 2418.32 2416.27 2415.91 2417.40 2415.52 2414.98 2416.65 2417.22 2416.57 2417.65 2417.69 2419.25 2420.26 2419.02 2418.26 2418.49 2419.17 2419.13 2419.65 2420.89
2764.49 2769.47 2771.04 2771.91 2773.42 2775.09 2774.69 2774.51 2773.27 2771.93 2770.04 2768.03 2767.67 2767.46 2767.20 2767.00 2766.88 2766.70 2766.83 2767.24 2767.52 2768.10 2768.62 2769.08 2769.56 2770.14 2771.28 2772.89 2774.59 2777.09 2781.85 2806.12 2811.27 2816.03 2822.42 2825.80 2823.19 2821.38 2820.43 2823.08 2823.00 2825.89 2826.51 2826.74 2826.78 2827.63 2828.17 2829.01 2829.36 2829.89 2830.32 2829.64 2830.05 2829.87 2832.94 2831.79 2829.22 2828.12 2827.68 2826.68 2826.10 2825.08 2823.82 2822.59 2821.68 2822.47 2822.37 2819.46 2815.91 2810.57 2809.60 2805.67 2801.93 2799.25 2796.22 2794.00 2790.64 2786.85 2785.31 2781.00 2778.15 2774.46 2770.87 2767.82 2763.10 2759.30 2756.08 2753.27 2750.28 2746.10 2742.84 2740.39 2739.32 2736.41 2730.67 2727.55 2723.89 2720.23 2716.93 2713.73 2711.03 2708.61 2706.68 2704.32 2703.60 2702.07 2700.32 2698.87 2697.23 2695.10 2692.49 2690.02 2686.68 2684.60 2683.13 2681.29 2679.09 2676.63 2674.81 2674.66 2673.15 2671.58 2670.61 2668.75 2666.97 2665.23 2663.73 2662.76 2660.78 2659.66 2657.86 2655.85 2653.80 2651.66 2649.32 2646.59 2644.73 2642.18 2639.95 2637.48 2634.37 2632.68 2630.14 2627.84 2625.89 2623.63 2620.65 2616.79 2614.37 2612.62 2610.08 2608.51 2608.38 2606.28 2606.00 2605.04 2602.46 2601.59 2599.08 2594.56 2590.80 2587.87 2585.46 2582.15 2575.49 2571.58 2566.24 2561.15 2556.38 2550.06 2543.42 2537.49 2537.41 2537.13 2534.20 2532.43 2528.90 2525.07 2520.84 2516.85 2512.82 2509.38 2508.11 2507.13 2507.88 2505.86 2505.43 2501.48 2499.03 2499.82 2495.59 2495.37 2495.43 2489.66 2489.07 2492.43 2495.18 2496.06 2496.72 2496.58 2496.49 2495.24 2492.66 2490.58 2490.22 2487.10 2482.16 2477.27 2469.96 2467.45 2466.90 2469.75 2464.48 2461.52 2460.31 2456.09 2453.62 2451.62 2449.18 2448.08 2445.97 2443.25 2443.42 2440.12 2437.74 2437.06 2436.99 2437.72 2435.30 2431.96 2432.23 2431.34 2428.72 2430.34 2428.14 2423.86 2419.77 2415.50 2415.93 2415.66 2419.45 2420.69 2419.83 2420.85 2419.92 2419.33 2417.31 2419.23 2419.53 2419.42 2420.76 2422.39 2420.90 2421.37 2420.42 2422.31 2422.72 2421.63 2420.39 2420.38
2770.35 2773.66 2775.79 2776.98 2778.53 2779.75 2780.61 2780.72 2780.03 2778.77 2777.27 2775.62 2774.48 2774.07 2773.08 2772.66 2772.37 2772.17 2772.03 2772.24 2772.58 2773.39 2773.77 2774.18 2774.67 2775.52 2776.63 2778.18 2779.66 2781.94 2811.61 2815.65 2818.51 2821.08 2827.07 2829.25 2826.87 2825.69 2824.74 2825.21 2826.60 2828.43 2829.96 2831.12 2830.69 2831.57 2832.24 2832.91 2833.26 2834.17 2834.20 2834.24 2833.82 2833.68 2833.51 2833.65 2832.95 2832.20 2831.54 2830.62 2829.71 2828.79 2827.32 2826.25 2824.57 2823.31 2822.44 2821.09 2818.61 2814.00 2813.50 2810.11 2806.84 2803.98 2801.41 2798.71 2796.02 2792.44 2789.57 2785.47 2782.45 2779.44 2775.21 2772.16 2768.19 2764.51 2760.96 2757.44 2754.46 2749.88 2747.01 2744.14 2743.37 2740.47 2734.60 2731.62 2728.64 2724.98 2721.26 2717.77 2714.86 2712.30 2709.96 2707.59 2705.85 2704.05 2702.27 2700.76 2699.25 2697.67 2695.52 2693.38 2689.86 2687.78 2686.50 2684.72 2682.48 2680.03 2678.20 2678.34 2676.59 2674.85 2674.27 2672.42 2670.93 2669.43 2667.94 2666.47 2664.49 2663.09 2661.44 2659.45 2657.42 2655.28 2652.33 2650.15 2647.97 2645.76 2643.53 2640.27 2638.02 2635.78 2633.96 2631.66 2629.65 2627.29 2624.30 2620.93 2618.50 2616.39 2614.18 2611.96 2612.60 2610.50 2611.78 2609.55 2607.32 2606.38 2603.87 2600.49 2597.05 2593.88 2590.75 2587.44 2580.90 2577.35 2573.81 2569.74 2566.13 2558.04 2550.97 2546.87 2544.07 2539.65 2536.87 2535.17 2531.62 2525.48 2520.70 2517.65 2515.32 2517.18 2517.24 2514.81 2511.87 2508.38 2506.92 2505.46 2504.49 2500.24 2498.05 2495.17 2493.02 2491.76 2490.30 2491.92 2496.85 2499.81 2497.65 2498.33 2495.85 2494.15 2490.22 2488.27 2485.08 2479.37 2475.86 2473.59 2471.62 2468.64 2473.42 2472.43 2470.04 2467.56 2462.96 2460.28 2461.83 2458.07 2456.26 2452.36 2451.18 2448.98 2446.40 2445.51 2443.48 2442.71 2440.31 2437.33 2438.16 2437.42 2437.83 2435.34 2435.76 2435.36 2431.51 2427.82 2425.32 2424.29 2418.75 2419.06 2421.61 2425.04 2423.96 2420.56 2421.30 2420.84 2419.42 2418.18 2420.60 2420.23 2421.13 2421.62 2422.84 2423.80 2423.07 2422.94 2422.94 2420.43 2421.00 2420.51
2776.58 2779.26 2780.84 2781.84 2783.22 2784.22 2785.34 2786.32 2785.44 2784.43 2784.28 2783.77 2782.75 2781.56 2780.41 2779.51 2778.30 2777.69 2777.44 2777.34 2777.53 2778.20 2779.00 2779.53 2780.03 2780.74 2781.67 2783.07 2784.87 2788.54 2822.55 2823.76 2825.36 2826.69 2832.66 2831.87 2830.32 2829.14 2829.68 2830.16 2830.71 2831.08 2832.48 2834.92 2834.74 2835.47 2836.36 2836.82 2837.17 2838.12 2838.09 2838.25 2837.58 2837.39 2837.68 2837.47 2836.80 2836.28 2835.63 2834.56 2833.32 2832.26 2830.81 2829.74 2828.49 2826.43 2825.20 2824.47 2822.27 2819.64 2817.68 2815.13 2812.06 2809.10 2806.13 2802.88 2800.36 2796.70 2793.82 2790.25 2786.76 2783.85 2779.55 2776.50 2772.97 2769.71 2766.05 2761.61 2758.63 2754.88 2751.18 2749.26 2747.43 2744.53 2739.52 2735.70 2733.27 2729.63 2725.50 2721.57 2718.58 2715.89 2713.23 2710.87 2708.37 2706.14 2704.14 2702.65 2701.10 2699.94 2698.55 2696.02 2693.05 2690.97 2690.38 2688.58 2686.32 2683.42 2681.59 2681.21 2680.03 2678.98 2677.94 2676.08 2675.06 2673.66 2672.00 2670.17 2668.20 2666.73 2665.16 2663.08 2661.03 2658.89 2656.03 2653.71 2651.54 2649.34 2647.11 2644.20 2641.68 2639.68 2637.78 2635.48 2634.02 2631.73 2628.78 2625.06 2622.64 2620.51 2618.27 2616.63 2616.82 2614.72 2615.36 2614.06 2611.97 2611.17 2608.66 2605.90 2602.88 2599.69 2596.05 2592.74 2587.93 2583.13 2579.88 2575.54 2571.93 2566.18 2560.15 2554.44 2548.45 2543.10 2539.44 2536.06 2528.94 2526.40 2524.94 2524.15 2524.87 2517.97 2517.57 2512.70 2511.39 2510.43 2509.06 2507.25 2504.20 2500.95 2498.28 2496.44 2496.37 2494.86 2493.68 2493.70 2493.98 2491.30 2490.60 2489.47 2490.61 2486.28 2483.04 2481.01 2482.66 2482.64 2480.53 2477.87 2476.49 2475.77 2476.87 2474.67 2472.77 2469.20 2467.58 2465.34 2463.73 2462.95 2458.10 2457.13 2455.47 2455.18 2450.12 2448.65 2448.44 2446.73 2445.24 2443.47 2440.54 2440.78 2439.58 2438.77 2436.93 2436.96 2435.68 2436.28 2434.28 2427.61 2423.63 2420.90 2420.21 2424.17 2425.95 2424.19 2421.07 2418.78 2418.21 2417.97 2421.24 2421.72 2422.29 2424.48 2421.33 2419.95 2420.94 2422.31 2422.53 2422.92 2423.54 2420.80
2782.18 2784.19 2785.70 2786.65 2787.09 2787.81 2789.97 2790.36 2790.10 2789.31 2789.54 2789.78 2789.49 2788.43 2787.15 2785.98 2784.51 2783.52 2782.93 2782.59 2782.91 2783.18 2783.83 2784.51 2784.80 2785.59 2786.67 2788.20 2790.31 2810.18 2825.08 2837.62 2834.03 2834.87 2837.30 2835.56 2833.30 2833.97 2834.78 2835.74 2836.61 2837.48 2838.50 2839.23 2839.58 2840.47 2841.36 2842.18 2842.45 2843.16 2843.18 2843.20 2842.52 2842.28 2842.49 2842.01 2841.53 2840.66 2839.97 2838.84 2837.64 2836.53 2835.41 2834.63 2834.10 2832.61 2831.13 2828.71 2826.94 2824.43 2822.41 2820.40 2817.44 2814.45 2811.50 2808.88 2806.27 2803.32 2800.50 2796.25 2793.30 2790.35 2787.09 2784.06 2778.39 2775.30 2772.20 2768.23 2765.20 2761.64 2758.70 2755.75 2752.64 2749.68 2744.89 2741.92 2738.95 2734.49 2729.74 2725.07 2722.21 2719.35 2715.76 2713.15 2710.74 2708.49 2706.24 2704.96 2702.97 2701.78 2699.77 2697.76 2694.39 2692.46 2694.35 2692.54 2690.73 2687.71 2685.85 2685.11 2684.44 2683.94 2683.54 2681.70 2679.93 2678.03 2676.13 2674.25 2672.28 2670.56 2668.83 2666.75 2664.03 2661.89 2659.41 2657.26 2655.10 2652.59 2650.47 2648.35 2646.28 2644.22 2642.46 2640.30 2639.19 2636.77 2634.35 2631.05 2628.55 2625.62 2623.33 2621.05 2621.67 2619.59 2619.43 2617.33 2615.24 2615.28 2613.04 2611.15 2608.71 2606.40 2604.37 2601.38 2597.50 2594.70 2588.80 2584.86 2579.96 2574.61 2569.69 2563.31 2555.79 2551.73 2544.75 2540.14 2533.84 2531.84 2532.98 2530.11 2525.25 2518.46 2516.95 2518.13 2515.77 2513.45 2512.47 2513.06 2509.63 2506.77 2505.09 2502.97 2499.64 2498.15 2494.92 2491.11 2489.88 2487.89 2485.36 2485.16 2484.73 2486.61 2489.93 2491.06 2491.09 2488.83 2487.43 2486.67 2486.18 2484.73 2483.03 2483.51 2481.80 2476.87 2475.29 2471.59 2467.05 2465.59 2461.74 2460.54 2460.25 2456.99 2454.76 2452.38 2452.61 2450.75 2449.56 2446.77 2444.52 2441.65 2440.19 2438.94 2440.11 2440.62 2440.03 2438.26 2436.59 2435.68 2432.63 2430.38 2426.75 2423.15 2421.57 2423.41 2419.91 2417.79 2418.72 2419.75 2418.39 2421.30 2420.86 2421.86 2422.92 2423.76 2421.56 2423.65 2423.33 2422.05 2420.53 2420.53
2789.24 2789.35 2790.07 2790.40 2789.73 2792.18 2793.10 2794.21 2794.49 2794.56 2794.83 2794.87 2794.45 2793.82 2793.17 2791.97 2790.68 2789.58 2788.63 2788.01 2787.84 2788.01 2788.54 2789.22 2789.71 2790.40 2791.46 2793.08 2800.31 2811.37 2823.29 2834.34 2843.04 2843.16 2841.16 2838.51 2838.35 2838.26 2839.07 2840.02 2840.89 2841.76 2842.91 2843.64 2844.67 2845.59 2846.14 2846.38 2846.66 2847.28 2847.30 2847.32 2847.00 2846.73 2846.46 2845.99 2845.51 2844.56 2843.87 2843.03 2842.05 2841.00 2839.95 2838.96 2837.97 2836.48 2835.00 2832.61 2830.84 2828.46 2826.44 2824.42 2822.32 2819.52 2815.82 2813.21 2810.60 2807.69 2804.86 2800.57 2797.62 2794.67 2791.39 2788.37 2782.57 2779.47 2776.38 2772.47 2769.43 2765.84 2762.89 2759.95 2756.67 2753.70 2748.89 2745.92 2742.95 2738.72 2734.17 2728.84 2725.98 2723.11 2719.19 2716.58 2714.04 2711.79 2709.54 2708.30 2706.31 2705.13 2703.12 2701.11 2697.90 2695.98 2697.87 2696.06 2694.26 2691.35 2689.49 2689.21 2688.76 2688.06 2687.21 2685.37 2683.62 2681.72 2679.81 2677.98 2676.00 2674.40 2672.57 2670.38 2667.73 2665.59 2663.17 2661.02 2658.87 2656.43 2654.31 2652.45 2650.38 2648.31 2646.90 2644.74 2643.58 2641.16 2638.74 2635.43 2632.93 2629.86 2627.58 2625.30 2625.75 2623.66 2623.45 2621.36 2619.26 2619.43 2617.18 2616.20 2613.75 2611.46 2609.17 2606.17 2603.04 2599.68 2593.75 2590.12 2586.48 2580.77 2574.91 2570.79 2560.91 2556.86 2550.41 2544.12 2539.94 2537.46 2533.66 2532.80 2527.04 2522.01 2519.89 2523.04 2520.22 2519.12 2520.07 2516.60 2513.77 2512.04 2509.72 2507.88 2500.56 2498.20 2496.31 2493.27 2489.49 2489.60 2490.75 2488.49 2492.43 2498.33 2496.61 2496.04 2498.54 2494.54 2495.49 2494.84 2491.83 2491.73 2492.80 2493.09 2486.93 2485.72 2484.39 2476.47 2476.53 2471.16 2469.92 2466.07 2465.05 2460.51 2459.90 2455.87 2456.15 2454.91 2451.54 2448.87 2446.52 2448.00 2443.48 2441.41 2440.17 2444.36 2442.96 2441.61 2442.68 2441.92 2438.18 2434.03 2434.60 2428.13 2425.93 2422.53 2420.92 2419.79 2421.22 2420.68 2417.93 2420.34 2423.38 2421.97 2421.49 2421.02 2420.53 2420.53 2420.53 2420.53 2420.53 2420.53
2795.30 2794.23 2793.61 2793.44 2794.28 2795.00 2796.34 2798.28 2799.71 2800.63 2800.55 2800.72 2799.82 2799.01 2798.39 2797.13 2796.15 2794.80 2793.70 2792.92 2792.65 2792.52 2793.23 2793.81 2794.33 2794.96 2795.93 2798.07 2800.92 2808.30 2819.24 2829.27 2840.32 2846.88 2844.07 2843.60 2843.37 2843.82 2844.91 2845.42 2846.18 2847.27 2848.75 2849.48 2850.11 2850.86 2851.29 2851.85 2852.04 2851.97 2851.93 2851.75 2851.36 2851.05 2850.56 2850.04 2849.57 2848.97 2848.22 2847.30 2846.40 2845.35 2844.29 2843.12 2842.19 2840.95 2839.36 2837.45 2835.79 2833.93 2832.42 2830.02 2827.75 2825.42 2822.07 2819.77 2816.57 2813.41 2810.55 2805.70 2802.40 2799.21 2795.77 2792.34 2787.86 2784.51 2781.41 2778.00 2774.26 2770.50 2767.52 2763.73 2758.41 2755.41 2751.57 2748.11 2745.61 2742.51 2739.29 2733.64 2729.99 2726.09 2720.17 2717.27 2715.03 2712.35 2711.30 2711.46 2709.56 2708.88 2707.40 2705.65 2704.21 2702.36 2701.62 2699.92 2698.08 2695.93 2694.16 2693.89 2693.00 2691.61 2690.23 2688.47 2687.60 2686.19 2684.28 2682.65 2680.76 2678.69 2676.68 2674.59 2672.31 2670.11 2667.88 2665.77 2663.73 2661.70 2659.85 2658.27 2656.85 2655.63 2654.37 2653.23 2650.45 2648.08 2645.08 2642.10 2639.47 2635.97 2633.68 2630.79 2629.11 2626.83 2626.28 2624.29 2622.48 2621.57 2619.46 2620.23 2617.79 2615.50 2613.27 2610.58 2608.04 2604.91 2600.72 2597.20 2593.64 2586.95 2581.89 2576.81 2568.23 2564.19 2558.07 2553.29 2544.68 2539.48 2532.33 2529.01 2526.49 2523.56 2523.18 2522.14 2524.60 2524.49 2518.95 2517.13 2512.02 2509.89 2510.30 2508.02 2505.91 2502.53 2496.99 2493.24 2492.79 2494.53 2497.38 2497.40 2499.02 2497.59 2500.82 2498.55 2498.34 2498.37 2499.56 2498.33 2499.83 2502.73 2501.54 2499.26 2492.51 2489.83 2488.65 2486.97 2484.60 2480.85 2480.48 2470.40 2467.64 2467.00 2468.01 2465.75 2463.07 2460.65 2455.75 2454.13 2453.49 2449.84 2446.73 2444.78 2447.10 2447.49 2446.18 2445.48 2445.89 2446.97 2443.20 2438.91 2436.46 2431.68 2427.47 2425.67 2424.64 2424.27 2425.34 2425.83 2422.18 2422.28 2421.25 2420.51 2421.01 2420.56 2420.39 2424.59 2420.53 2420.53 2420.53 2420.53
2801.76 2798.89 2798.02 2797.52 2797.47 2798.26 2800.22 2803.36 2806.13 2806.61 2808.27 2807.38 2806.25 2805.12 2803.94 2802.60 2801.23 2799.75 2798.81 2797.91 2797.37 2797.51 2797.64 2798.15 2798.87 2799.60 2800.69 2802.69 2805.61 2810.80 2821.74 2833.59 2844.74 2847.48 2845.48 2847.20 2847.45 2847.99 2849.09 2850.27 2851.25 2852.21 2853.14 2853.87 2854.68 2855.17 2855.66 2856.12 2856.31 2856.16 2856.09 2856.02 2855.44 2855.13 2854.53 2853.98 2853.46 2852.89 2852.13 2851.21 2850.24 2849.28 2848.10 2846.93 2846.19 2844.76 2843.34 2841.31 2839.65 2838.21 2836.33 2834.45 2831.75 2829.42 2826.57 2823.98 2821.39 2817.66 2814.80 2809.59 2806.59 2803.59 2799.92 2796.58 2792.72 2789.47 2786.45 2783.44 2778.96 2774.66 2771.66 2768.67 2762.74 2759.74 2755.69 2752.58 2749.47 2746.72 2743.50 2737.35 2734.11 2730.86 2724.05 2721.16 2718.27 2716.00 2713.72 2715.03 2713.13 2712.90 2711.04 2709.19 2708.02 2706.16 2705.10 2703.59 2701.79 2699.68 2697.90 2698.27 2696.56 2694.85 2693.73 2691.96 2691.55 2689.74 2687.93 2686.32 2684.43 2682.56 2680.68 2678.86 2676.93 2674.87 2672.91 2670.95 2669.10 2667.51 2665.91 2664.52 2663.45 2662.67 2660.41 2657.78 2655.29 2652.68 2650.24 2646.56 2643.93 2640.37 2637.84 2635.32 2632.95 2630.67 2630.05 2627.93 2625.82 2625.28 2623.18 2622.38 2620.07 2618.68 2617.25 2614.56 2612.49 2609.38 2606.27 2601.84 2598.28 2590.86 2586.87 2582.89 2573.41 2569.37 2562.95 2558.65 2554.35 2544.34 2540.15 2538.40 2534.49 2529.56 2535.29 2531.05 2524.62 2526.52 2523.39 2521.57 2518.62 2518.21 2513.95 2508.74 2505.55 2502.00 2501.13 2506.60 2504.76 2506.39 2506.07 2501.53 2500.51 2498.76 2499.75 2501.30 2501.61 2502.41 2504.82 2506.68 2508.71 2507.23 2504.39 2499.66 2500.48 2500.40 2495.32 2490.55 2487.24 2486.25 2480.74 2476.26 2474.70 2474.06 2476.16 2474.32 2470.10 2466.91 2464.55 2461.26 2456.14 2456.22 2455.28 2454.93 2451.88 2452.29 2452.67 2452.72 2454.89 2451.87 2444.66 2441.94 2441.48 2433.94 2432.09 2430.06 2427.80 2427.83 2426.56 2426.13 2422.77 2423.44 2422.13 2421.47 2423.28 2422.81 2420.67 2422.13 2420.53 2420.53 2420.53 2421.16
2806.57 2804.81 2803.25 2802.30 2801.77 2802.58 2804.77 2807.95 2810.74 2812.90 2813.46 2813.15 2812.30 2811.06 2809.86 2808.36 2806.95 2805.23 2803.86 2802.90 2802.42 2802.41 2802.50 2802.85 2803.35 2804.02 2805.25 2807.05 2809.50 2813.58 2824.03 2838.37 2850.91 2851.20 2847.02 2849.61 2850.81 2852.17 2853.27 2855.08 2856.19 2857.03 2857.53 2858.26 2859.08 2859.48 2860.08 2860.38 2860.58 2860.43 2860.26 2860.11 2859.52 2859.21 2858.41 2857.84 2857.30 2856.80 2856.05 2855.09 2854.09 2853.07 2851.91 2850.74 2849.81 2848.58 2847.01 2845.17 2843.51 2841.85 2840.25 2838.13 2835.75 2833.42 2830.95 2828.19 2825.57 2821.91 2819.05 2814.33 2810.77 2807.80 2803.63 2800.60 2796.82 2793.59 2790.51 2786.79 2782.94 2779.07 2775.80 2772.17 2767.08 2764.08 2761.08 2757.04 2754.70 2750.93 2747.72 2742.03 2738.23 2734.25 2727.94 2725.04 2722.10 2719.65 2717.95 2718.59 2716.70 2716.24 2714.68 2712.83 2711.83 2709.97 2708.93 2707.44 2705.67 2703.42 2701.65 2701.09 2700.12 2698.12 2697.22 2695.46 2694.31 2693.28 2690.88 2689.98 2688.09 2686.18 2684.30 2682.65 2680.71 2679.32 2677.88 2676.09 2674.37 2673.37 2671.76 2670.18 2668.62 2667.00 2664.78 2662.61 2660.62 2658.50 2655.47 2651.02 2648.39 2644.52 2642.01 2639.38 2636.79 2634.51 2632.90 2631.58 2629.18 2629.00 2626.89 2626.04 2623.74 2621.64 2621.24 2618.55 2615.97 2613.72 2610.04 2606.48 2602.92 2596.44 2591.86 2586.80 2578.59 2574.55 2569.15 2564.01 2559.60 2549.17 2543.65 2543.02 2543.52 2543.89 2542.05 2537.39 2531.32 2530.31 2527.87 2525.06 2520.71 2516.65 2513.89 2509.12 2510.32 2515.87 2510.64 2508.39 2508.82 2513.17 2511.26 2504.44 2504.01 2502.94 2504.01 2507.33 2509.78 2512.74 2515.03 2515.60 2513.45 2511.00 2509.41 2509.65 2509.96 2502.17 2500.28 2498.29 2497.36 2496.53 2495.98 2498.17 2495.53 2492.43 2480.59 2482.65 2478.18 2475.45 2471.03 2466.67 2465.29 2461.90 2464.49 2463.02 2461.17 2459.38 2460.84 2460.97 2458.53 2454.52 2451.61 2446.20 2443.44 2441.80 2438.56 2434.85 2432.56 2429.53 2427.90 2427.05 2424.22 2424.22 2422.95 2422.66 2420.74 2420.48 2422.16 2422.61 2423.49 2423.69 2423.98 2424.00
2811.89 2810.38 2809.25 2808.41 2807.80 2808.09 2809.80 2813.77 2816.40 2817.55 2817.94 2817.95 2817.18 2816.18 2814.84 2813.52 2812.04 2810.39 2808.74 2807.89 2807.67 2807.43 2807.41 2807.44 2807.87 2808.56 2809.71 2811.74 2814.41 2817.65 2828.34 2844.71 2852.84 2853.14 2849.41 2851.42 2853.62 2855.68 2856.98 2859.92 2861.03 2862.15 2863.13 2863.88 2864.18 2864.63 2865.08 2865.51 2865.65 2864.99 2864.85 2864.71 2864.42 2864.02 2862.39 2861.76 2861.13 2860.66 2859.85 2858.91 2857.89 2856.87 2855.72 2854.52 2853.30 2851.88 2850.46 2848.66 2847.02 2844.91 2843.06 2841.21 2839.02 2836.82 2835.29 2832.83 2830.37 2826.81 2824.02 2819.03 2815.96 2812.90 2807.49 2804.39 2800.33 2797.23 2794.13 2789.69 2786.71 2783.35 2780.58 2777.82 2776.55 2773.92 2770.42 2766.36 2762.30 2755.34 2751.90 2746.00 2742.65 2739.30 2733.24 2730.05 2726.53 2724.00 2721.46 2721.49 2719.49 2719.73 2717.95 2716.18 2716.28 2714.54 2713.32 2711.47 2709.62 2706.45 2704.58 2703.11 2701.28 2699.45 2697.94 2696.16 2695.22 2693.46 2691.69 2692.01 2690.20 2689.26 2687.40 2685.54 2684.62 2683.75 2682.70 2680.83 2678.96 2678.90 2676.98 2675.18 2673.12 2671.07 2669.52 2667.38 2665.80 2664.29 2661.88 2658.24 2655.48 2648.65 2645.84 2643.03 2639.73 2637.16 2634.32 2631.96 2629.61 2629.31 2627.86 2626.17 2623.92 2621.67 2620.91 2618.48 2616.84 2614.02 2611.21 2607.48 2604.30 2600.08 2596.60 2593.13 2588.17 2584.44 2577.76 2573.78 2569.81 2559.12 2552.92 2551.07 2550.98 2548.24 2545.27 2540.60 2536.29 2529.91 2526.49 2523.73 2520.57 2516.29 2522.22 2519.85 2520.67 2522.11 2521.54 2521.68 2520.22 2515.26 2511.06 2510.11 2510.93 2514.44 2514.60 2518.29 2519.36 2520.76 2521.90 2521.53 2518.83 2517.26 2515.60 2514.84 2511.85 2508.97 2507.03 2507.78 2508.29 2507.95 2508.99 2506.96 2507.51 2505.28 2493.64 2489.94 2487.64 2479.04 2476.83 2473.87 2474.05 2474.70 2474.48 2471.88 2471.66 2470.37 2468.26 2465.28 2458.27 2456.02 2453.44 2450.23 2448.87 2447.43 2447.31 2442.60 2440.30 2437.65 2430.69 2429.43 2425.07 2423.26 2422.70 2420.50 2420.50 2424.47 2424.13 2423.44 2424.73 2423.10 2424.89 2430.41
2816.92 2815.99 2815.78 2815.64 2814.61 2814.40 2814.73 2820.82 2822.76 2822.88 2822.71 2822.05 2821.52 2820.65 2819.49 2818.45 2817.29 2815.80 2814.35 2813.21 2812.69 2812.19 2812.34 2812.29 2812.57 2813.17 2814.53 2816.37 2818.90 2821.92 2830.74 2849.24 2854.38 2853.96 2851.40 2854.34 2856.76 2859.57 2860.88 2863.98 2865.09 2866.20 2867.35 2868.10 2868.45 2868.90 2869.35 2869.74 2869.88 2869.15 2869.01 2868.86 2868.50 2868.10 2866.40 2865.76 2865.13 2864.54 2863.74 2862.69 2861.67 2860.66 2859.43 2858.22 2856.94 2855.51 2854.09 2852.29 2850.64 2848.55 2846.70 2844.85 2842.76 2840.56 2839.16 2836.70 2834.24 2830.85 2828.05 2823.13 2820.06 2816.99 2811.49 2808.39 2804.25 2801.14 2798.04 2793.53 2790.54 2787.38 2784.61 2781.85 2780.97 2778.34 2778.30 2772.96 2767.91 2760.15 2756.71 2750.92 2747.57 2744.21 2738.00 2734.82 2730.81 2728.28 2725.74 2725.41 2723.41 2723.54 2721.77 2719.99 2720.17 2718.43 2717.32 2715.47 2713.61 2710.55 2708.69 2707.04 2705.21 2703.39 2701.86 2700.09 2699.12 2697.36 2695.59 2695.88 2694.07 2693.16 2691.30 2689.44 2689.13 2688.08 2686.59 2684.72 2682.85 2682.79 2680.86 2679.18 2677.12 2675.07 2673.66 2671.51 2670.17 2668.72 2665.97 2662.47 2659.71 2652.66 2649.85 2647.04 2643.41 2640.84 2637.70 2635.35 2632.99 2630.79 2629.37 2629.53 2627.28 2625.03 2624.43 2622.00 2620.56 2617.75 2614.93 2611.51 2608.32 2604.57 2601.10 2597.62 2593.18 2589.44 2583.08 2579.10 2575.12 2565.32 2557.80 2554.71 2554.08 2551.58 2545.09 2540.09 2536.53 2533.16 2529.81 2526.18 2529.15 2526.54 2525.54 2528.48 2526.14 2525.29 2524.39 2523.10 2520.92 2522.23 2520.38 2526.27 2519.49 2524.95 2528.21 2528.98 2527.59 2526.21 2524.87 2525.64 2526.06 2520.60 2522.03 2521.27 2518.44 2517.21 2516.41 2517.92 2518.48 2519.92 2519.90 2517.86 2517.26 2515.13 2507.28 2494.48 2487.67 2487.32 2483.21 2482.73 2483.52 2484.27 2483.29 2481.44 2477.03 2478.34 2475.61 2472.73 2464.58 2458.99 2459.78 2459.29 2454.94 2451.20 2447.58 2446.32 2442.61 2435.08 2430.76 2428.24 2423.32 2420.50 2420.50 2420.50 2422.72 2426.35 2426.23 2427.07 2426.04 2427.68 2428.85 2431.28
2822.46 2822.41 2822.34 2822.66 2822.47 2822.61 2824.39 2829.13 2829.10 2828.76 2827.50 2826.87 2826.24 2825.46 2824.44 2823.60 2822.39 2821.33 2819.77 2818.53 2817.84 2817.44 2817.28 2816.94 2817.22 2817.83 2819.38 2821.22 2823.42 2827.04 2835.74 2854.17 2855.64 2855.86 2856.26 2857.02 2859.01 2860.90 2862.26 2865.95 2867.31 2869.07 2870.92 2871.76 2872.95 2873.74 2874.03 2874.18 2874.29 2873.70 2873.53 2873.20 2872.66 2872.21 2871.06 2870.49 2869.57 2868.48 2867.55 2866.16 2864.90 2863.82 2862.29 2861.00 2859.42 2857.64 2856.36 2854.40 2852.76 2851.36 2849.54 2847.73 2845.34 2843.18 2841.55 2839.01 2837.17 2835.35 2832.71 2827.90 2824.57 2821.20 2816.59 2813.57 2809.10 2805.11 2801.10 2796.58 2793.73 2791.28 2788.76 2785.92 2783.71 2781.28 2783.73 2779.99 2775.18 2770.84 2767.70 2761.34 2758.73 2754.39 2748.54 2744.46 2738.38 2735.42 2731.95 2729.68 2727.40 2726.50 2724.58 2723.24 2723.03 2721.37 2720.97 2719.54 2717.89 2716.08 2714.30 2711.17 2709.21 2709.26 2710.00 2708.16 2707.09 2706.37 2703.58 2702.45 2700.53 2699.28 2698.10 2695.76 2694.81 2692.90 2691.42 2690.04 2688.06 2687.57 2685.70 2683.87 2682.09 2679.97 2678.55 2676.48 2674.17 2671.76 2669.24 2665.66 2662.95 2657.23 2654.00 2650.49 2645.38 2642.57 2638.79 2635.35 2633.63 2631.55 2629.39 2629.51 2627.12 2625.77 2624.41 2622.15 2620.58 2617.16 2615.12 2611.51 2608.64 2606.12 2602.53 2599.82 2596.10 2592.76 2588.08 2584.15 2579.53 2570.96 2567.09 2559.88 2555.15 2552.22 2548.09 2545.76 2542.35 2537.42 2534.87 2533.50 2535.45 2533.32 2534.60 2533.36 2532.15 2532.19 2528.87 2533.21 2534.64 2535.47 2535.40 2533.34 2530.73 2531.52 2531.16 2526.88 2527.94 2528.84 2528.99 2529.94 2526.38 2526.62 2526.70 2525.90 2525.43 2524.95 2526.25 2527.20 2528.95 2529.09 2528.34 2526.74 2523.74 2517.90 2508.30 2501.28 2493.35 2491.96 2490.92 2490.29 2490.72 2490.75 2490.62 2486.33 2485.68 2481.01 2481.87 2477.98 2478.04 2472.05 2462.63 2460.30 2457.23 2451.11 2447.90 2442.27 2437.98 2433.18 2428.51 2424.28 2420.50 2420.50 2420.50 2422.78 2423.40 2426.46 2430.73 2430.90 2431.30 2429.85 2432.88 2432.88
2828.72 2828.88 2829.02 2829.61 2830.61 2831.18 2831.30 2837.12 2835.35 2834.32 2833.93 2832.77 2831.95 2830.87 2829.67 2828.59 2827.47 2826.25 2825.07 2823.83 2822.84 2822.33 2822.00 2821.86 2822.01 2822.51 2823.47 2825.60 2828.15 2832.17 2838.14 2857.29 2860.05 2858.64 2857.36 2859.40 2862.04 2864.72 2866.08 2870.03 2871.24 2872.46 2874.93 2875.76 2877.33 2877.80 2878.27 2878.25 2878.36 2877.79 2877.59 2877.40 2876.66 2876.21 2875.14 2874.46 2873.77 2872.33 2871.40 2869.69 2868.58 2867.47 2865.88 2864.59 2862.59 2861.13 2859.66 2857.85 2856.21 2854.74 2852.94 2851.13 2848.86 2846.70 2844.81 2842.47 2840.13 2838.97 2836.33 2831.37 2828.40 2825.43 2820.56 2817.54 2813.26 2809.08 2804.79 2800.30 2797.45 2795.19 2792.53 2789.86 2787.47 2785.04 2785.49 2782.74 2779.26 2775.39 2772.77 2766.84 2763.93 2762.30 2754.66 2749.74 2743.11 2740.24 2737.37 2734.21 2731.93 2730.78 2728.93 2727.07 2727.38 2725.71 2725.72 2724.06 2722.40 2721.21 2719.43 2715.76 2713.80 2714.55 2714.45 2712.61 2712.50 2710.61 2708.71 2706.46 2704.53 2703.76 2701.91 2700.07 2698.63 2696.72 2695.46 2693.59 2691.72 2691.12 2689.26 2687.71 2685.76 2683.80 2682.34 2680.27 2677.99 2675.67 2673.35 2669.71 2667.00 2660.95 2658.02 2655.09 2649.23 2646.43 2641.57 2639.03 2636.49 2635.18 2633.03 2632.68 2630.65 2628.61 2628.13 2625.87 2623.65 2621.04 2618.44 2615.62 2612.74 2609.98 2606.89 2603.80 2600.79 2597.45 2592.98 2589.23 2585.47 2576.17 2572.30 2565.97 2560.80 2557.73 2550.17 2547.61 2544.17 2540.24 2540.19 2546.31 2544.96 2542.37 2541.76 2539.37 2536.28 2538.54 2541.03 2542.00 2543.30 2541.49 2538.13 2536.22 2534.89 2534.60 2535.74 2534.32 2531.93 2529.83 2529.45 2531.70 2531.07 2532.21 2532.46 2533.53 2532.44 2532.96 2534.54 2533.85 2535.08 2533.18 2531.76 2527.81 2521.15 2517.30 2520.99 2510.55 2498.06 2496.04 2497.50 2497.57 2497.42 2497.78 2495.33 2491.27 2491.07 2493.66 2491.25 2486.17 2485.05 2472.00 2466.58 2458.31 2453.15 2449.04 2444.03 2439.40 2435.21 2428.23 2424.31 2421.76 2420.50 2420.50 2422.03 2423.62 2425.00 2434.06 2430.00 2431.29 2433.89 2435.82 2438.16 2436.92
2835.13 2835.29 2835.70 2836.54 2837.35 2839.99 2836.36 2843.16 2841.61 2840.15 2840.33 2838.92 2837.83 2836.38 2835.09 2833.40 2832.42 2831.27 2830.02 2828.91 2828.07 2827.11 2826.60 2826.55 2826.85 2827.48 2828.78 2830.83 2833.27 2836.51 2841.88 2860.44 2864.21 2863.13 2861.12 2863.08 2865.45 2868.54 2869.90 2872.99 2875.18 2876.74 2878.93 2879.77 2880.90 2881.85 2881.84 2882.33 2882.44 2881.96 2881.65 2881.36 2880.65 2880.20 2879.15 2878.43 2877.54 2876.18 2875.25 2873.42 2872.26 2870.95 2869.48 2868.19 2866.20 2864.61 2862.93 2861.29 2859.65 2857.59 2856.33 2854.05 2852.38 2850.22 2847.60 2845.93 2843.98 2841.53 2838.36 2835.04 2832.23 2828.96 2824.53 2821.52 2817.05 2813.22 2809.13 2804.03 2801.17 2798.65 2796.30 2793.57 2791.22 2788.80 2789.48 2786.73 2783.59 2781.92 2778.90 2773.15 2769.13 2768.16 2764.72 2755.02 2749.61 2745.07 2743.18 2738.75 2736.47 2735.79 2733.28 2732.46 2731.73 2730.06 2730.64 2728.58 2727.73 2726.34 2724.56 2729.95 2725.46 2722.47 2718.90 2717.07 2716.83 2714.84 2713.12 2710.46 2708.54 2707.35 2705.73 2704.31 2704.14 2702.17 2699.47 2697.15 2695.62 2694.68 2692.82 2691.12 2689.42 2687.52 2686.14 2684.06 2681.75 2679.58 2676.98 2673.76 2671.05 2666.36 2662.03 2658.22 2653.09 2650.28 2645.62 2642.71 2640.53 2638.82 2636.66 2635.57 2634.18 2632.04 2631.85 2629.59 2627.17 2624.92 2622.14 2619.73 2616.85 2613.99 2611.25 2608.16 2605.49 2602.15 2598.46 2594.30 2589.96 2581.39 2577.51 2572.87 2568.29 2563.29 2561.62 2558.15 2558.04 2556.15 2555.30 2553.55 2550.99 2549.87 2545.91 2544.38 2545.72 2545.26 2545.75 2546.21 2543.74 2541.78 2544.36 2543.11 2542.36 2537.12 2536.64 2536.37 2533.95 2532.07 2534.27 2534.50 2535.96 2537.68 2537.45 2537.29 2536.89 2537.68 2537.70 2537.20 2536.49 2532.94 2532.01 2530.89 2531.46 2527.99 2527.23 2510.70 2505.14 2504.06 2504.05 2503.88 2501.48 2500.19 2495.96 2499.09 2500.20 2499.98 2497.72 2494.41 2487.78 2474.06 2459.31 2452.52 2448.85 2445.62 2441.31 2436.39 2431.23 2427.29 2424.41 2421.82 2420.88 2423.42 2424.30 2425.86 2430.57 2430.69 2431.93 2433.85 2434.54 2435.17 2436.69 2436.10
2840.44 2840.91 2841.38 2842.24 2841.87 2840.55 2846.30 2847.85 2844.08 2846.10 2845.04 2843.99 2842.60 2841.00 2839.61 2838.02 2837.39 2836.15 2834.88 2833.68 2832.40 2831.67 2831.02 2830.52 2831.26 2831.86 2833.60 2835.58 2838.18 2841.98 2846.41 2863.73 2867.42 2866.15 2866.21 2867.48 2868.76 2872.15 2873.42 2875.89 2878.03 2879.70 2881.04 2881.83 2883.24 2883.73 2884.22 2885.63 2885.75 2885.70 2885.47 2885.24 2884.15 2883.67 2882.64 2881.96 2881.27 2879.87 2878.33 2876.38 2875.19 2874.00 2872.15 2870.70 2868.94 2867.18 2865.54 2863.66 2861.44 2858.73 2856.97 2855.21 2853.88 2851.63 2848.54 2846.41 2846.99 2843.33 2839.94 2838.23 2835.57 2832.92 2829.11 2826.22 2820.62 2817.60 2814.58 2809.42 2805.32 2801.89 2799.23 2796.57 2794.13 2791.63 2789.80 2787.25 2784.69 2783.08 2780.61 2777.70 2774.84 2771.98 2768.82 2762.92 2759.39 2756.58 2753.76 2748.89 2746.40 2744.77 2742.81 2740.84 2741.04 2739.34 2739.52 2737.97 2736.42 2737.70 2736.17 2734.59 2732.51 2730.42 2726.32 2724.17 2722.95 2720.84 2718.74 2716.16 2714.04 2711.41 2709.30 2707.19 2707.61 2705.64 2702.71 2700.87 2699.04 2697.56 2695.84 2693.99 2692.12 2690.25 2688.75 2686.84 2684.90 2682.82 2680.75 2678.44 2676.14 2672.66 2668.00 2663.29 2658.66 2655.78 2649.81 2647.12 2644.43 2640.96 2638.72 2637.75 2635.73 2633.72 2634.10 2632.72 2630.34 2627.91 2625.48 2623.68 2620.96 2617.86 2614.93 2612.01 2609.58 2606.51 2604.44 2601.14 2597.84 2590.51 2585.28 2580.50 2576.75 2570.30 2566.24 2566.30 2564.62 2565.35 2561.54 2553.54 2551.50 2552.17 2550.89 2551.14 2550.99 2551.12 2549.05 2547.57 2549.25 2549.21 2548.62 2547.92 2547.10 2544.07 2540.22 2539.63 2537.63 2540.95 2540.33 2540.86 2542.28 2541.68 2540.60 2539.98 2538.97 2539.56 2540.76 2538.33 2535.31 2538.17 2537.92 2536.87 2533.44 2532.02 2516.00 2513.00 2510.89 2507.73 2506.29 2506.37 2504.17 2504.61 2506.55 2506.34 2504.20 2502.19 2500.70 2495.86 2485.07 2468.48 2455.31 2451.22 2445.98 2439.94 2436.09 2433.12 2430.03 2427.49 2425.65 2424.08 2425.03 2424.76 2426.98 2428.58 2430.82 2432.48 2430.00 2430.43 2434.34 2436.51 2435.69 2435.00
2844.81 2845.24 2845.46 2846.36 2846.72 2847.75 2845.82 2850.60 2850.21 2849.53 2849.23 2847.35 2846.67 2845.32 2843.94 2841.94 2841.57 2840.77 2839.50 2838.25 2836.77 2836.13 2835.41 2835.32 2835.78 2837.03 2838.08 2840.22 2842.78 2847.18 2851.68 2867.24 2869.91 2869.49 2869.57 2871.75 2873.02 2876.16 2877.43 2879.19 2880.97 2882.95 2884.94 2885.73 2887.14 2887.63 2888.12 2889.53 2889.65 2889.56 2889.33 2889.10 2887.93 2887.45 2886.47 2885.79 2885.10 2883.41 2881.64 2879.94 2878.75 2877.57 2874.72 2873.30 2871.60 2869.63 2868.07 2866.03 2863.84 2861.84 2860.08 2858.32 2856.18 2853.87 2851.51 2849.38 2847.26 2845.42 2842.84 2841.65 2839.00 2836.35 2832.85 2829.96 2824.35 2821.33 2818.31 2813.77 2809.39 2805.50 2802.84 2800.18 2797.42 2795.03 2793.33 2790.77 2788.21 2786.57 2783.94 2781.84 2779.11 2776.21 2772.62 2768.41 2764.40 2761.58 2758.76 2753.67 2751.17 2749.40 2747.44 2745.47 2745.60 2743.90 2744.06 2742.51 2740.96 2742.45 2741.35 2739.21 2736.67 2734.60 2730.34 2728.19 2726.70 2724.60 2722.49 2719.72 2717.59 2714.79 2712.69 2710.58 2708.77 2706.87 2705.47 2703.64 2701.80 2700.46 2698.82 2697.10 2695.23 2693.36 2692.09 2690.18 2688.61 2686.54 2684.46 2682.93 2681.35 2679.00 2674.11 2668.68 2662.96 2660.07 2653.95 2651.25 2648.56 2644.98 2642.74 2641.87 2639.85 2637.84 2638.63 2637.33 2635.02 2632.59 2630.16 2628.44 2625.71 2622.65 2619.73 2616.80 2614.47 2611.40 2609.60 2606.30 2603.00 2597.79 2592.70 2586.27 2582.52 2578.77 2573.89 2573.40 2573.92 2571.48 2566.92 2557.02 2556.53 2555.37 2556.47 2554.47 2550.46 2548.29 2553.12 2553.31 2553.48 2551.84 2551.33 2549.99 2546.91 2547.29 2542.10 2545.92 2546.05 2546.25 2545.55 2545.75 2545.30 2544.13 2542.88 2542.43 2542.19 2542.08 2540.38 2545.19 2544.61 2542.71 2540.26 2538.41 2535.32 2521.27 2519.99 2517.19 2512.61 2510.63 2509.58 2508.66 2511.00 2510.28 2508.94 2508.69 2506.89 2504.01 2497.42 2485.78 2474.03 2465.87 2458.04 2450.51 2446.87 2441.02 2435.75 2432.01 2430.76 2429.36 2429.84 2424.83 2425.03 2426.22 2425.72 2426.69 2426.82 2429.82 2428.98 2429.16 2429.54 2433.38 2431.99 2432.76
2847.49 2847.63 2845.19 2846.20 2848.41 2847.95 2851.12 2851.79 2852.00 2852.55 2852.14 2851.21 2849.91 2848.55 2847.23 2846.21 2845.57 2844.76 2843.95 2842.56 2840.94 2840.49 2839.57 2839.82 2840.65 2841.20 2842.50 2844.94 2847.95 2851.22 2857.02 2872.17 2876.95 2877.04 2875.31 2876.14 2877.13 2878.92 2879.97 2882.42 2883.91 2885.76 2887.69 2888.98 2890.23 2890.96 2891.50 2892.06 2892.11 2892.26 2891.81 2891.37 2889.30 2888.71 2888.82 2888.55 2887.82 2886.34 2884.67 2883.01 2881.51 2880.40 2878.21 2876.79 2874.85 2873.00 2870.79 2868.39 2865.93 2863.67 2862.30 2860.44 2858.17 2855.87 2853.61 2851.32 2848.72 2846.43 2844.46 2842.31 2838.94 2837.30 2834.83 2831.91 2827.78 2824.55 2821.36 2817.48 2813.47 2809.71 2806.61 2803.62 2800.62 2798.03 2796.09 2793.60 2790.78 2787.94 2785.51 2785.75 2783.12 2779.81 2776.29 2773.65 2770.57 2768.39 2765.68 2760.85 2757.83 2755.47 2753.57 2752.27 2752.87 2751.08 2749.86 2749.00 2748.84 2747.03 2744.89 2742.45 2739.97 2737.93 2735.01 2732.76 2730.19 2727.76 2725.62 2723.15 2720.89 2720.30 2717.94 2713.03 2709.36 2707.17 2707.00 2705.11 2704.07 2702.48 2699.99 2697.27 2694.09 2693.38 2692.97 2691.27 2690.64 2689.46 2688.10 2686.87 2685.20 2682.84 2679.26 2674.96 2669.63 2666.65 2659.77 2656.28 2653.11 2649.11 2646.68 2645.88 2644.46 2644.31 2645.66 2643.86 2643.13 2642.04 2638.62 2635.79 2632.99 2629.55 2626.86 2623.55 2620.91 2617.87 2614.81 2611.43 2608.06 2604.15 2600.64 2593.30 2588.93 2584.61 2580.70 2578.33 2575.51 2574.00 2569.37 2561.97 2560.86 2559.01 2557.12 2556.92 2558.42 2558.00 2557.69 2556.95 2555.41 2552.48 2549.53 2549.25 2550.18 2551.48 2549.68 2550.68 2550.00 2550.73 2550.02 2550.85 2549.81 2551.29 2549.82 2546.41 2551.31 2545.64 2547.12 2547.38 2547.10 2545.18 2542.71 2538.80 2527.67 2523.61 2518.61 2515.11 2517.13 2515.61 2516.07 2514.98 2513.42 2511.67 2513.73 2513.43 2506.75 2500.42 2492.86 2488.66 2482.96 2469.23 2462.78 2452.45 2447.23 2441.58 2436.98 2435.56 2434.05 2435.15 2430.17 2426.52 2426.43 2425.89 2427.48 2426.18 2427.99 2429.00 2430.49 2431.75 2432.23 2429.98 2432.90 2436.01
2849.67 2848.68 2848.03 2848.89 2849.97 2850.57 2850.76 2850.64 2850.11 2851.00 2852.63 2853.07 2852.41 2851.22 2850.06 2849.31 2849.00 2848.36 2847.64 2846.31 2845.04 2844.25 2843.33 2843.82 2844.56 2845.73 2847.55 2849.78 2852.59 2857.16 2863.15 2881.01 2884.27 2883.30 2882.41 2880.65 2881.39 2883.19 2884.23 2887.06 2888.03 2889.00 2890.67 2892.04 2893.31 2894.20 2895.01 2895.81 2895.85 2895.81 2895.50 2895.19 2892.94 2892.35 2891.96 2891.45 2890.57 2889.13 2887.65 2886.21 2885.02 2883.82 2881.59 2879.54 2877.42 2875.44 2873.27 2870.89 2868.52 2866.72 2864.93 2862.51 2859.99 2857.67 2855.56 2853.57 2851.64 2849.35 2846.83 2844.43 2841.90 2839.37 2836.75 2833.86 2830.52 2827.44 2824.37 2821.01 2817.45 2813.82 2810.54 2807.36 2804.28 2801.68 2799.35 2796.78 2794.00 2791.30 2788.87 2787.93 2785.78 2783.04 2780.28 2777.64 2775.27 2773.03 2770.31 2766.39 2763.94 2761.15 2759.10 2757.08 2756.83 2755.04 2754.03 2753.26 2752.20 2750.54 2748.36 2745.43 2743.22 2741.01 2738.22 2735.97 2733.05 2730.77 2728.48 2725.83 2723.57 2721.99 2719.00 2713.53 2711.44 2709.25 2706.38 2703.10 2701.24 2701.36 2700.19 2698.54 2696.85 2695.15 2696.01 2694.32 2693.37 2692.33 2691.39 2690.55 2688.44 2686.00 2683.28 2680.56 2674.04 2671.05 2663.54 2660.79 2658.04 2653.14 2650.89 2651.09 2649.31 2649.96 2650.87 2649.07 2649.78 2647.40 2645.02 2641.06 2638.26 2634.92 2631.96 2629.00 2625.89 2622.85 2619.47 2616.05 2612.78 2609.26 2605.75 2597.97 2594.40 2590.82 2583.40 2580.50 2577.98 2572.86 2570.02 2566.57 2563.70 2560.64 2564.10 2562.63 2560.26 2559.96 2559.70 2559.32 2557.24 2555.58 2553.45 2556.79 2556.15 2556.37 2555.75 2554.85 2557.89 2559.17 2560.26 2562.50 2561.24 2561.48 2560.13 2558.79 2556.87 2554.99 2550.39 2550.27 2549.83 2547.48 2541.02 2531.77 2525.21 2522.60 2524.93 2526.02 2523.59 2521.55 2518.68 2517.68 2515.32 2515.01 2510.45 2511.62 2508.83 2503.98 2499.96 2497.59 2484.31 2476.25 2466.20 2455.65 2454.74 2445.27 2440.86 2437.60 2434.08 2430.95 2429.58 2429.39 2428.04 2429.23 2432.44 2434.90 2431.12 2428.07 2428.07 2428.07 2428.07 2428.07 2430.21 2434.20
2852.34 2851.28 2851.37 2851.60 2852.12 2852.31 2852.38 2851.83 2851.94 2852.29 2853.28 2854.45 2854.66 2854.04 2853.04 2852.08 2851.95 2851.40 2850.74 2849.76 2848.41 2847.85 2847.24 2847.43 2848.92 2850.03 2852.39 2854.60 2857.71 2861.03 2875.54 2886.64 2888.36 2888.42 2883.76 2884.83 2885.91 2887.45 2888.49 2890.88 2892.15 2892.91 2894.22 2895.28 2896.58 2897.40 2898.29 2899.56 2899.60 2899.30 2899.20 2898.19 2896.58 2895.99 2895.35 2894.63 2893.66 2891.97 2890.66 2889.38 2888.52 2886.79 2884.43 2881.98 2879.64 2877.73 2875.79 2873.51 2871.36 2869.78 2866.97 2864.31 2861.63 2859.33 2857.30 2855.31 2853.31 2851.09 2848.81 2846.78 2844.86 2841.75 2838.80 2835.94 2833.02 2830.21 2827.42 2824.52 2821.38 2817.75 2814.58 2811.35 2807.93 2805.34 2802.99 2800.29 2797.44 2794.67 2792.24 2790.44 2788.29 2786.02 2784.27 2781.63 2779.53 2777.32 2774.45 2770.46 2768.01 2765.07 2763.12 2761.09 2759.98 2758.27 2757.16 2756.74 2754.77 2753.89 2751.84 2748.22 2746.48 2743.39 2741.43 2739.18 2735.59 2733.77 2731.01 2728.51 2726.25 2723.28 2718.45 2712.13 2713.52 2707.95 2705.83 2704.99 2703.21 2702.36 2701.14 2700.52 2699.60 2698.22 2699.06 2697.36 2696.25 2694.96 2694.11 2694.22 2691.98 2689.59 2687.30 2683.92 2678.44 2675.45 2669.35 2665.30 2662.46 2657.87 2657.49 2658.52 2657.38 2656.56 2656.09 2654.29 2655.05 2652.76 2650.83 2646.33 2643.53 2639.77 2637.07 2633.95 2630.87 2627.83 2623.76 2620.26 2617.28 2614.37 2610.86 2604.73 2599.86 2595.52 2590.52 2583.40 2576.97 2574.68 2571.84 2569.33 2570.73 2567.71 2565.95 2564.11 2563.17 2563.27 2560.96 2561.90 2563.78 2565.82 2563.33 2565.53 2565.92 2565.72 2567.27 2567.05 2568.36 2568.76 2568.94 2569.32 2568.07 2567.93 2566.09 2565.01 2562.43 2560.54 2557.98 2556.21 2553.81 2537.75 2546.72 2531.40 2531.26 2529.71 2531.61 2530.54 2528.90 2525.11 2521.57 2517.22 2513.52 2515.10 2518.57 2521.15 2518.64 2509.24 2507.20 2505.18 2492.00 2480.92 2464.59 2458.54 2452.09 2447.58 2442.55 2438.03 2435.55 2434.82 2431.28 2429.74 2428.42 2429.74 2432.62 2431.97 2428.07 2428.07 2428.07 2428.07 2428.07 2428.07 2429.67 2433.19
2855.69 2855.35 2855.46 2855.71 2855.43 2855.27 2854.89 2854.77 2854.69 2854.96 2855.44 2856.38 2857.25 2856.74 2855.61 2854.82 2854.51 2854.10 2853.74 2852.89 2851.93 2851.38 2851.06 2851.36 2852.45 2854.25 2856.41 2859.50 2863.57 2870.20 2884.03 2895.42 2895.21 2892.80 2888.37 2888.90 2890.53 2892.29 2893.16 2895.14 2895.93 2896.71 2898.16 2898.73 2900.24 2900.58 2900.91 2901.68 2901.69 2901.69 2901.37 2901.05 2900.58 2899.98 2898.95 2898.06 2897.18 2894.86 2893.71 2891.97 2890.67 2889.38 2887.07 2884.37 2881.87 2880.21 2878.54 2875.88 2873.05 2870.06 2868.10 2866.13 2863.45 2861.22 2859.11 2856.89 2854.67 2852.37 2850.17 2848.20 2845.98 2843.28 2840.59 2838.06 2835.57 2833.04 2830.51 2827.98 2825.32 2821.39 2818.69 2815.99 2813.40 2810.77 2807.32 2804.04 2801.04 2798.27 2795.77 2793.40 2790.97 2788.53 2787.30 2785.46 2783.61 2781.53 2778.71 2773.78 2771.08 2767.54 2765.30 2763.07 2762.61 2760.61 2758.50 2756.51 2754.52 2753.57 2751.32 2747.69 2745.42 2743.15 2741.79 2739.51 2735.37 2732.97 2730.56 2725.05 2722.78 2719.73 2717.36 2714.18 2712.60 2710.52 2708.34 2706.42 2704.49 2704.14 2702.42 2702.55 2701.01 2699.48 2700.23 2698.70 2698.82 2697.17 2695.51 2695.57 2694.26 2692.22 2689.88 2687.53 2683.22 2679.55 2675.14 2672.78 2670.41 2667.78 2665.90 2667.48 2665.90 2664.33 2666.18 2664.43 2663.77 2661.38 2658.98 2653.30 2650.37 2644.27 2641.11 2637.95 2633.66 2630.47 2627.15 2624.00 2620.85 2616.38 2613.24 2610.74 2607.25 2600.89 2596.35 2586.47 2582.02 2584.72 2583.34 2581.36 2577.01 2574.88 2574.00 2571.19 2569.77 2566.64 2574.66 2573.67 2573.42 2578.15 2577.37 2578.37 2577.49 2576.62 2579.62 2578.64 2578.74 2577.51 2576.27 2575.69 2574.35 2574.65 2573.22 2571.79 2570.07 2568.31 2565.86 2563.64 2561.42 2556.10 2553.52 2549.47 2544.49 2537.95 2533.49 2534.08 2527.98 2518.70 2516.53 2518.93 2521.66 2523.23 2526.06 2527.88 2523.19 2518.36 2514.52 2512.61 2495.82 2480.93 2471.83 2459.76 2454.30 2447.52 2442.95 2442.00 2441.03 2435.92 2433.28 2431.32 2430.38 2429.63 2429.51 2428.07 2428.07 2428.07 2428.07 2428.07 2428.07 2428.07 2429.67 2432.03
2859.75 2860.04 2861.06 2860.86 2860.21 2859.97 2859.23 2858.73 2858.34 2858.31 2858.39 2859.09 2859.67 2859.41 2858.02 2857.85 2857.29 2856.74 2856.27 2855.68 2854.56 2853.67 2853.94 2854.75 2855.94 2857.38 2860.25 2864.94 2868.79 2881.26 2893.59 2900.58 2899.84 2897.15 2894.48 2894.64 2895.68 2896.82 2897.70 2899.55 2900.33 2901.12 2902.39 2902.96 2904.24 2904.57 2904.91 2905.44 2905.45 2905.35 2905.03 2904.71 2904.25 2903.65 2902.57 2901.68 2900.80 2898.47 2897.33 2895.38 2894.09 2892.79 2890.02 2887.14 2884.94 2883.49 2881.83 2878.49 2875.75 2873.13 2871.16 2869.20 2866.51 2864.28 2861.37 2858.61 2856.14 2853.60 2851.37 2849.57 2847.18 2844.80 2842.37 2840.30 2838.76 2836.23 2833.70 2831.30 2828.63 2824.85 2822.15 2819.45 2816.91 2814.28 2810.70 2807.34 2804.40 2801.71 2799.21 2796.91 2794.47 2792.04 2790.97 2789.21 2787.36 2785.37 2782.55 2777.43 2774.72 2771.03 2768.79 2766.55 2765.89 2763.89 2761.47 2759.48 2757.49 2756.27 2754.02 2750.22 2747.96 2745.69 2744.29 2742.01 2737.89 2735.49 2733.08 2727.42 2725.16 2722.07 2719.70 2717.32 2715.31 2713.23 2711.05 2709.13 2707.21 2707.06 2705.35 2705.50 2703.97 2702.43 2703.29 2701.76 2702.07 2700.42 2698.76 2697.88 2696.81 2695.39 2693.69 2690.91 2687.36 2683.89 2679.89 2677.52 2675.16 2672.89 2671.01 2672.71 2671.14 2669.56 2671.65 2669.89 2669.32 2666.92 2664.52 2658.89 2655.96 2649.77 2646.61 2643.45 2638.86 2635.67 2632.43 2629.28 2626.12 2621.72 2618.59 2616.60 2613.11 2610.79 2604.71 2593.29 2594.28 2593.29 2590.84 2586.48 2584.25 2583.11 2581.11 2577.08 2579.54 2579.40 2581.55 2580.93 2580.32 2584.10 2583.32 2584.26 2583.38 2582.51 2585.24 2584.25 2584.11 2582.87 2581.64 2580.99 2579.66 2579.79 2578.36 2576.93 2575.23 2573.46 2571.14 2568.92 2566.70 2561.32 2558.78 2556.49 2552.62 2546.22 2540.17 2537.62 2532.59 2529.63 2526.68 2523.42 2528.33 2531.00 2533.26 2531.78 2526.66 2521.59 2520.72 2516.48 2503.88 2492.08 2482.39 2471.61 2461.33 2448.40 2444.84 2446.39 2443.83 2439.80 2437.41 2435.55 2432.15 2429.21 2428.64 2428.07 2428.07 2428.07 2428.07 2428.07 2428.07 2428.37 2429.51 2432.82
2864.90 2865.93 2866.59 2865.87 2866.00 2865.73 2865.21 2864.24 2863.24 2862.54 2862.16 2862.22 2861.54 2861.42 2860.50 2860.87 2860.21 2859.06 2858.20 2857.14 2856.59 2855.97 2856.35 2857.55 2859.05 2861.40 2865.26 2870.01 2875.72 2887.61 2902.11 2904.46 2903.68 2900.86 2899.47 2900.42 2901.04 2901.65 2902.39 2904.51 2905.68 2906.21 2906.83 2907.21 2907.65 2907.64 2908.06 2908.27 2908.13 2907.70 2906.95 2906.90 2906.35 2905.66 2904.71 2903.46 2902.99 2901.43 2899.90 2897.92 2896.09 2895.00 2892.65 2889.93 2888.28 2886.63 2884.00 2880.56 2878.67 2876.28 2874.06 2871.81 2869.17 2866.49 2863.41 2860.52 2858.10 2855.23 2852.88 2851.55 2850.03 2847.19 2844.35 2842.00 2840.28 2838.06 2835.82 2833.28 2830.77 2827.87 2825.15 2822.27 2818.76 2816.11 2813.15 2810.18 2807.45 2804.55 2802.07 2800.10 2797.85 2795.87 2795.13 2792.76 2790.41 2787.88 2784.73 2780.62 2778.16 2775.15 2772.91 2770.15 2767.44 2765.22 2763.29 2761.13 2758.55 2755.62 2753.27 2750.87 2748.34 2745.52 2740.78 2738.53 2737.00 2734.44 2732.90 2729.39 2727.26 2725.26 2723.38 2721.37 2720.13 2718.13 2715.56 2713.70 2711.42 2710.02 2708.22 2707.76 2706.18 2704.98 2704.89 2703.38 2703.57 2701.92 2700.91 2700.21 2699.39 2698.14 2695.93 2693.92 2691.31 2689.02 2686.19 2684.48 2682.19 2681.28 2679.60 2680.43 2679.97 2677.96 2678.71 2677.01 2676.14 2674.35 2671.26 2666.47 2663.96 2660.06 2653.72 2649.97 2645.80 2642.00 2638.21 2635.31 2632.17 2628.91 2625.89 2623.48 2620.70 2618.07 2614.53 2611.91 2609.41 2606.36 2603.51 2602.32 2600.11 2597.03 2596.41 2592.86 2594.94 2593.51 2592.61 2592.37 2590.64 2592.07 2591.05 2591.37 2591.02 2589.65 2590.03 2588.83 2587.95 2586.38 2585.43 2584.51 2583.15 2583.24 2581.88 2580.87 2579.77 2578.14 2577.55 2576.39 2573.96 2570.95 2568.70 2565.60 2562.93 2557.52 2552.12 2548.80 2541.36 2537.99 2533.95 2534.27 2535.02 2535.53 2537.22 2533.72 2528.93 2526.66 2525.27 2518.13 2511.68 2504.62 2488.96 2478.06 2472.37 2461.29 2447.91 2447.20 2444.29 2441.32 2438.56 2434.19 2430.99 2429.87 2430.53 2428.48 2428.41 2430.26 2429.82 2430.61 2433.42 2432.58 2435.98 2434.43
2870.75 2871.19 2872.27 2872.14 2871.72 2870.96 2870.87 2869.54 2868.78 2867.68 2866.69 2866.08 2865.69 2865.70 2865.15 2864.21 2863.08 2861.09 2859.77 2858.85 2857.88 2857.70 2859.15 2861.47 2864.29 2870.08 2878.20 2878.18 2881.33 2888.72 2906.40 2911.95 2908.63 2904.87 2904.57 2905.44 2906.16 2906.41 2907.14 2909.74 2910.41 2911.08 2911.41 2911.59 2911.66 2911.78 2911.90 2912.20 2912.06 2911.11 2910.69 2910.26 2910.00 2909.31 2907.95 2906.99 2906.04 2904.35 2902.65 2900.82 2899.48 2898.13 2895.84 2893.46 2891.62 2889.34 2886.60 2883.74 2881.85 2879.32 2876.89 2874.47 2871.80 2868.93 2865.90 2863.52 2861.15 2858.11 2855.75 2853.69 2851.78 2849.45 2847.25 2844.89 2842.35 2840.01 2838.31 2836.39 2833.88 2831.00 2828.36 2825.72 2821.99 2819.34 2816.13 2813.49 2810.85 2807.81 2805.33 2803.51 2801.16 2798.81 2798.55 2796.18 2793.03 2790.08 2787.10 2783.95 2781.48 2778.49 2776.10 2773.71 2770.38 2768.16 2765.58 2763.06 2760.56 2758.12 2755.76 2752.63 2750.42 2748.22 2743.40 2741.15 2739.51 2737.35 2735.18 2732.56 2730.43 2728.80 2726.78 2724.76 2723.68 2721.68 2719.21 2717.22 2715.23 2713.39 2711.59 2711.03 2709.44 2707.85 2708.10 2706.58 2706.85 2705.23 2703.61 2702.91 2702.28 2701.62 2699.62 2697.61 2695.33 2693.23 2690.96 2688.91 2686.87 2685.96 2684.28 2686.27 2684.75 2683.24 2683.79 2682.10 2681.87 2679.65 2677.44 2672.43 2669.92 2670.71 2660.41 2656.66 2653.58 2649.49 2644.43 2641.29 2638.14 2634.80 2631.78 2629.82 2626.83 2623.84 2621.84 2619.66 2617.16 2614.77 2611.94 2609.22 2607.01 2604.89 2603.08 2601.26 2601.10 2599.68 2599.40 2598.21 2597.02 2597.47 2596.45 2597.25 2596.19 2595.12 2594.96 2593.75 2592.49 2591.17 2589.85 2589.23 2587.87 2587.93 2586.51 2585.08 2584.46 2582.83 2583.22 2581.25 2579.28 2576.22 2573.97 2571.39 2568.32 2565.25 2557.99 2554.68 2546.31 2543.33 2540.24 2539.26 2539.81 2541.01 2538.87 2537.63 2534.13 2530.63 2525.35 2520.52 2515.85 2509.72 2499.77 2491.34 2482.57 2468.26 2454.33 2449.73 2452.16 2444.81 2438.28 2434.90 2433.24 2430.93 2430.28 2434.50 2435.69 2432.73 2432.67 2434.52 2436.51 2439.50 2442.40 2444.70
2875.93 2876.99 2877.43 2877.46 2875.77 2876.31 2875.81 2875.02 2874.03 2873.07 2871.79 2870.39 2869.22 2868.54 2868.10 2867.27 2866.16 2864.52 2862.52 2860.95 2860.04 2861.13 2863.58 2867.31 2873.17 2893.87 2902.10 2903.82 2904.21 2907.09 2910.30 2914.00 2911.97 2910.62 2910.53 2910.46 2911.38 2911.16 2911.90 2914.38 2915.14 2916.00 2916.09 2916.20 2916.07 2915.93 2915.98 2916.14 2916.00 2915.08 2914.43 2913.98 2913.65 2912.96 2911.54 2910.53 2909.16 2907.21 2905.61 2903.95 2902.86 2901.06 2898.85 2896.53 2894.33 2891.89 2889.32 2886.92 2885.03 2882.10 2879.63 2877.28 2874.65 2871.83 2869.02 2866.53 2863.82 2860.98 2858.62 2855.65 2853.33 2851.35 2850.14 2847.79 2845.23 2842.90 2841.10 2839.49 2836.99 2833.91 2831.57 2828.48 2825.23 2822.57 2819.56 2816.80 2813.90 2811.07 2808.59 2806.52 2804.48 2801.73 2799.85 2797.43 2794.60 2791.93 2789.48 2787.27 2784.81 2781.28 2779.29 2776.25 2773.32 2771.10 2767.70 2764.97 2762.60 2760.62 2758.26 2753.28 2751.50 2749.40 2746.02 2743.77 2742.68 2740.25 2738.48 2735.73 2733.60 2732.42 2730.18 2728.84 2727.23 2725.23 2723.16 2720.75 2719.15 2716.76 2714.96 2714.13 2712.69 2711.45 2711.30 2709.79 2709.66 2708.54 2706.64 2705.87 2704.94 2704.61 2703.31 2701.04 2698.92 2696.99 2695.10 2693.35 2691.47 2690.63 2688.96 2690.01 2689.54 2688.12 2688.87 2687.18 2686.19 2684.96 2681.64 2678.39 2675.88 2677.04 2673.63 2667.19 2663.56 2659.16 2652.92 2647.27 2645.29 2640.69 2637.67 2635.97 2632.97 2630.99 2629.24 2627.05 2624.63 2622.16 2619.32 2616.11 2613.91 2611.90 2609.74 2608.42 2607.27 2605.84 2604.99 2604.04 2602.72 2602.88 2601.85 2601.93 2601.36 2600.10 2599.88 2598.68 2597.28 2595.95 2594.59 2593.95 2592.58 2592.24 2591.13 2589.73 2589.15 2587.52 2587.20 2586.11 2583.54 2581.50 2580.43 2578.08 2573.71 2570.29 2563.87 2560.56 2554.14 2548.67 2545.30 2543.60 2542.27 2544.19 2545.82 2543.20 2538.39 2532.60 2526.02 2524.78 2520.26 2514.04 2507.06 2493.75 2486.46 2476.51 2461.65 2458.30 2455.83 2445.19 2440.08 2437.91 2435.14 2432.46 2431.52 2436.22 2435.49 2433.92 2434.04 2438.55 2443.42 2447.62 2448.45 2448.64
2881.79 2880.69 2881.75 2880.95 2881.02 2880.65 2880.37 2880.18 2879.35 2878.31 2876.91 2875.28 2873.55 2872.25 2871.46 2870.64 2869.78 2868.58 2866.88 2865.22 2864.45 2868.08 2875.83 2885.19 2891.84 2912.34 2918.19 2921.36 2921.83 2920.17 2915.13 2914.74 2914.95 2915.34 2916.95 2917.74 2918.52 2918.30 2919.01 2920.79 2921.17 2921.55 2920.87 2920.99 2920.68 2920.33 2920.01 2919.62 2919.31 2918.76 2918.12 2917.52 2916.90 2915.96 2914.54 2913.44 2912.35 2909.97 2908.65 2906.55 2905.11 2903.67 2901.69 2899.36 2896.93 2894.41 2891.90 2889.57 2887.27 2884.34 2882.31 2880.27 2877.65 2874.82 2871.98 2869.18 2866.19 2863.14 2860.29 2857.06 2854.72 2852.37 2851.02 2849.05 2846.88 2844.77 2842.95 2841.13 2838.64 2835.50 2833.05 2830.61 2828.01 2825.49 2822.59 2819.58 2816.38 2813.16 2810.70 2808.60 2806.34 2803.69 2801.06 2798.67 2796.17 2793.77 2791.38 2788.85 2785.72 2781.77 2779.46 2777.15 2773.94 2771.65 2768.87 2766.65 2764.02 2761.03 2758.87 2755.70 2754.11 2752.22 2750.85 2748.86 2748.22 2746.32 2744.42 2742.89 2740.93 2738.68 2736.72 2734.77 2733.46 2731.54 2728.87 2726.77 2724.68 2721.63 2719.57 2718.14 2716.35 2714.56 2713.58 2711.96 2712.37 2710.75 2709.12 2709.11 2707.45 2707.49 2705.68 2703.87 2702.17 2700.46 2698.77 2696.97 2695.16 2694.79 2693.23 2693.51 2692.14 2690.77 2692.73 2691.20 2689.21 2687.45 2685.69 2688.03 2685.76 2683.34 2676.41 2673.05 2672.51 2669.45 2663.51 2660.20 2656.88 2650.15 2647.04 2644.46 2641.67 2638.87 2636.67 2634.05 2631.52 2629.06 2626.60 2623.69 2621.43 2619.17 2617.17 2615.17 2612.47 2610.72 2609.52 2608.11 2606.71 2607.08 2605.89 2605.73 2604.56 2603.39 2603.18 2601.94 2601.32 2599.99 2598.66 2598.11 2596.72 2596.48 2595.06 2593.65 2593.42 2591.81 2590.50 2588.71 2586.92 2587.10 2585.14 2583.20 2580.80 2578.19 2574.47 2571.29 2564.97 2561.34 2557.70 2548.71 2549.30 2550.60 2547.20 2544.15 2540.83 2535.02 2531.13 2527.00 2522.52 2517.24 2511.29 2499.37 2490.69 2479.33 2468.33 2462.08 2457.44 2448.74 2444.25 2443.81 2441.00 2437.36 2434.07 2434.98 2436.63 2439.21 2442.29 2448.81 2451.72 2453.40 2454.14 2455.31
2887.25 2886.81 2886.45 2885.85 2885.25 2885.09 2884.83 2884.84 2884.58 2883.51 2882.45 2880.94 2878.99 2877.00 2875.43 2874.66 2874.11 2873.41 2870.07 2871.75 2874.52 2879.40 2887.12 2898.46 2905.83 2918.22 2925.26 2925.83 2924.16 2920.44 2914.96 2917.55 2919.33 2920.82 2922.18 2922.97 2923.75 2924.61 2925.27 2925.69 2926.07 2926.45 2925.50 2925.61 2925.27 2924.84 2924.32 2923.68 2923.37 2922.63 2921.81 2921.01 2920.17 2919.19 2918.10 2917.00 2915.91 2913.45 2912.13 2909.92 2908.48 2907.04 2904.73 2902.19 2899.60 2897.06 2894.68 2892.77 2890.17 2887.44 2885.41 2883.38 2880.65 2877.78 2874.87 2871.85 2868.52 2865.21 2862.49 2859.78 2857.43 2855.09 2852.40 2850.10 2848.17 2846.20 2844.46 2842.72 2840.73 2838.47 2836.03 2833.58 2830.93 2828.52 2825.57 2822.41 2819.17 2816.21 2813.75 2810.88 2808.25 2806.01 2804.08 2801.69 2799.19 2796.79 2794.40 2790.80 2787.67 2784.74 2782.43 2780.12 2776.94 2774.65 2771.98 2769.76 2767.09 2764.07 2761.92 2759.71 2757.60 2755.49 2754.36 2752.37 2751.91 2750.01 2748.11 2746.95 2744.98 2742.65 2740.70 2738.74 2737.79 2736.02 2733.25 2731.15 2729.06 2725.93 2723.86 2722.14 2720.35 2718.56 2717.50 2715.89 2716.24 2714.62 2713.00 2713.02 2711.36 2711.28 2709.47 2707.65 2705.65 2703.93 2702.74 2700.93 2699.13 2698.80 2697.24 2697.58 2696.21 2694.84 2697.20 2695.67 2694.01 2692.25 2690.50 2693.44 2691.17 2689.18 2682.47 2679.11 2678.27 2675.21 2669.49 2666.17 2662.85 2656.09 2652.97 2650.36 2647.56 2644.77 2642.49 2639.87 2637.24 2634.78 2632.32 2629.35 2627.10 2624.73 2622.72 2620.72 2617.62 2615.88 2614.31 2612.90 2611.50 2611.63 2610.44 2610.13 2608.96 2607.79 2607.54 2606.31 2605.71 2604.38 2603.04 2602.50 2601.11 2600.81 2599.39 2597.97 2597.78 2596.16 2594.86 2593.07 2591.28 2591.72 2589.61 2588.31 2585.71 2583.10 2579.68 2576.50 2570.32 2566.69 2559.03 2556.39 2557.31 2554.14 2549.53 2546.14 2542.95 2538.06 2533.56 2528.43 2522.68 2517.62 2510.92 2497.36 2486.95 2476.55 2469.72 2472.27 2460.12 2457.15 2456.68 2448.59 2445.78 2443.81 2441.24 2439.86 2439.33 2444.30 2451.37 2455.53 2458.08 2460.94 2460.20 2451.20
2892.97 2892.32 2891.63 2890.75 2890.07 2889.78 2889.65 2889.56 2889.39 2888.26 2887.54 2886.14 2884.28 2882.38 2880.63 2879.23 2878.48 2878.00 2877.30 2877.71 2878.60 2883.57 2898.16 2905.74 2913.32 2921.29 2925.60 2927.71 2924.82 2921.25 2924.02 2923.82 2926.19 2927.20 2928.28 2929.36 2929.99 2930.88 2931.42 2931.15 2931.35 2931.55 2931.29 2931.18 2930.00 2929.41 2928.80 2927.79 2927.29 2926.45 2925.47 2924.50 2923.45 2922.27 2920.96 2919.49 2918.38 2916.08 2914.68 2912.73 2911.06 2909.73 2907.52 2904.94 2902.32 2899.88 2897.86 2895.97 2893.03 2890.06 2887.63 2885.78 2883.33 2880.61 2877.77 2874.73 2871.03 2867.30 2864.82 2861.89 2859.16 2856.76 2853.66 2851.34 2849.81 2847.79 2846.14 2844.47 2842.86 2841.00 2838.64 2836.43 2834.01 2831.60 2828.48 2825.23 2821.79 2818.43 2815.96 2812.95 2810.14 2807.98 2805.80 2803.40 2800.56 2797.58 2795.45 2792.20 2789.83 2787.54 2785.31 2782.93 2780.24 2778.11 2775.80 2773.72 2771.66 2769.86 2767.79 2765.69 2764.16 2761.64 2760.30 2758.40 2755.77 2753.57 2752.72 2754.27 2752.65 2749.36 2746.78 2744.62 2742.74 2740.88 2738.82 2737.96 2735.70 2733.84 2731.60 2727.95 2725.96 2724.44 2724.99 2723.30 2721.89 2720.33 2718.45 2717.52 2715.59 2714.43 2712.33 2710.70 2708.85 2706.86 2705.46 2703.45 2701.83 2700.37 2698.79 2699.75 2698.69 2697.74 2698.29 2697.02 2698.18 2697.46 2695.27 2694.73 2697.39 2694.77 2691.81 2689.13 2684.38 2681.42 2675.66 2671.98 2668.85 2665.07 2662.02 2657.58 2654.52 2651.20 2648.21 2645.49 2642.49 2639.89 2637.41 2634.79 2632.52 2629.92 2627.73 2625.42 2622.15 2620.21 2618.09 2616.23 2614.86 2613.79 2612.46 2612.50 2611.24 2610.42 2609.56 2608.36 2608.29 2606.98 2606.21 2605.83 2604.50 2604.29 2603.03 2601.88 2601.34 2599.76 2598.57 2596.83 2595.20 2594.44 2592.48 2591.53 2589.06 2586.75 2583.65 2580.78 2577.15 2573.71 2563.66 2561.89 2562.54 2560.40 2555.95 2548.60 2546.24 2540.96 2534.87 2531.11 2526.92 2521.43 2503.94 2498.45 2484.70 2482.57 2483.73 2476.79 2466.11 2466.35 2462.42 2456.28 2454.49 2453.87 2450.01 2449.79 2455.46 2458.45 2460.79 2463.86 2466.02 2465.14 2458.34 2457.39
2898.38 2897.58 2896.67 2895.89 2895.10 2894.69 2894.93 2894.64 2894.03 2893.65 2892.57 2891.16 2889.40 2887.57 2885.70 2884.24 2883.19 2882.33 2882.14 2882.71 2883.74 2887.67 2899.30 2908.52 2916.15 2923.62 2928.34 2929.48 2929.46 2929.70 2928.76 2929.27 2931.21 2932.22 2933.54 2934.36 2935.19 2935.74 2936.27 2935.87 2936.07 2936.27 2935.84 2935.73 2934.00 2933.64 2933.27 2931.84 2931.34 2930.28 2929.09 2928.03 2926.80 2925.46 2924.15 2922.97 2921.80 2919.51 2918.11 2915.85 2914.32 2912.79 2910.34 2907.67 2905.05 2902.63 2900.80 2898.59 2895.69 2892.75 2890.68 2888.62 2886.11 2883.41 2880.67 2877.95 2874.08 2870.23 2867.75 2864.41 2861.92 2859.43 2856.33 2854.00 2852.55 2850.42 2848.43 2846.54 2845.18 2843.69 2841.46 2839.24 2836.69 2834.08 2831.14 2828.20 2824.83 2821.56 2819.09 2815.73 2813.33 2810.92 2808.91 2806.52 2803.13 2800.70 2798.26 2795.45 2793.08 2790.76 2788.45 2786.02 2783.54 2781.40 2779.62 2777.75 2775.67 2773.44 2771.38 2769.97 2768.02 2766.07 2764.35 2762.46 2759.44 2757.75 2756.07 2758.75 2757.13 2755.14 2753.27 2751.78 2750.90 2750.23 2745.09 2743.25 2741.41 2739.47 2737.23 2733.03 2731.00 2728.96 2729.89 2728.20 2726.91 2725.16 2723.40 2722.08 2720.15 2718.67 2716.66 2714.65 2712.95 2710.96 2709.22 2707.37 2705.53 2704.12 2702.53 2703.69 2702.37 2701.05 2702.30 2701.04 2703.24 2701.70 2700.15 2698.97 2697.26 2697.57 2696.98 2692.87 2689.26 2686.31 2680.21 2677.05 2673.88 2670.41 2667.36 2662.47 2659.54 2656.62 2653.19 2650.48 2647.04 2644.51 2641.98 2639.33 2637.06 2634.34 2632.25 2630.16 2626.62 2624.67 2622.01 2620.37 2618.74 2617.72 2616.39 2616.36 2615.13 2613.91 2613.45 2612.26 2612.23 2610.98 2609.72 2609.78 2608.45 2608.40 2606.99 2605.58 2605.31 2603.72 2602.58 2600.83 2599.09 2598.62 2596.67 2595.79 2593.40 2591.01 2588.30 2585.43 2582.36 2578.69 2573.71 2568.63 2566.41 2564.61 2559.89 2555.12 2546.03 2543.04 2537.23 2533.37 2527.40 2516.14 2506.01 2499.37 2496.53 2491.98 2488.64 2475.13 2476.49 2474.16 2468.98 2465.51 2464.56 2463.16 2460.10 2462.79 2465.23 2467.50 2469.94 2471.59 2471.12 2464.77 2463.59 2462.18
2903.13 2902.10 2900.93 2898.99 2900.23 2900.94 2900.28 2899.21 2899.45 2898.48 2897.29 2895.80 2894.39 2892.59 2890.81 2889.27 2888.13 2887.16 2887.06 2887.48 2888.57 2890.86 2900.58 2909.66 2916.39 2925.74 2930.01 2931.42 2929.28 2933.06 2933.49 2934.36 2936.23 2937.24 2938.48 2939.37 2939.96 2940.60 2941.13 2940.95 2940.79 2940.88 2940.39 2940.28 2938.50 2937.86 2937.05 2935.89 2935.39 2934.02 2932.57 2931.59 2930.14 2928.64 2927.31 2926.45 2924.80 2922.93 2921.53 2919.10 2917.58 2915.49 2912.95 2910.33 2907.92 2905.86 2904.03 2901.42 2898.54 2895.81 2893.73 2891.48 2888.90 2886.13 2883.29 2880.79 2877.20 2873.56 2870.54 2867.40 2864.68 2861.83 2858.99 2856.67 2854.67 2853.04 2851.29 2849.24 2847.48 2845.99 2844.29 2841.59 2839.01 2836.45 2833.75 2831.38 2828.07 2824.69 2822.22 2819.17 2816.51 2814.30 2812.02 2809.63 2806.57 2803.81 2801.53 2798.69 2796.32 2794.22 2791.93 2789.44 2786.83 2784.69 2783.66 2781.97 2779.79 2777.03 2774.97 2773.89 2772.20 2770.20 2768.40 2766.51 2764.82 2761.94 2762.20 2763.23 2761.60 2760.71 2759.39 2758.04 2756.91 2754.94 2752.96 2750.36 2749.25 2749.96 2748.20 2741.82 2736.04 2735.79 2734.79 2733.10 2732.60 2729.99 2728.77 2726.64 2724.71 2723.26 2720.99 2719.51 2717.05 2715.06 2713.28 2711.30 2709.63 2707.86 2706.28 2706.55 2706.05 2704.80 2706.31 2705.05 2706.00 2705.94 2703.64 2703.21 2701.49 2700.26 2698.84 2696.93 2694.29 2691.20 2685.57 2682.11 2678.87 2675.75 2672.70 2667.40 2664.56 2661.13 2658.18 2655.47 2651.10 2649.14 2645.84 2643.88 2641.61 2638.44 2636.76 2633.72 2631.08 2629.14 2626.18 2624.51 2622.65 2621.65 2620.32 2619.70 2619.03 2617.39 2617.35 2616.16 2615.61 2614.97 2613.85 2613.74 2612.41 2611.84 2610.95 2609.38 2609.27 2607.68 2606.07 2604.83 2602.97 2602.81 2600.85 2599.27 2597.73 2594.89 2592.95 2590.08 2587.35 2583.67 2579.04 2573.39 2571.83 2567.47 2563.76 2556.40 2549.16 2540.73 2539.92 2528.03 2523.49 2514.52 2507.60 2507.94 2501.46 2497.61 2485.85 2486.14 2483.55 2478.63 2475.99 2473.94 2475.57 2474.87 2474.03 2474.63 2473.55 2476.20 2475.52 2476.25 2473.28 2470.05 2468.19 2469.43
2907.11 2904.99 2901.44 2904.05 2904.14 2905.36 2906.47 2906.06 2905.22 2903.84 2902.39 2900.93 2899.36 2897.64 2895.84 2894.34 2893.13 2892.01 2891.80 2892.27 2893.47 2895.59 2900.69 2911.68 2918.30 2926.89 2932.92 2933.46 2932.88 2935.97 2937.25 2938.53 2940.74 2941.65 2943.03 2943.61 2944.19 2944.90 2945.17 2945.66 2945.64 2945.61 2944.61 2943.52 2941.74 2941.15 2940.56 2939.61 2938.84 2937.49 2935.99 2935.02 2933.33 2931.57 2929.77 2928.45 2927.13 2925.45 2923.58 2921.06 2919.42 2917.77 2915.36 2912.85 2910.65 2908.78 2906.67 2904.05 2901.28 2898.56 2896.44 2894.32 2891.70 2888.96 2886.19 2883.63 2880.10 2876.58 2873.34 2870.14 2867.07 2863.90 2860.75 2858.39 2855.84 2853.62 2851.39 2850.27 2848.96 2847.50 2845.34 2843.18 2841.14 2838.96 2836.68 2834.31 2831.54 2828.67 2825.83 2822.92 2820.56 2818.20 2815.72 2813.20 2810.44 2808.11 2805.79 2803.05 2800.80 2798.29 2795.90 2793.53 2791.29 2789.51 2788.44 2786.42 2784.41 2781.76 2779.74 2778.48 2776.79 2775.11 2775.61 2774.00 2773.71 2772.15 2770.59 2770.11 2768.53 2766.85 2765.07 2763.28 2761.75 2759.64 2757.82 2755.97 2754.20 2754.66 2752.60 2750.93 2749.13 2747.33 2745.31 2743.53 2742.44 2740.89 2739.33 2740.85 2735.07 2730.83 2728.61 2726.39 2723.26 2720.61 2718.15 2716.08 2714.01 2711.31 2709.46 2708.91 2707.30 2705.69 2707.09 2707.05 2706.99 2705.47 2703.95 2705.20 2703.44 2702.40 2700.34 2700.90 2695.40 2692.69 2688.54 2685.64 2682.75 2678.97 2674.80 2669.31 2666.45 2663.59 2660.25 2656.45 2651.47 2648.97 2646.46 2644.17 2641.90 2639.43 2637.29 2635.15 2633.00 2630.94 2628.51 2626.79 2625.06 2623.32 2621.79 2621.64 2620.85 2618.86 2618.79 2618.37 2617.74 2616.77 2615.95 2614.94 2613.64 2613.89 2612.48 2611.07 2610.82 2609.24 2607.89 2606.19 2604.48 2604.31 2602.97 2601.17 2599.04 2596.91 2596.15 2594.54 2592.56 2589.24 2585.91 2578.53 2574.24 2569.37 2563.93 2555.81 2554.05 2549.59 2543.00 2530.37 2522.30 2516.75 2518.87 2513.04 2506.55 2497.93 2496.09 2492.80 2487.73 2485.99 2483.97 2483.68 2482.70 2482.02 2482.12 2480.21 2481.02 2481.55 2481.86 2481.61 2478.20 2475.59 2475.76 2474.61
2911.52 2911.23 2911.77 2912.72 2912.26 2910.45 2911.74 2911.50 2910.38 2909.11 2907.36 2905.79 2904.02 2902.24 2900.67 2898.97 2897.44 2896.98 2896.65 2897.02 2898.16 2900.11 2904.05 2914.85 2919.65 2926.46 2935.21 2935.66 2937.88 2940.41 2941.69 2942.97 2945.24 2946.15 2947.41 2947.99 2948.57 2949.12 2949.39 2949.72 2949.70 2949.67 2948.29 2947.02 2945.50 2944.91 2944.32 2943.19 2942.42 2941.01 2939.58 2938.22 2936.43 2934.76 2932.91 2931.59 2930.27 2928.11 2926.15 2923.99 2922.35 2920.71 2917.93 2915.45 2913.57 2911.70 2909.33 2906.68 2904.12 2901.39 2899.27 2897.15 2894.37 2891.62 2888.49 2885.53 2882.45 2879.26 2876.06 2872.82 2869.57 2866.33 2863.34 2860.98 2858.31 2856.08 2853.85 2852.09 2850.70 2850.04 2847.88 2845.72 2843.57 2841.52 2839.43 2837.25 2834.95 2832.59 2829.50 2826.18 2823.82 2821.46 2819.39 2816.89 2813.70 2811.37 2809.05 2806.36 2804.11 2802.06 2799.90 2797.75 2795.71 2793.78 2791.89 2789.87 2787.86 2785.90 2783.98 2782.20 2780.52 2778.83 2779.60 2777.98 2777.87 2776.31 2774.76 2774.31 2772.72 2771.11 2769.32 2767.54 2766.65 2764.77 2762.26 2760.57 2758.87 2758.45 2756.77 2755.78 2753.98 2752.18 2750.03 2748.25 2747.10 2745.54 2746.93 2745.22 2740.96 2735.32 2733.10 2730.88 2728.86 2726.16 2722.14 2720.08 2718.01 2715.05 2713.19 2712.42 2710.80 2709.19 2709.39 2709.38 2710.47 2708.95 2707.43 2708.83 2707.07 2706.09 2704.03 2701.96 2699.30 2696.60 2692.80 2689.91 2687.01 2681.83 2677.75 2673.37 2670.51 2667.66 2662.37 2658.53 2655.28 2652.77 2650.26 2647.90 2645.63 2643.29 2641.15 2639.01 2634.95 2632.81 2632.23 2630.51 2628.78 2627.02 2625.49 2624.67 2623.90 2622.51 2621.14 2620.75 2620.05 2618.62 2618.60 2618.55 2617.25 2617.52 2616.11 2614.70 2614.36 2612.79 2611.48 2609.77 2608.07 2606.75 2605.54 2605.15 2603.02 2600.90 2600.28 2598.81 2597.12 2593.80 2590.47 2583.85 2577.32 2569.90 2569.69 2562.66 2558.03 2553.53 2545.90 2540.80 2530.14 2525.53 2522.44 2516.36 2508.57 2506.16 2502.22 2496.78 2494.54 2492.02 2491.27 2490.24 2490.32 2489.51 2488.36 2487.93 2488.85 2489.74 2488.96 2483.50 2481.89 2478.97 2478.05 2477.53
2915.63 2915.97 2916.53 2916.85 2916.14 2917.24 2917.78 2917.34 2916.25 2914.44 2912.19 2910.45 2908.45 2906.49 2905.06 2903.60 2902.47 2901.90 2901.51 2901.84 2902.65 2905.04 2908.52 2916.79 2922.89 2928.02 2936.99 2936.71 2940.08 2943.87 2945.76 2947.22 2949.00 2949.77 2950.99 2951.46 2952.11 2952.44 2952.50 2952.50 2952.05 2952.16 2951.28 2950.78 2949.86 2949.35 2948.29 2946.56 2945.60 2944.27 2943.01 2941.58 2939.51 2938.21 2936.31 2934.57 2932.76 2930.51 2928.92 2926.88 2925.06 2923.20 2920.41 2918.51 2916.25 2914.08 2911.93 2909.28 2907.17 2904.44 2901.97 2899.53 2896.77 2894.27 2890.57 2887.41 2884.78 2881.91 2878.82 2875.56 2872.22 2868.81 2865.55 2863.09 2860.22 2857.87 2855.88 2853.90 2851.80 2851.14 2849.07 2847.41 2845.77 2844.05 2842.09 2840.03 2837.87 2835.63 2833.37 2830.74 2828.33 2825.77 2823.52 2821.21 2817.98 2815.31 2812.92 2810.67 2808.49 2806.10 2803.87 2801.78 2799.87 2797.85 2795.70 2793.66 2791.73 2789.97 2788.09 2786.26 2784.70 2783.51 2783.33 2781.73 2781.18 2779.77 2778.90 2779.61 2778.10 2777.30 2775.61 2773.53 2772.39 2770.55 2768.10 2766.52 2764.71 2763.10 2761.48 2761.92 2760.27 2758.61 2757.81 2756.12 2753.17 2750.89 2750.03 2747.87 2747.61 2745.99 2740.94 2737.74 2735.13 2732.79 2728.14 2725.71 2722.91 2719.71 2717.63 2716.01 2714.39 2713.02 2712.30 2710.69 2711.56 2711.04 2710.03 2709.47 2707.84 2707.90 2706.87 2704.87 2703.08 2700.77 2697.02 2693.25 2688.96 2683.38 2680.38 2674.95 2670.63 2667.99 2662.86 2659.94 2656.21 2652.53 2650.21 2646.09 2643.65 2643.37 2642.01 2639.39 2635.16 2633.28 2632.95 2630.97 2630.06 2628.70 2627.19 2627.27 2626.27 2625.32 2624.36 2623.96 2623.59 2622.23 2621.62 2621.13 2620.20 2619.72 2618.46 2616.85 2615.11 2613.60 2612.94 2611.14 2610.08 2609.02 2607.39 2607.60 2606.80 2605.76 2605.17 2602.80 2601.00 2597.94 2594.67 2589.08 2581.83 2577.71 2572.36 2566.05 2561.39 2556.49 2549.19 2541.60 2532.04 2530.71 2526.81 2522.45 2516.35 2511.77 2507.55 2501.31 2498.79 2498.27 2497.58 2496.91 2497.11 2496.18 2496.61 2497.18 2497.55 2496.41 2492.39 2485.28 2486.17 2483.82 2482.83 2483.95
2920.09 2920.52 2920.84 2920.69 2921.03 2921.82 2922.03 2922.17 2920.61 2919.10 2917.31 2914.77 2913.43 2911.35 2909.70 2908.41 2907.33 2906.50 2906.17 2906.50 2908.13 2910.20 2913.47 2922.48 2929.52 2935.62 2940.36 2942.42 2945.44 2949.09 2950.28 2951.48 2953.39 2954.16 2955.25 2955.66 2956.06 2956.42 2956.48 2956.06 2955.81 2955.56 2954.92 2954.42 2953.64 2952.89 2952.14 2949.96 2949.00 2947.42 2946.29 2945.15 2942.72 2941.42 2939.45 2937.54 2935.61 2933.54 2931.94 2929.77 2928.01 2926.24 2923.35 2921.44 2918.96 2916.95 2914.93 2912.09 2909.98 2907.17 2904.54 2902.04 2899.50 2897.00 2892.73 2890.16 2887.59 2884.75 2881.73 2878.46 2875.13 2871.71 2868.34 2865.88 2862.85 2860.50 2858.41 2856.51 2854.41 2853.72 2851.67 2849.62 2848.22 2846.76 2844.78 2842.77 2840.72 2838.67 2836.82 2835.00 2832.75 2829.69 2826.72 2824.41 2821.68 2819.08 2816.54 2813.95 2811.77 2809.64 2807.51 2805.36 2803.20 2801.17 2799.29 2797.37 2795.41 2793.46 2791.58 2790.09 2788.74 2787.65 2786.93 2785.33 2784.85 2783.38 2781.91 2783.27 2781.76 2781.23 2779.54 2777.76 2776.09 2774.25 2772.33 2770.51 2768.70 2766.86 2765.25 2766.01 2764.12 2762.63 2761.64 2759.95 2757.50 2755.14 2753.36 2751.44 2750.59 2749.53 2745.24 2742.88 2738.85 2736.51 2731.84 2729.54 2727.23 2723.40 2721.32 2719.41 2717.80 2716.56 2715.64 2714.03 2713.91 2713.45 2712.97 2712.85 2711.22 2711.01 2710.50 2708.50 2706.88 2704.56 2700.82 2696.79 2692.38 2687.54 2684.54 2677.78 2674.79 2671.80 2667.09 2664.17 2659.17 2656.48 2653.79 2649.86 2647.42 2645.58 2643.75 2641.51 2639.03 2637.14 2636.37 2634.73 2633.09 2632.47 2630.96 2631.42 2629.99 2628.56 2627.64 2627.05 2626.66 2625.84 2624.57 2623.57 2622.58 2621.81 2620.74 2619.58 2618.52 2617.00 2616.25 2614.70 2613.14 2612.87 2611.23 2611.25 2610.78 2610.09 2609.46 2607.10 2605.52 2602.43 2599.34 2593.94 2590.13 2587.80 2582.73 2577.65 2566.09 2560.95 2553.56 2545.10 2536.33 2533.02 2529.48 2525.24 2520.47 2513.03 2509.75 2507.61 2505.69 2503.83 2503.29 2503.19 2502.51 2503.17 2504.47 2504.67 2504.13 2502.42 2492.51 2491.71 2491.14 2491.73 2493.16 2492.63
2924.32 2924.62 2924.59 2924.98 2925.66 2926.08 2926.24 2925.73 2924.72 2923.51 2922.05 2920.37 2918.27 2915.59 2914.87 2913.67 2912.25 2911.05 2911.02 2912.06 2913.42 2915.44 2918.56 2929.27 2936.88 2940.84 2943.26 2947.43 2950.33 2953.47 2954.81 2956.08 2957.77 2958.54 2959.27 2959.85 2960.01 2960.41 2960.47 2959.69 2959.57 2958.94 2958.56 2958.07 2957.02 2956.44 2955.05 2953.36 2952.40 2950.72 2949.56 2948.03 2945.92 2944.62 2942.36 2940.46 2938.65 2936.57 2934.97 2932.78 2930.95 2928.92 2926.28 2924.38 2922.02 2919.81 2917.49 2914.90 2912.80 2909.56 2906.90 2904.43 2901.83 2899.18 2895.71 2892.91 2890.31 2887.61 2884.75 2881.42 2878.29 2874.97 2871.13 2868.68 2865.39 2862.98 2860.85 2859.13 2857.03 2856.12 2854.26 2852.30 2850.94 2849.68 2847.57 2845.53 2843.54 2841.57 2839.69 2838.11 2835.86 2833.12 2829.91 2827.60 2825.17 2822.80 2820.24 2817.23 2815.04 2813.11 2811.07 2808.88 2806.53 2804.50 2802.97 2801.16 2799.13 2796.94 2795.06 2793.90 2792.55 2791.31 2790.53 2788.94 2788.16 2786.99 2785.97 2786.93 2785.42 2784.31 2782.66 2781.16 2779.79 2777.95 2775.87 2773.89 2772.24 2770.62 2769.01 2768.78 2767.17 2765.56 2765.47 2763.78 2761.04 2758.63 2756.68 2755.02 2753.59 2751.52 2748.68 2746.33 2742.58 2740.24 2736.28 2733.36 2730.88 2727.09 2725.01 2722.62 2720.91 2719.65 2718.99 2717.38 2716.78 2715.87 2715.39 2716.24 2714.60 2714.09 2713.07 2711.61 2710.67 2708.35 2704.32 2700.59 2696.66 2691.70 2688.70 2682.97 2678.96 2676.07 2671.31 2668.39 2663.27 2660.43 2657.31 2653.63 2651.19 2648.36 2646.17 2644.22 2642.89 2641.01 2639.91 2638.49 2636.79 2636.24 2634.73 2634.73 2633.71 2632.00 2630.92 2629.91 2629.34 2628.27 2626.93 2625.90 2624.78 2624.03 2623.01 2622.17 2621.92 2620.41 2619.36 2618.26 2616.70 2616.71 2615.08 2615.66 2614.96 2614.02 2613.76 2611.39 2610.17 2606.93 2604.01 2598.79 2594.99 2593.14 2588.77 2576.82 2571.76 2566.56 2559.47 2551.54 2543.82 2538.15 2534.01 2527.88 2524.23 2518.78 2515.79 2512.83 2511.33 2509.40 2508.14 2508.52 2508.86 2509.34 2509.44 2510.80 2508.85 2504.20 2499.50 2498.45 2498.91 2499.84 2499.39 2498.07
2928.55 2928.52 2928.85 2929.01 2929.51 2929.87 2929.82 2929.40 2928.49 2927.49 2925.79 2923.98 2922.55 2921.21 2919.69 2918.73 2917.85 2916.77 2916.49 2917.23 2918.78 2920.59 2923.98 2933.40 2942.25 2941.86 2948.12 2953.32 2954.96 2958.28 2959.31 2960.35 2961.79 2962.34 2962.80 2962.97 2963.14 2962.97 2962.81 2962.03 2961.60 2961.16 2960.25 2959.64 2958.89 2958.04 2957.20 2955.85 2954.80 2953.19 2951.96 2950.74 2948.70 2947.29 2944.85 2943.28 2941.71 2939.11 2937.43 2935.30 2933.49 2931.68 2929.00 2927.09 2924.84 2922.49 2920.00 2917.37 2915.19 2911.51 2909.20 2906.89 2904.14 2901.65 2898.56 2895.69 2893.03 2890.43 2887.84 2884.27 2881.60 2878.93 2875.18 2872.55 2867.93 2865.49 2863.06 2861.16 2859.02 2858.77 2856.77 2854.76 2853.39 2852.00 2850.12 2848.20 2846.30 2844.36 2842.28 2841.21 2839.04 2836.87 2833.92 2831.67 2828.78 2826.55 2824.32 2821.25 2818.79 2816.71 2814.66 2812.61 2810.47 2808.67 2807.18 2805.14 2803.11 2801.00 2799.25 2797.95 2796.18 2794.40 2793.53 2792.42 2791.45 2789.89 2788.33 2788.40 2786.86 2786.74 2785.06 2783.38 2780.66 2778.90 2778.29 2776.49 2774.69 2771.47 2769.79 2770.43 2768.78 2767.13 2765.93 2764.22 2763.11 2761.33 2759.34 2757.22 2755.31 2752.96 2750.81 2748.66 2744.58 2742.26 2739.86 2737.61 2735.36 2731.22 2729.04 2725.66 2723.76 2721.85 2720.38 2718.75 2719.46 2718.00 2716.55 2717.67 2717.49 2717.28 2715.46 2713.65 2712.31 2710.16 2706.97 2704.46 2701.94 2697.14 2693.05 2688.33 2685.42 2682.51 2677.14 2674.10 2666.84 2664.00 2661.16 2657.40 2654.83 2651.28 2649.05 2646.83 2645.72 2643.84 2643.23 2641.53 2639.83 2639.74 2638.17 2638.08 2636.55 2635.02 2634.25 2632.75 2632.30 2630.84 2629.38 2628.58 2627.19 2626.69 2625.35 2624.01 2623.31 2621.97 2621.62 2620.32 2619.01 2620.03 2618.72 2620.78 2619.29 2617.80 2619.41 2617.35 2616.77 2613.94 2611.10 2606.58 2602.79 2598.16 2591.03 2584.30 2576.99 2572.65 2565.96 2559.13 2553.12 2549.03 2544.47 2532.68 2528.39 2523.70 2520.81 2517.57 2514.58 2514.29 2513.18 2513.59 2513.35 2514.00 2513.78 2512.42 2510.59 2505.99 2506.34 2505.52 2505.17 2505.19 2504.02 2503.18
2932.84 2933.09 2933.24 2933.32 2933.57 2933.60 2933.19 2932.72 2931.81 2930.64 2929.14 2927.78 2926.46 2925.24 2924.19 2923.28 2922.23 2921.40 2921.65 2922.48 2923.76 2926.18 2929.36 2933.79 2945.63 2947.25 2953.03 2958.21 2959.85 2962.93 2963.96 2965.00 2966.21 2966.76 2966.96 2967.13 2967.30 2966.90 2966.74 2965.70 2965.27 2964.84 2963.75 2963.13 2962.26 2961.41 2960.57 2959.07 2958.02 2956.32 2955.10 2953.88 2951.79 2950.39 2947.93 2946.36 2944.79 2942.12 2940.44 2938.23 2936.42 2934.61 2931.90 2929.98 2927.63 2925.19 2922.70 2920.13 2917.96 2914.28 2911.96 2909.65 2906.84 2904.35 2901.23 2898.31 2895.67 2893.12 2890.53 2887.05 2884.38 2881.71 2878.01 2875.38 2870.75 2868.31 2865.87 2863.87 2861.73 2861.46 2859.45 2857.45 2855.96 2854.45 2852.59 2850.81 2849.05 2847.20 2845.13 2844.11 2841.94 2839.77 2836.92 2834.67 2831.86 2829.63 2827.40 2824.65 2822.23 2819.87 2817.82 2815.76 2814.17 2812.67 2811.57 2808.78 2806.57 2804.88 2803.14 2801.31 2799.54 2797.77 2796.76 2795.77 2794.75 2793.19 2791.63 2791.59 2790.05 2789.98 2788.30 2786.62 2783.91 2782.16 2781.60 2779.80 2777.99 2774.63 2772.96 2773.39 2771.74 2770.09 2768.95 2767.23 2766.17 2764.40 2762.06 2760.30 2758.39 2756.07 2753.92 2751.38 2748.00 2745.69 2743.37 2741.12 2738.87 2734.69 2732.50 2729.05 2727.14 2725.24 2723.67 2722.05 2722.74 2721.29 2719.83 2720.25 2720.10 2720.68 2718.86 2717.05 2715.88 2713.73 2710.91 2708.40 2705.88 2701.64 2697.65 2692.86 2689.95 2687.04 2681.62 2678.59 2671.34 2668.50 2665.66 2661.78 2659.21 2655.62 2653.40 2651.18 2649.94 2648.06 2647.31 2645.61 2643.92 2643.70 2642.13 2641.90 2640.36 2638.83 2637.94 2636.44 2635.84 2634.39 2632.93 2632.07 2630.68 2630.21 2628.87 2627.53 2626.84 2625.50 2625.29 2623.98 2622.67 2623.97 2622.66 2624.84 2623.35 2621.86 2623.60 2621.54 2621.21 2618.37 2615.54 2611.31 2607.52 2597.52 2593.16 2588.80 2581.44 2577.05 2571.34 2565.46 2559.60 2554.08 2549.52 2541.46 2535.79 2528.50 2525.12 2521.15 2519.85 2518.68 2518.08 2517.84 2517.82 2516.28 2516.25 2514.22 2511.40 2513.41 2512.68 2511.72 2511.18 2509.20 2508.01 2507.31
2937.64 2938.08 2938.07 2937.84 2937.75 2937.22 2936.70 2935.76 2934.69 2933.54 2932.54 2931.65 2930.38 2929.30 2928.35 2927.12 2924.66 2926.42 2926.84 2927.53 2929.23 2931.81 2937.80 2939.23 2947.22 2951.54 2959.59 2965.26 2966.71 2968.50 2969.58 2970.34 2971.27 2971.54 2971.07 2970.87 2971.01 2970.59 2970.01 2969.03 2968.25 2967.47 2966.61 2965.87 2964.94 2963.93 2962.75 2961.07 2959.94 2958.71 2957.32 2956.27 2954.58 2953.03 2950.86 2949.21 2947.56 2945.27 2943.25 2941.08 2939.08 2937.17 2934.82 2932.63 2930.28 2927.85 2925.36 2922.29 2920.08 2917.20 2914.67 2912.15 2909.41 2906.76 2903.59 2900.74 2898.18 2895.63 2893.07 2890.23 2887.71 2884.66 2880.74 2878.17 2874.97 2872.89 2870.04 2867.55 2865.27 2863.90 2862.08 2860.25 2858.69 2857.10 2855.08 2853.43 2851.85 2850.21 2848.18 2846.63 2844.47 2842.24 2839.39 2837.24 2835.20 2833.23 2830.74 2827.80 2825.63 2823.27 2821.17 2819.27 2817.70 2815.82 2814.91 2812.93 2810.81 2809.12 2807.29 2805.28 2803.39 2801.62 2800.21 2798.94 2797.64 2796.00 2794.23 2792.70 2791.14 2791.45 2789.94 2788.69 2786.89 2785.16 2783.94 2781.96 2780.31 2777.72 2775.88 2774.97 2773.09 2771.10 2769.06 2767.35 2766.60 2764.52 2763.06 2761.17 2759.35 2757.56 2755.43 2754.52 2752.45 2749.24 2746.23 2744.08 2741.04 2737.03 2734.93 2731.70 2729.34 2727.63 2725.77 2723.86 2723.92 2722.64 2721.33 2722.83 2721.53 2721.81 2719.99 2718.81 2717.54 2715.64 2714.35 2712.31 2709.68 2705.79 2703.21 2699.30 2696.76 2693.00 2688.24 2684.42 2679.92 2678.23 2673.64 2668.00 2665.30 2661.51 2659.23 2656.89 2655.69 2653.65 2651.96 2650.16 2648.31 2647.11 2645.35 2644.55 2642.72 2641.25 2639.34 2637.69 2637.05 2635.17 2634.29 2632.91 2631.47 2631.40 2630.61 2629.74 2628.83 2628.20 2627.83 2627.11 2627.21 2628.40 2627.17 2628.81 2628.03 2626.91 2627.97 2626.04 2625.07 2622.68 2620.89 2619.95 2614.51 2605.27 2600.08 2594.31 2587.66 2583.34 2576.40 2570.90 2564.75 2556.72 2552.62 2549.15 2545.99 2539.19 2534.23 2530.61 2524.30 2522.83 2521.46 2522.22 2519.38 2518.98 2519.78 2516.64 2519.37 2518.94 2518.24 2516.72 2513.60 2512.24 2511.73 2509.12
2942.80 2943.36 2943.27 2942.70 2942.13 2941.31 2940.37 2939.25 2937.79 2937.04 2936.34 2935.21 2934.54 2933.76 2932.72 2931.96 2931.54 2931.63 2931.61 2932.79 2934.76 2941.12 2947.17 2949.00 2951.80 2962.02 2964.15 2970.38 2971.83 2973.60 2974.35 2975.11 2975.71 2975.98 2975.09 2975.02 2974.94 2974.21 2973.23 2972.10 2971.10 2970.06 2969.36 2968.49 2967.40 2966.35 2965.30 2964.18 2963.06 2961.58 2960.33 2959.07 2957.28 2955.84 2953.58 2951.99 2950.41 2948.20 2946.06 2943.84 2941.67 2939.85 2937.58 2935.26 2932.90 2930.60 2928.46 2925.03 2922.82 2920.09 2917.38 2914.68 2911.92 2909.36 2905.91 2903.35 2900.80 2898.26 2895.69 2892.96 2890.32 2887.69 2883.47 2880.90 2878.13 2875.70 2873.26 2870.29 2868.01 2866.34 2864.62 2862.91 2861.33 2859.77 2857.74 2856.12 2854.55 2852.92 2850.90 2849.33 2847.22 2845.12 2842.25 2840.10 2838.32 2836.15 2833.99 2830.77 2828.61 2826.42 2824.38 2822.47 2820.71 2818.82 2817.63 2816.08 2814.45 2813.09 2811.25 2809.10 2807.14 2805.32 2803.58 2802.03 2800.54 2798.90 2797.20 2795.66 2794.10 2794.52 2792.90 2791.28 2789.96 2788.23 2786.77 2784.96 2783.15 2780.73 2778.89 2776.97 2774.64 2772.87 2771.70 2769.99 2768.90 2767.17 2765.45 2764.00 2762.18 2760.13 2758.28 2756.44 2754.57 2752.01 2749.50 2747.35 2743.94 2740.39 2738.29 2734.69 2732.76 2730.83 2728.87 2727.27 2726.84 2726.08 2724.77 2726.33 2725.03 2725.04 2723.44 2721.83 2721.15 2719.25 2718.43 2716.18 2713.94 2710.05 2707.47 2704.05 2701.33 2698.61 2694.44 2690.37 2685.94 2683.03 2680.11 2672.80 2670.09 2666.30 2664.00 2661.70 2660.33 2658.29 2656.49 2654.59 2652.70 2651.31 2649.56 2648.44 2646.75 2645.06 2643.22 2641.56 2640.38 2638.84 2637.29 2636.45 2635.01 2633.68 2632.48 2632.11 2630.94 2631.25 2631.65 2630.42 2631.16 2632.36 2631.12 2633.42 2631.99 2630.56 2631.91 2629.97 2629.18 2626.67 2624.17 2624.11 2620.73 2611.76 2607.60 2600.00 2591.97 2587.65 2579.73 2575.28 2570.83 2561.29 2557.18 2554.57 2550.82 2547.07 2541.99 2538.68 2531.77 2527.28 2525.21 2525.52 2523.74 2523.02 2520.72 2524.48 2523.96 2523.48 2520.91 2517.67 2515.13 2514.92 2516.77 2516.74
2948.11 2948.80 2948.69 2947.99 2946.99 2945.97 2944.74 2943.11 2941.72 2941.16 2940.61 2938.57 2938.31 2937.43 2935.89 2935.27 2935.99 2936.25 2936.62 2938.07 2940.86 2946.83 2952.01 2953.81 2956.94 2967.26 2970.77 2975.50 2976.95 2978.48 2979.12 2979.94 2980.16 2980.42 2979.45 2979.17 2978.71 2977.74 2976.47 2975.20 2974.33 2973.59 2972.88 2971.36 2969.85 2968.77 2967.90 2967.30 2966.17 2963.77 2963.33 2961.81 2960.22 2958.78 2956.62 2954.93 2952.98 2950.84 2948.83 2946.66 2944.55 2942.71 2940.25 2937.79 2935.45 2933.36 2930.81 2927.77 2925.56 2922.85 2920.05 2917.29 2914.59 2912.03 2908.52 2905.97 2903.28 2900.88 2898.31 2895.26 2892.94 2889.69 2886.20 2883.62 2880.96 2878.50 2875.98 2873.03 2870.76 2868.94 2867.17 2865.42 2863.72 2862.02 2860.58 2858.88 2857.19 2855.64 2853.61 2851.95 2849.98 2847.73 2845.11 2842.96 2841.17 2839.08 2836.84 2833.75 2831.58 2829.47 2827.46 2825.51 2823.72 2821.83 2820.38 2818.82 2817.28 2816.11 2814.27 2812.27 2810.27 2808.45 2806.65 2804.98 2803.47 2801.81 2800.16 2798.62 2797.06 2796.74 2795.86 2793.98 2793.03 2791.30 2789.30 2787.95 2785.59 2783.74 2781.90 2779.51 2777.36 2775.58 2774.34 2772.63 2770.94 2769.83 2767.69 2766.82 2765.00 2762.59 2761.14 2758.83 2756.59 2754.37 2752.20 2749.91 2746.89 2743.74 2741.64 2738.60 2736.19 2734.64 2732.68 2731.18 2730.47 2729.51 2728.64 2729.83 2728.53 2728.00 2726.88 2725.66 2724.76 2722.86 2721.96 2720.05 2717.51 2714.30 2711.72 2709.00 2705.90 2703.91 2700.12 2696.40 2691.34 2687.82 2684.12 2677.60 2674.89 2671.94 2668.77 2667.21 2664.97 2662.93 2661.18 2659.03 2657.53 2655.51 2653.76 2652.27 2650.78 2648.98 2647.10 2645.44 2643.45 2642.51 2639.52 2637.76 2637.77 2636.41 2635.06 2635.98 2634.80 2635.18 2635.90 2635.17 2635.15 2636.32 2635.08 2636.71 2635.95 2635.02 2635.84 2633.91 2632.29 2630.66 2628.99 2628.27 2623.27 2615.83 2611.68 2604.83 2596.28 2591.95 2585.21 2579.66 2574.84 2565.86 2561.75 2558.37 2555.65 2552.01 2548.66 2544.45 2540.53 2537.03 2534.10 2530.72 2528.29 2526.44 2527.19 2526.53 2527.60 2522.58 2520.01 2521.14 2521.31 2521.09 2522.12 2520.05
2953.90 2954.14 2953.99 2953.24 2952.11 2950.96 2949.33 2947.73 2946.74 2945.30 2943.33 2943.03 2941.97 2941.11 2940.15 2939.75 2940.33 2940.81 2941.43 2943.56 2950.07 2954.65 2956.90 2958.74 2961.04 2976.81 2978.81 2983.32 2984.40 2984.52 2984.88 2985.25 2984.57 2984.50 2983.17 2982.83 2982.49 2981.36 2979.83 2978.33 2977.61 2976.76 2975.65 2974.01 2972.28 2971.25 2970.23 2969.51 2968.34 2966.74 2965.49 2963.70 2961.61 2960.14 2958.65 2957.03 2955.22 2953.26 2951.57 2949.25 2946.94 2944.84 2942.50 2940.08 2937.66 2935.57 2933.05 2930.25 2928.08 2925.41 2922.58 2919.75 2916.93 2913.84 2910.23 2907.67 2905.12 2902.57 2899.67 2896.25 2893.78 2891.31 2889.32 2886.89 2883.79 2881.37 2878.95 2876.12 2873.85 2871.71 2869.75 2867.91 2866.10 2864.15 2863.47 2861.56 2859.66 2858.33 2856.37 2854.64 2852.62 2850.59 2848.61 2846.54 2844.35 2842.23 2840.12 2836.98 2834.86 2832.52 2830.51 2828.51 2827.02 2825.12 2823.29 2821.48 2819.67 2818.74 2816.93 2815.21 2813.39 2811.57 2809.59 2807.82 2806.40 2804.68 2802.96 2801.34 2799.74 2798.48 2796.77 2795.05 2794.06 2792.40 2790.21 2788.42 2786.64 2785.34 2783.58 2781.26 2778.80 2776.97 2774.80 2772.99 2771.26 2769.51 2767.76 2767.07 2765.18 2763.41 2762.46 2760.72 2758.60 2756.72 2754.89 2752.78 2750.30 2747.90 2745.95 2743.06 2741.18 2739.30 2736.68 2735.04 2734.42 2733.06 2731.71 2733.73 2732.34 2731.36 2730.31 2729.24 2728.16 2726.35 2725.74 2723.75 2721.75 2720.62 2718.34 2715.45 2712.88 2710.30 2705.44 2702.57 2696.06 2693.20 2690.35 2685.82 2683.20 2679.94 2677.57 2675.20 2672.81 2670.59 2667.53 2665.44 2663.34 2660.06 2658.14 2656.08 2654.29 2652.49 2649.58 2647.82 2644.90 2643.33 2641.77 2641.89 2640.63 2640.45 2640.59 2641.34 2641.37 2640.17 2641.06 2639.89 2638.72 2640.86 2639.63 2641.08 2639.57 2638.05 2638.27 2636.30 2634.21 2631.88 2631.10 2628.38 2624.65 2619.00 2614.02 2609.84 2601.16 2596.85 2591.14 2586.92 2582.71 2575.05 2571.00 2562.78 2559.34 2555.90 2555.64 2552.69 2549.34 2546.61 2543.89 2540.16 2537.64 2533.30 2529.62 2528.39 2526.30 2524.10 2525.37 2524.67 2525.62 2524.57 2524.48 2523.75
2958.32 2959.51 2959.16 2958.37 2957.19 2955.75 2954.17 2952.43 2951.19 2949.49 2947.69 2946.98 2945.38 2944.39 2943.13 2943.20 2944.05 2945.21 2946.63 2952.45 2959.72 2959.90 2960.96 2963.44 2980.26 2982.25 2984.25 2988.42 2989.50 2989.21 2989.58 2989.94 2988.91 2988.84 2987.26 2986.92 2986.58 2985.19 2983.52 2982.02 2981.30 2979.98 2978.55 2976.97 2975.55 2974.53 2973.50 2971.91 2970.32 2968.97 2967.60 2965.99 2964.40 2962.93 2960.92 2959.06 2957.47 2956.00 2954.31 2951.49 2948.93 2946.83 2944.66 2942.44 2940.31 2938.22 2935.49 2932.88 2930.71 2927.89 2925.00 2922.16 2919.44 2916.21 2912.75 2910.20 2907.64 2904.54 2901.67 2898.65 2896.18 2893.72 2891.92 2889.48 2886.40 2883.98 2881.56 2878.71 2876.44 2874.25 2872.22 2870.37 2868.62 2866.67 2865.97 2864.07 2862.17 2860.88 2858.92 2857.25 2855.23 2853.21 2851.29 2849.22 2847.09 2844.98 2842.86 2839.82 2837.70 2835.35 2833.35 2831.34 2829.87 2827.96 2826.11 2824.30 2822.50 2821.56 2819.75 2818.08 2816.26 2814.45 2812.46 2810.69 2809.24 2807.52 2805.80 2804.01 2802.40 2801.25 2799.53 2797.81 2795.71 2794.05 2792.93 2791.15 2789.36 2787.40 2785.39 2783.31 2781.45 2779.62 2777.36 2775.55 2773.78 2772.03 2770.29 2769.12 2767.89 2766.12 2764.66 2763.15 2761.59 2759.71 2757.93 2755.96 2753.70 2751.34 2749.39 2746.58 2744.70 2742.81 2740.31 2738.67 2738.06 2736.71 2735.35 2737.35 2735.96 2734.91 2733.79 2732.78 2731.82 2730.02 2729.55 2727.55 2725.56 2724.67 2722.39 2719.71 2717.13 2714.56 2709.87 2707.00 2700.76 2697.90 2695.04 2690.73 2688.11 2684.88 2682.52 2680.15 2677.64 2675.42 2672.21 2670.11 2668.01 2664.67 2662.75 2660.69 2658.89 2657.10 2654.26 2652.51 2649.93 2647.76 2647.99 2648.72 2646.96 2645.54 2646.69 2646.59 2645.56 2644.35 2645.08 2643.91 2642.74 2644.75 2643.52 2644.91 2643.39 2641.88 2641.99 2640.02 2637.92 2635.59 2634.81 2632.10 2627.81 2622.62 2617.86 2613.68 2605.14 2600.83 2595.26 2591.05 2586.83 2579.33 2575.28 2567.19 2563.75 2560.31 2560.33 2557.38 2554.10 2551.37 2548.65 2545.00 2542.47 2540.28 2537.59 2534.35 2530.42 2529.87 2531.10 2530.31 2529.14 2529.20 2530.07 2530.78
2964.49 2964.12 2963.80 2962.93 2961.84 2960.41 2958.95 2957.46 2955.30 2951.87 2951.51 2950.75 2949.46 2947.67 2946.92 2946.84 2948.10 2950.19 2952.92 2961.74 2965.35 2965.53 2966.95 2969.37 2988.18 2991.47 2992.33 2993.91 2994.51 2994.29 2994.46 2994.32 2993.01 2992.64 2991.29 2990.65 2990.21 2988.86 2987.16 2985.57 2984.34 2982.94 2981.43 2979.82 2978.33 2977.19 2975.86 2974.05 2972.29 2971.21 2969.79 2968.12 2966.30 2964.73 2962.84 2960.90 2959.19 2956.91 2955.08 2952.89 2950.63 2948.87 2946.79 2944.57 2942.29 2939.94 2937.40 2934.62 2932.46 2930.03 2927.31 2924.57 2922.26 2919.03 2915.68 2912.71 2909.68 2906.34 2903.70 2900.19 2897.20 2895.19 2893.34 2891.01 2888.28 2885.77 2883.37 2880.77 2878.57 2876.57 2874.56 2872.72 2871.22 2869.28 2868.13 2866.31 2864.58 2863.35 2861.45 2859.84 2857.94 2855.69 2853.06 2851.07 2849.55 2847.52 2845.42 2843.00 2840.97 2838.50 2836.22 2834.05 2832.08 2830.18 2828.61 2826.81 2824.95 2823.20 2821.36 2820.06 2818.26 2816.60 2814.73 2812.95 2810.96 2808.85 2807.51 2806.23 2804.51 2803.19 2801.46 2799.46 2797.04 2795.27 2794.38 2792.94 2791.20 2789.21 2787.11 2785.04 2783.29 2781.41 2779.14 2777.34 2775.60 2773.68 2772.26 2771.08 2769.85 2768.31 2766.82 2765.40 2764.03 2762.54 2761.07 2759.35 2757.59 2756.29 2754.57 2751.65 2749.43 2747.65 2746.15 2744.54 2743.43 2742.48 2741.04 2742.09 2740.65 2738.89 2737.37 2736.34 2736.10 2734.41 2733.41 2731.63 2729.59 2727.99 2725.86 2723.78 2721.50 2719.10 2716.25 2713.62 2708.33 2705.86 2702.60 2699.96 2697.44 2693.52 2691.55 2688.14 2685.47 2683.12 2678.87 2676.64 2674.49 2673.18 2671.32 2669.13 2668.11 2665.22 2662.97 2661.52 2658.34 2657.17 2656.29 2656.74 2651.79 2650.35 2653.32 2652.30 2651.06 2649.66 2650.31 2649.80 2648.22 2648.59 2648.19 2648.40 2647.01 2645.58 2645.05 2643.09 2642.16 2640.39 2638.29 2635.15 2631.18 2626.12 2621.71 2617.18 2609.80 2605.66 2598.88 2593.81 2589.14 2581.66 2577.88 2573.67 2571.32 2567.43 2565.75 2562.86 2559.60 2557.10 2554.49 2552.60 2550.22 2548.14 2546.39 2542.87 2539.05 2534.64 2533.40 2533.87 2534.84 2535.18 2535.84 2536.85
2968.61 2968.37 2967.93 2967.19 2966.21 2964.68 2962.76 2960.67 2959.88 2957.97 2956.11 2955.84 2954.06 2952.61 2951.16 2952.13 2953.49 2955.40 2959.17 2967.37 2970.13 2971.04 2971.86 2986.69 2995.14 2996.75 2998.37 2998.74 2999.35 2998.93 2998.94 2998.95 2997.19 2996.82 2995.15 2994.60 2994.06 2992.49 2990.67 2988.91 2987.35 2985.98 2984.45 2982.74 2981.04 2979.95 2978.45 2976.67 2975.35 2974.04 2972.32 2970.67 2969.11 2967.54 2965.33 2963.63 2961.93 2959.59 2957.76 2955.15 2953.26 2951.36 2949.04 2946.66 2944.24 2941.76 2939.69 2937.18 2935.02 2932.48 2929.82 2927.23 2924.93 2921.75 2918.48 2915.37 2912.21 2908.89 2906.25 2902.15 2899.60 2897.06 2894.82 2892.41 2889.80 2887.31 2885.23 2883.17 2880.98 2878.97 2876.90 2874.84 2873.54 2871.60 2870.49 2868.60 2866.71 2865.63 2863.72 2862.24 2860.27 2858.31 2855.51 2853.51 2852.12 2850.10 2847.92 2845.67 2843.64 2841.32 2839.00 2836.79 2834.74 2832.84 2831.33 2829.48 2827.63 2825.83 2823.99 2822.62 2820.83 2819.04 2817.41 2815.63 2813.28 2811.53 2809.78 2808.98 2807.27 2805.37 2803.47 2801.58 2799.73 2797.95 2796.39 2794.74 2792.95 2791.01 2788.93 2786.79 2785.25 2783.57 2781.72 2779.92 2778.01 2776.24 2774.47 2773.10 2771.78 2770.32 2768.85 2767.48 2766.29 2765.11 2764.05 2762.37 2760.69 2759.62 2757.90 2755.88 2753.86 2751.85 2749.75 2748.13 2747.51 2746.10 2744.69 2745.63 2744.19 2742.51 2740.96 2739.42 2739.67 2737.97 2737.14 2735.23 2733.33 2731.71 2729.58 2727.75 2725.36 2722.98 2720.32 2717.69 2712.86 2710.20 2707.54 2704.47 2701.95 2698.52 2696.14 2693.76 2690.16 2687.80 2683.45 2681.33 2679.21 2677.93 2676.07 2674.65 2672.94 2671.22 2668.95 2667.53 2665.01 2664.35 2662.58 2661.86 2660.16 2659.35 2657.94 2656.52 2655.34 2653.94 2655.19 2653.83 2652.47 2652.70 2652.58 2652.41 2650.71 2649.00 2648.68 2646.71 2646.52 2644.03 2641.54 2638.15 2634.79 2629.19 2625.34 2621.49 2613.51 2609.37 2601.59 2597.47 2593.36 2585.39 2581.61 2578.55 2575.33 2572.10 2569.78 2566.89 2563.84 2561.20 2558.57 2556.81 2554.43 2553.00 2550.64 2548.27 2543.36 2541.11 2538.68 2539.17 2539.88 2539.90 2540.08 2542.07
2972.79 2972.19 2971.63 2971.05 2969.93 2968.46 2966.75 2965.56 2964.35 2962.99 2961.16 2960.58 2958.98 2958.12 2961.51 2963.64 2964.09 2964.62 2967.89 2972.92 2975.22 2975.41 2976.29 2992.33 2998.76 3002.04 3003.26 3003.58 3004.18 3003.66 3003.42 3002.94 3001.36 3001.00 2999.20 2998.56 2997.44 2995.87 2994.06 2992.23 2990.53 2989.50 2987.82 2986.02 2984.38 2983.19 2981.46 2979.76 2978.41 2976.60 2974.70 2973.17 2971.93 2970.36 2967.93 2966.36 2964.28 2962.27 2960.44 2957.67 2955.89 2953.50 2951.13 2948.78 2946.49 2944.33 2942.27 2939.73 2937.57 2934.88 2932.24 2929.66 2927.11 2924.16 2921.09 2918.13 2915.06 2911.44 2908.80 2904.78 2902.01 2899.22 2896.58 2894.04 2891.40 2888.84 2887.12 2885.57 2883.38 2881.14 2879.25 2877.10 2875.86 2873.92 2872.54 2870.89 2869.10 2867.91 2866.00 2864.07 2862.61 2860.06 2857.95 2855.96 2854.26 2852.31 2850.24 2848.14 2846.09 2843.92 2841.63 2839.42 2837.39 2835.49 2833.83 2832.15 2830.19 2828.45 2826.61 2824.79 2823.40 2821.32 2820.08 2818.31 2816.01 2814.21 2812.70 2811.74 2810.03 2807.48 2805.44 2803.72 2802.41 2800.63 2798.55 2796.66 2794.83 2793.05 2791.23 2789.42 2787.64 2785.92 2784.31 2782.50 2780.46 2778.80 2776.82 2775.24 2773.81 2772.36 2770.87 2769.48 2768.45 2767.33 2766.69 2765.39 2763.85 2762.94 2761.22 2759.92 2758.20 2756.12 2753.34 2751.73 2751.11 2749.72 2748.86 2749.17 2747.73 2746.16 2744.56 2743.63 2743.23 2741.53 2740.41 2738.84 2736.92 2735.42 2733.29 2731.42 2729.22 2726.89 2724.38 2721.75 2717.62 2714.54 2712.00 2708.99 2706.46 2702.94 2700.72 2699.59 2697.44 2692.49 2688.99 2686.03 2684.67 2682.67 2680.81 2679.27 2677.76 2677.25 2677.52 2676.15 2673.84 2672.98 2672.55 2666.98 2665.27 2664.36 2662.55 2661.26 2659.61 2658.21 2658.93 2657.87 2657.01 2657.25 2656.67 2656.16 2654.40 2653.01 2652.30 2650.33 2649.73 2647.67 2644.91 2641.69 2638.37 2632.30 2628.96 2623.92 2617.22 2613.08 2605.77 2601.13 2596.32 2589.12 2585.34 2582.30 2579.33 2576.32 2573.81 2570.93 2567.86 2565.30 2562.71 2561.01 2558.64 2556.75 2554.88 2551.73 2547.66 2545.42 2543.10 2544.17 2543.84 2543.85 2545.39 2547.17
2976.60 2975.71 2974.95 2974.30 2973.26 2972.61 2971.55 2970.89 2969.42 2968.67 2967.67 2966.44 2965.01 2972.90 2976.89 2978.69 2976.84 2974.35 2974.23 2977.47 2978.98 2979.28 2979.87 3000.29 3003.67 3006.23 3007.50 3007.94 3008.14 3007.67 3007.37 3007.07 3005.10 3004.46 3002.07 3001.28 3000.48 2999.15 2997.45 2995.72 2994.19 2993.03 2991.12 2989.30 2987.71 2986.07 2984.22 2982.41 2980.79 2978.91 2976.89 2975.37 2973.93 2972.01 2969.39 2967.66 2965.93 2964.08 2961.87 2958.96 2957.04 2955.11 2953.06 2950.81 2948.55 2946.41 2944.19 2941.57 2939.02 2936.87 2934.46 2931.92 2929.30 2926.48 2923.59 2920.95 2918.31 2914.32 2911.02 2906.72 2904.06 2901.41 2898.56 2896.06 2893.53 2891.21 2888.90 2886.90 2884.74 2882.53 2880.48 2878.42 2877.33 2875.38 2874.22 2872.30 2870.39 2868.19 2866.27 2864.32 2862.41 2860.50 2859.34 2857.88 2856.27 2854.42 2852.48 2850.46 2848.47 2846.44 2844.08 2841.77 2839.61 2837.65 2835.80 2833.92 2831.86 2829.87 2827.88 2825.79 2824.01 2822.23 2821.37 2819.96 2818.11 2816.46 2814.96 2813.55 2811.61 2809.06 2807.30 2805.53 2804.29 2802.61 2800.55 2798.72 2796.90 2795.25 2793.61 2792.05 2789.87 2787.87 2786.04 2784.21 2782.28 2780.56 2778.84 2777.32 2775.92 2774.58 2773.05 2771.52 2770.79 2769.38 2769.37 2767.97 2766.57 2766.50 2765.03 2764.08 2762.49 2760.90 2758.18 2756.41 2755.57 2754.06 2752.55 2752.33 2750.87 2750.13 2749.56 2748.01 2746.68 2744.96 2743.54 2741.62 2739.71 2738.22 2736.51 2734.85 2732.57 2730.28 2727.31 2724.88 2721.62 2719.16 2716.69 2713.59 2711.14 2706.63 2704.52 2703.70 2701.59 2698.47 2696.09 2694.08 2692.06 2689.72 2687.89 2684.87 2683.52 2682.17 2681.44 2680.33 2679.73 2678.36 2676.59 2676.69 2675.07 2671.15 2669.46 2667.77 2666.99 2665.34 2664.45 2662.92 2661.39 2662.05 2660.53 2660.37 2658.60 2656.83 2655.86 2654.47 2653.36 2650.80 2648.18 2645.17 2642.17 2633.19 2629.49 2625.78 2620.20 2614.69 2608.04 2604.30 2600.56 2594.08 2589.47 2585.86 2582.72 2579.57 2576.32 2573.45 2570.87 2568.27 2565.67 2563.68 2561.28 2559.16 2556.85 2554.54 2551.50 2549.22 2547.77 2548.60 2547.85 2548.88 2549.91 2551.40
2979.83 2978.28 2977.82 2977.38 2976.55 2975.84 2974.52 2974.12 2972.08 2971.60 2971.32 2969.49 2977.37 2986.97 2990.59 2992.98 2993.28 2989.50 2983.18 2982.74 2983.06 2983.85 3004.05 3005.82 3008.38 3010.39 3011.69 3012.47 3012.67 3011.86 3011.56 3011.26 3009.05 3008.41 3005.84 3005.04 3004.24 3002.62 3000.82 2999.05 2997.40 2995.84 2993.99 2992.31 2990.69 2988.85 2986.83 2984.87 2983.25 2981.56 2979.85 2978.32 2976.35 2974.36 2972.09 2970.36 2968.63 2966.31 2964.06 2961.54 2959.62 2957.70 2955.34 2952.92 2950.55 2948.41 2946.23 2943.60 2941.54 2939.40 2936.79 2934.17 2931.56 2928.89 2926.20 2923.56 2920.91 2916.68 2913.91 2909.29 2906.63 2903.98 2901.03 2898.53 2895.80 2893.15 2890.51 2888.10 2886.10 2884.71 2882.65 2880.60 2879.40 2877.45 2876.26 2874.34 2872.43 2870.25 2868.33 2866.45 2864.54 2862.63 2861.41 2859.93 2858.35 2856.74 2854.79 2852.76 2850.83 2848.90 2846.32 2843.92 2841.59 2839.57 2837.56 2835.45 2833.21 2831.03 2829.31 2828.12 2826.34 2824.56 2823.24 2821.79 2820.08 2818.53 2816.98 2815.40 2813.62 2811.73 2809.96 2808.20 2806.63 2804.95 2803.23 2801.40 2799.57 2797.51 2795.50 2793.50 2791.44 2789.44 2787.52 2785.91 2784.78 2783.06 2781.34 2779.49 2778.08 2777.16 2775.64 2774.11 2773.47 2772.06 2772.17 2770.77 2769.37 2769.46 2767.99 2767.20 2765.60 2764.01 2761.90 2760.15 2758.86 2757.35 2755.84 2755.54 2754.08 2753.46 2752.97 2751.42 2750.10 2748.38 2746.91 2744.99 2743.08 2741.02 2739.35 2738.27 2735.98 2733.70 2730.83 2728.40 2725.35 2722.88 2720.41 2717.44 2714.99 2710.44 2708.33 2706.22 2705.38 2703.21 2700.83 2698.34 2696.33 2694.12 2692.29 2689.73 2688.38 2689.97 2685.99 2684.24 2684.30 2682.73 2681.16 2681.36 2679.75 2675.85 2674.99 2672.47 2671.09 2669.44 2668.24 2666.71 2665.18 2665.59 2664.07 2663.85 2662.08 2660.30 2659.57 2658.20 2656.76 2654.20 2651.64 2648.74 2644.65 2636.43 2632.73 2629.03 2623.25 2617.29 2611.42 2607.69 2603.95 2597.55 2593.03 2589.36 2586.22 2583.07 2579.83 2576.97 2574.44 2571.84 2569.24 2567.27 2564.86 2562.76 2560.45 2558.15 2554.78 2552.33 2551.50 2553.19 2552.48 2553.06 2553.38 2554.44
2982.88 2981.49 2980.75 2980.62 2979.49 2978.49 2977.81 2976.21 2975.98 2975.51 2975.53 2982.99 2988.58 2996.79 3000.28 3003.36 3004.42 3002.62 3000.11 2993.56 2989.16 2989.04 3009.51 3010.52 3013.20 3014.66 3015.61 3015.99 3015.83 3014.77 3013.84 3013.57 3011.81 3010.96 3009.08 3007.94 3007.22 3005.76 3004.01 3002.20 3000.44 2998.69 2996.87 2995.66 2993.84 2991.76 2989.53 2987.38 2985.93 2984.34 2982.62 2980.83 2978.78 2977.11 2974.97 2972.95 2970.87 2968.48 2966.55 2964.03 2961.98 2959.92 2957.58 2955.10 2952.64 2950.54 2948.44 2945.25 2943.08 2941.18 2938.83 2936.34 2933.84 2931.30 2928.71 2926.03 2923.19 2919.30 2916.53 2912.61 2909.91 2907.02 2903.92 2901.01 2898.03 2895.08 2892.19 2889.32 2887.03 2885.63 2883.68 2881.47 2879.34 2877.37 2876.48 2874.50 2873.15 2871.65 2869.79 2868.35 2866.75 2865.19 2863.88 2862.00 2860.08 2857.79 2856.32 2855.10 2853.33 2850.78 2848.24 2846.03 2843.54 2841.56 2839.41 2837.11 2834.68 2832.20 2830.37 2829.22 2827.35 2826.13 2825.19 2824.29 2822.58 2820.72 2818.99 2817.33 2815.63 2814.01 2812.38 2810.74 2809.10 2807.31 2805.56 2803.68 2801.72 2799.56 2797.31 2794.95 2793.07 2791.12 2789.01 2787.22 2786.19 2784.76 2783.11 2781.27 2779.73 2778.82 2777.32 2776.16 2775.48 2774.17 2774.16 2772.91 2771.67 2770.87 2769.41 2768.83 2767.73 2766.42 2764.83 2763.28 2762.17 2760.81 2759.10 2757.70 2756.18 2756.10 2755.93 2754.52 2754.04 2752.48 2750.41 2748.15 2745.88 2743.41 2741.37 2740.22 2737.94 2735.89 2733.16 2730.88 2728.53 2726.18 2723.70 2720.76 2718.44 2714.73 2712.04 2709.97 2709.03 2706.64 2704.58 2703.09 2701.57 2700.97 2699.55 2696.86 2695.76 2694.75 2693.63 2691.24 2690.31 2688.65 2686.46 2685.20 2683.51 2682.80 2680.99 2679.42 2677.17 2675.37 2672.72 2670.88 2669.30 2669.11 2667.47 2667.57 2666.43 2664.64 2663.67 2661.61 2659.97 2657.62 2655.00 2652.07 2649.15 2641.92 2636.78 2631.81 2625.97 2620.15 2614.69 2610.16 2605.31 2599.16 2595.76 2591.90 2588.37 2585.32 2581.76 2578.93 2576.67 2573.93 2571.63 2569.43 2566.94 2565.07 2562.80 2560.17 2557.05 2555.53 2555.51 2556.83 2556.18 2555.01 2555.79 2557.18
2985.28 2984.58 2984.43 2984.17 2982.90 2982.37 2982.75 2982.47 2981.56 2981.81 2984.52 2992.15 2998.47 3004.41 3010.37 3012.90 3013.73 3014.89 3012.65 3008.44 3000.17 2994.42 3015.02 3016.02 3018.87 3019.36 3019.86 3020.23 3020.06 3018.36 3017.77 3017.18 3015.53 3014.68 3012.51 3011.52 3010.53 3008.86 3007.10 3005.30 3003.51 3001.80 3000.24 2999.01 2997.04 2994.84 2992.59 2990.54 2989.08 2987.32 2985.46 2983.56 2981.67 2980.00 2977.76 2975.55 2973.39 2971.20 2969.27 2966.37 2964.34 2962.20 2959.93 2957.61 2955.42 2953.15 2950.67 2947.80 2945.63 2943.40 2941.00 2938.55 2936.17 2933.73 2931.23 2928.61 2925.99 2922.19 2918.82 2915.14 2912.48 2909.83 2906.61 2903.49 2900.30 2897.18 2894.40 2891.62 2889.33 2887.18 2884.91 2882.81 2881.22 2879.26 2878.19 2876.34 2874.48 2873.50 2871.64 2870.42 2868.86 2867.43 2865.96 2864.08 2862.41 2860.22 2857.92 2857.06 2855.28 2852.45 2850.49 2848.53 2845.95 2843.98 2841.50 2839.08 2836.77 2834.57 2832.74 2831.39 2829.64 2827.88 2826.74 2825.65 2824.23 2822.56 2820.93 2819.40 2817.74 2816.27 2814.76 2813.26 2811.77 2809.98 2807.93 2805.88 2803.83 2801.70 2799.57 2797.49 2795.61 2793.45 2791.42 2789.63 2787.99 2786.45 2785.01 2783.61 2782.07 2781.09 2779.68 2778.27 2777.90 2776.59 2776.80 2775.50 2774.20 2773.52 2772.06 2770.83 2769.65 2768.60 2767.53 2765.98 2765.15 2763.61 2762.08 2760.49 2758.98 2758.70 2758.83 2757.42 2757.23 2755.66 2753.37 2751.05 2748.85 2746.48 2744.44 2743.10 2740.92 2738.74 2736.19 2733.90 2731.64 2729.31 2726.97 2723.97 2721.65 2718.23 2715.12 2712.31 2709.64 2707.84 2708.33 2706.59 2704.86 2704.16 2702.98 2701.17 2699.60 2698.88 2697.96 2695.96 2694.38 2692.71 2690.64 2688.91 2687.22 2685.60 2683.96 2682.08 2680.66 2678.85 2675.95 2674.20 2672.45 2672.23 2670.58 2671.20 2669.44 2667.67 2666.62 2664.55 2663.08 2660.58 2658.08 2654.68 2650.91 2645.17 2640.36 2634.62 2628.44 2622.86 2617.63 2612.92 2607.95 2602.37 2598.97 2594.76 2591.64 2588.53 2585.09 2582.25 2579.91 2577.30 2574.69 2572.77 2570.29 2567.82 2565.18 2562.48 2560.15 2558.40 2558.43 2558.32 2557.05 2557.24 2558.04 2559.82
2989.01 2987.85 2987.11 2986.92 2987.04 2986.56 2986.79 2986.80 2986.23 2987.18 2989.07 3002.12 3008.09 3011.46 3020.77 3024.50 3026.13 3027.41 3028.53 3025.36 3020.88 3015.58 3020.52 3021.53 3023.26 3024.07 3023.77 3024.46 3024.30 3022.43 3021.70 3020.54 3019.25 3018.41 3016.29 3015.10 3013.57 3011.72 3010.10 3008.35 3006.54 3004.80 3003.19 3001.71 3000.02 2997.94 2995.73 2993.69 2992.23 2990.28 2988.27 2986.27 2984.32 2982.41 2980.23 2978.05 2975.97 2973.93 2972.00 2969.00 2966.98 2964.49 2962.26 2960.20 2958.14 2955.63 2953.11 2950.34 2948.18 2945.77 2943.29 2940.85 2938.59 2936.17 2933.68 2931.19 2928.32 2924.61 2921.39 2918.01 2915.06 2912.09 2908.92 2905.91 2902.59 2899.31 2896.84 2893.92 2891.63 2888.96 2886.38 2884.17 2883.10 2881.14 2879.55 2878.18 2876.07 2875.35 2872.34 2872.25 2870.62 2869.23 2868.04 2866.16 2864.42 2862.32 2859.12 2858.56 2856.86 2854.32 2852.73 2850.44 2848.36 2846.39 2843.44 2841.03 2838.94 2836.94 2835.11 2833.34 2831.92 2829.66 2828.25 2826.87 2825.75 2824.27 2822.89 2821.97 2820.31 2818.73 2817.15 2815.69 2814.45 2812.65 2810.20 2808.05 2806.00 2803.85 2801.76 2799.38 2797.43 2795.53 2793.83 2792.04 2789.72 2787.98 2786.69 2785.94 2784.41 2783.05 2782.05 2780.50 2780.32 2779.01 2778.59 2778.10 2776.85 2776.17 2774.71 2772.73 2771.29 2770.40 2770.24 2768.68 2767.45 2766.42 2764.48 2763.29 2761.78 2760.14 2759.10 2757.83 2757.59 2756.74 2755.32 2753.57 2751.82 2749.55 2747.51 2745.40 2743.90 2741.23 2739.22 2736.93 2734.31 2732.43 2729.65 2727.18 2724.86 2721.10 2718.02 2715.33 2712.78 2710.98 2710.67 2710.09 2707.77 2706.32 2706.40 2704.99 2703.46 2701.95 2700.84 2699.11 2697.45 2695.76 2694.02 2692.62 2690.93 2688.71 2687.18 2685.28 2684.14 2682.33 2679.72 2677.52 2675.99 2675.35 2673.70 2673.36 2672.44 2670.26 2669.57 2667.50 2665.73 2663.55 2660.43 2656.54 2652.58 2647.29 2643.78 2637.23 2630.45 2625.42 2620.41 2616.07 2611.52 2605.58 2602.19 2598.12 2594.92 2591.63 2588.42 2585.58 2583.37 2580.68 2578.31 2576.11 2573.63 2570.78 2567.76 2564.77 2562.70 2559.99 2560.58 2559.56 2559.90 2560.21 2562.27 2565.01
2990.59 2991.07 2989.95 2990.65 2989.93 2989.37 2989.92 2990.28 2991.06 2992.52 2999.97 3010.90 3016.23 3020.13 3030.18 3035.01 3037.95 3040.02 3038.37 3037.34 3030.35 3023.39 3025.12 3024.40 3026.20 3025.93 3025.65 3026.17 3025.65 3024.58 3023.78 3022.98 3021.25 3020.21 3018.72 3017.54 3016.36 3014.43 3013.16 3011.39 3009.49 3007.69 3005.98 3004.41 3003.08 3001.06 2998.87 2996.81 2995.01 2993.01 2990.94 2988.88 2986.83 2984.77 2982.60 2980.44 2978.45 2976.36 2974.10 2971.34 2968.86 2966.24 2964.06 2961.96 2959.88 2957.79 2955.71 2953.05 2950.64 2948.19 2945.73 2943.46 2941.18 2938.62 2935.95 2933.32 2930.69 2926.74 2924.02 2920.65 2917.41 2914.24 2911.07 2908.44 2905.03 2901.70 2899.22 2895.81 2893.04 2890.51 2888.47 2886.27 2883.13 2881.05 2879.62 2877.71 2875.80 2875.66 2874.00 2873.97 2872.34 2869.44 2866.91 2864.21 2861.10 2859.49 2857.87 2860.28 2857.35 2854.94 2853.15 2851.35 2849.67 2847.57 2844.77 2842.78 2840.80 2838.00 2836.10 2834.26 2832.49 2830.72 2829.87 2828.23 2827.63 2826.06 2824.49 2823.75 2822.53 2821.14 2819.45 2817.76 2816.37 2814.50 2812.11 2810.23 2808.34 2806.12 2804.16 2801.16 2799.18 2797.21 2794.96 2793.03 2790.82 2789.11 2787.40 2785.81 2784.31 2783.55 2782.17 2780.79 2780.29 2778.91 2778.89 2778.51 2777.64 2776.78 2775.51 2773.89 2772.48 2771.07 2770.42 2769.00 2768.18 2766.73 2765.27 2764.49 2762.91 2760.82 2759.22 2757.61 2757.63 2757.34 2756.95 2756.45 2754.52 2751.32 2749.24 2746.14 2743.96 2741.78 2739.67 2737.44 2735.05 2732.79 2730.53 2727.71 2725.46 2722.68 2720.55 2718.41 2715.95 2714.04 2712.02 2710.41 2708.80 2708.97 2707.42 2707.40 2705.79 2704.17 2703.44 2701.75 2700.16 2698.46 2696.77 2695.46 2693.69 2690.83 2688.93 2687.03 2685.07 2683.15 2682.45 2680.57 2678.69 2677.14 2675.32 2674.32 2672.46 2670.61 2670.64 2668.58 2667.32 2664.80 2662.27 2658.24 2655.14 2650.03 2646.52 2639.26 2631.82 2628.10 2623.04 2619.33 2615.61 2607.58 2604.16 2600.64 2597.61 2594.58 2591.77 2589.00 2587.34 2584.74 2582.13 2579.56 2576.88 2573.92 2570.80 2567.72 2565.65 2564.26 2563.20 2562.75 2562.94 2563.94 2566.39 2567.91
2994.50 2994.39 2993.85 2992.77 2992.96 2992.72 2992.62 2994.55 2995.87 2997.08 3010.08 3018.89 3025.18 3029.78 3036.82 3044.98 3047.21 3049.52 3048.81 3047.21 3042.07 3021.20 3030.75 3030.02 3030.74 3030.47 3030.20 3030.17 3029.65 3028.41 3027.62 3026.82 3024.86 3023.83 3022.15 3020.98 3019.80 3017.77 3016.50 3014.35 3012.32 3010.53 3008.84 3007.61 3006.28 3004.07 3001.81 2999.68 2997.69 2995.64 2993.53 2991.43 2989.32 2987.20 2985.01 2982.82 2980.99 2978.77 2976.27 2973.52 2970.84 2968.00 2966.00 2964.01 2962.47 2960.39 2958.30 2955.52 2953.07 2950.67 2948.30 2946.06 2943.66 2941.13 2938.52 2935.89 2933.26 2929.31 2926.59 2923.02 2919.63 2916.50 2913.51 2910.88 2907.19 2903.59 2900.35 2896.68 2893.82 2891.11 2888.80 2886.95 2885.01 2882.93 2881.32 2879.42 2877.51 2874.58 2872.51 2871.77 2870.04 2867.58 2865.04 2863.21 2862.50 2860.89 2859.27 2858.06 2856.40 2857.09 2855.29 2853.50 2851.44 2849.37 2847.23 2845.24 2843.25 2840.43 2838.54 2836.67 2834.89 2833.12 2832.33 2830.69 2830.14 2828.57 2827.00 2826.05 2824.86 2823.79 2822.10 2820.41 2818.63 2816.78 2814.81 2812.92 2811.04 2808.78 2806.82 2803.78 2801.80 2799.82 2797.07 2794.94 2793.02 2791.01 2789.60 2788.08 2786.59 2785.86 2784.48 2783.10 2782.59 2781.22 2779.94 2778.82 2777.87 2776.96 2776.20 2776.21 2774.80 2773.39 2772.73 2771.31 2770.67 2769.21 2767.75 2767.01 2765.43 2763.27 2761.66 2760.06 2758.88 2757.96 2757.64 2757.24 2755.98 2754.12 2752.04 2748.84 2746.67 2744.49 2742.29 2740.05 2737.66 2735.40 2733.14 2730.37 2728.12 2725.48 2723.34 2721.21 2718.84 2716.92 2714.82 2713.21 2711.60 2712.01 2710.47 2710.63 2709.02 2707.40 2706.54 2704.85 2703.23 2701.54 2699.84 2698.52 2696.75 2693.78 2691.88 2689.98 2687.96 2686.04 2685.08 2683.20 2681.32 2679.66 2677.84 2676.75 2674.90 2673.04 2673.04 2670.98 2669.73 2667.21 2664.68 2660.77 2657.66 2652.16 2647.27 2641.09 2634.66 2630.94 2626.10 2622.38 2618.66 2610.71 2607.28 2603.86 2600.83 2597.80 2595.08 2592.31 2590.71 2588.10 2585.49 2582.90 2580.19 2577.27 2574.21 2570.86 2567.69 2565.69 2565.47 2565.76 2564.93 2567.27 2570.46 2563.24
2997.52 2996.43 2995.99 2995.53 2995.10 2995.80 2996.95 2998.93 3001.52 3004.08 3018.42 3028.03 3033.69 3039.84 3045.46 3054.80 3057.58 3059.01 3058.07 3055.66 3049.77 3029.56 3035.62 3033.16 3033.49 3033.34 3032.63 3031.35 3030.35 3030.39 3030.02 3029.17 3027.66 3026.32 3024.65 3022.89 3021.78 3019.63 3018.21 3016.67 3014.93 3013.32 3011.28 3009.82 3008.48 3006.53 3004.41 3002.32 3000.28 2998.20 2996.08 2993.95 2991.83 2989.72 2987.62 2985.61 2983.77 2981.27 2978.61 2975.91 2973.54 2970.88 2968.60 2966.64 2964.89 2962.83 2960.44 2957.65 2955.46 2953.13 2950.72 2948.30 2946.03 2943.58 2940.99 2938.28 2935.48 2931.67 2928.88 2925.05 2921.69 2918.53 2914.72 2911.97 2908.72 2905.16 2901.73 2897.53 2894.92 2891.76 2888.92 2886.89 2884.06 2881.85 2879.84 2876.93 2875.50 2872.34 2870.41 2869.82 2868.05 2866.15 2863.67 2862.07 2862.11 2860.62 2860.01 2859.92 2858.26 2857.79 2855.74 2854.49 2853.03 2851.17 2848.94 2846.69 2844.86 2842.37 2840.44 2838.84 2837.08 2835.47 2834.36 2832.67 2831.96 2830.87 2829.69 2828.64 2827.01 2825.90 2824.44 2822.79 2820.95 2819.19 2817.31 2815.29 2813.06 2810.51 2808.61 2806.22 2804.17 2802.01 2799.04 2797.04 2793.91 2792.09 2790.28 2788.38 2786.80 2786.32 2784.69 2783.83 2783.05 2781.62 2780.91 2779.51 2778.51 2777.32 2775.91 2775.48 2773.56 2772.91 2771.84 2770.38 2770.65 2770.08 2769.09 2768.06 2766.35 2764.74 2763.32 2761.87 2760.38 2758.72 2758.22 2757.58 2756.47 2754.94 2752.96 2750.37 2747.96 2745.28 2742.09 2739.93 2737.62 2734.72 2732.80 2729.41 2727.23 2725.43 2722.89 2721.36 2719.00 2717.13 2715.74 2713.83 2713.02 2712.87 2711.97 2711.47 2710.08 2708.23 2706.04 2704.38 2703.81 2702.02 2700.70 2698.81 2697.03 2694.88 2692.58 2691.24 2689.00 2686.21 2683.10 2679.45 2679.61 2680.45 2678.62 2677.08 2674.64 2673.20 2671.95 2669.85 2668.95 2666.11 2664.10 2660.42 2657.39 2652.62 2647.96 2642.96 2635.83 2632.18 2628.17 2624.23 2619.89 2614.02 2610.82 2607.22 2604.13 2601.25 2598.90 2596.16 2593.91 2591.37 2588.79 2586.22 2583.53 2580.66 2577.87 2574.55 2570.81 2568.60 2567.73 2567.36 2568.31 2571.21 2568.85 2558.65
3004.03 3000.83 2999.49 3000.27 3000.30 3000.72 3002.92 3005.21 3011.52 3020.62 3027.77 3037.07 3042.57 3048.86 3056.28 3062.63 3066.91 3066.85 3064.83 3062.19 3057.34 3036.78 3040.83 3038.37 3037.29 3036.60 3035.87 3035.13 3034.14 3033.33 3032.45 3031.35 3029.98 3028.71 3027.51 3026.25 3024.99 3022.90 3021.47 3019.67 3018.11 3016.55 3014.26 3012.79 3010.95 3008.92 3006.87 3004.85 3002.80 3000.71 2998.58 2996.45 2994.33 2992.22 2990.14 2988.09 2986.04 2983.60 2981.02 2978.58 2976.59 2973.96 2971.53 2969.43 2967.53 2965.47 2962.90 2960.26 2958.07 2955.69 2953.28 2950.92 2948.64 2946.10 2943.52 2940.88 2938.24 2934.28 2931.48 2927.13 2924.32 2921.51 2917.33 2914.57 2910.92 2907.18 2904.45 2900.25 2897.64 2893.88 2891.54 2889.20 2886.42 2884.22 2881.23 2879.11 2877.00 2874.51 2872.58 2871.22 2869.92 2867.80 2866.07 2864.48 2864.41 2862.95 2861.50 2861.98 2860.43 2859.98 2858.28 2856.59 2855.68 2853.82 2851.35 2849.37 2847.40 2844.98 2843.05 2841.42 2839.64 2837.85 2836.86 2835.17 2834.12 2833.14 2832.19 2831.26 2829.63 2828.24 2826.82 2825.31 2823.68 2821.91 2819.96 2817.86 2815.61 2813.32 2811.42 2808.96 2806.98 2805.00 2802.14 2800.17 2796.59 2794.73 2792.99 2790.97 2789.40 2788.85 2787.40 2785.96 2785.70 2784.27 2783.63 2782.19 2780.74 2779.89 2778.49 2777.29 2775.92 2774.55 2774.09 2772.63 2771.82 2770.98 2770.09 2769.07 2767.05 2765.97 2764.82 2763.76 2762.79 2761.13 2759.57 2758.18 2756.77 2755.27 2753.45 2751.35 2749.17 2746.91 2744.54 2742.38 2739.39 2737.16 2734.93 2731.84 2729.67 2727.39 2725.36 2723.32 2721.53 2719.65 2718.12 2716.38 2714.64 2713.66 2712.66 2711.90 2710.80 2709.62 2708.53 2706.87 2706.18 2704.52 2702.86 2701.35 2699.58 2697.19 2695.19 2693.18 2690.11 2686.80 2683.42 2681.59 2679.76 2682.60 2680.77 2678.59 2676.62 2674.64 2673.90 2671.80 2670.59 2668.11 2665.63 2662.55 2659.51 2653.92 2650.31 2646.71 2638.44 2634.79 2630.31 2626.05 2621.71 2617.07 2613.87 2610.25 2607.31 2604.36 2602.17 2599.43 2597.05 2594.56 2592.00 2589.46 2586.77 2583.71 2580.97 2578.22 2573.69 2571.34 2570.45 2571.98 2572.63 2567.86 2554.18 2532.01
3007.05 3004.51 3003.47 3004.13 3005.45 3006.29 3008.74 3020.64 3029.03 3032.59 3037.00 3044.74 3051.15 3057.23 3062.52 3070.92 3072.25 3070.96 3069.14 3066.86 3062.95 3046.38 3047.37 3043.59 3041.38 3040.10 3039.17 3038.92 3037.92 3036.35 3034.94 3033.58 3032.17 3031.00 3030.28 3029.60 3027.97 3026.16 3024.74 3022.90 3021.28 3018.74 3016.30 3015.77 3013.35 3011.24 3009.30 3007.35 3005.31 3003.20 3001.06 2998.92 2996.80 2994.68 2992.56 2990.45 2988.30 2985.89 2983.35 2980.92 2978.87 2976.60 2974.23 2972.01 2969.91 2967.73 2965.31 2962.87 2960.68 2958.19 2955.75 2953.37 2950.99 2948.47 2945.94 2943.48 2940.56 2936.88 2934.08 2930.05 2926.94 2923.99 2919.93 2917.18 2913.56 2909.85 2907.12 2902.98 2900.36 2897.27 2894.17 2892.09 2888.79 2886.58 2883.79 2881.30 2879.45 2876.68 2874.74 2873.19 2871.66 2869.77 2868.48 2866.89 2867.15 2865.28 2864.75 2864.31 2862.75 2862.50 2860.83 2859.63 2858.34 2856.47 2854.47 2852.06 2850.31 2847.59 2845.66 2843.87 2842.19 2840.47 2839.36 2837.66 2836.34 2835.27 2834.28 2833.24 2831.86 2830.49 2829.14 2827.80 2826.41 2824.64 2822.65 2820.61 2818.46 2816.12 2814.23 2812.08 2809.79 2807.66 2804.98 2803.01 2800.14 2797.57 2796.52 2795.17 2793.62 2792.12 2790.11 2789.11 2788.35 2786.92 2786.25 2784.87 2783.62 2782.47 2781.06 2779.60 2778.27 2776.99 2776.34 2774.88 2773.30 2772.01 2771.10 2770.80 2769.27 2767.75 2766.30 2765.35 2765.20 2763.54 2761.00 2758.98 2757.28 2755.81 2754.08 2752.36 2750.47 2748.68 2746.99 2744.82 2741.55 2739.60 2736.92 2734.28 2732.10 2729.25 2727.82 2725.27 2724.05 2722.17 2720.24 2718.93 2716.26 2714.63 2713.24 2712.47 2711.42 2710.74 2711.02 2709.36 2708.04 2707.02 2704.91 2703.90 2702.12 2699.65 2697.79 2694.71 2691.28 2688.31 2685.50 2683.73 2681.73 2681.47 2680.03 2679.02 2678.60 2676.05 2675.85 2673.75 2671.84 2670.11 2666.94 2664.67 2661.64 2656.20 2652.67 2648.07 2641.05 2637.40 2632.16 2627.96 2624.02 2620.12 2616.92 2613.54 2610.49 2607.79 2605.44 2602.71 2600.31 2597.78 2595.19 2592.70 2590.02 2586.81 2584.07 2580.89 2576.57 2574.28 2575.23 2573.68 2568.84 2560.47 2548.44 2490.27
3012.16 3009.40 3008.63 3009.62 3012.10 3023.20 3030.47 3037.39 3041.19 3045.05 3048.04 3055.32 3060.50 3065.61 3071.22 3076.10 3075.75 3073.88 3071.99 3070.59 3067.24 3060.51 3052.43 3048.24 3045.30 3043.62 3041.93 3041.26 3039.80 3038.67 3037.32 3035.97 3034.53 3033.25 3032.57 3031.65 3030.07 3028.32 3026.73 3024.98 3023.10 3020.75 3019.19 3017.56 3015.15 3013.48 3011.82 3009.91 3007.82 3005.66 3003.49 3001.34 2999.22 2997.09 2994.95 2992.81 2990.70 2988.28 2985.67 2983.12 2981.13 2979.14 2976.72 2974.40 2972.19 2969.95 2967.61 2965.24 2962.91 2960.46 2958.12 2955.74 2953.30 2950.75 2948.13 2945.61 2943.09 2939.73 2936.46 2932.69 2929.96 2927.24 2923.09 2920.36 2916.74 2913.28 2910.63 2907.59 2905.06 2902.25 2899.83 2897.41 2894.17 2891.83 2887.88 2885.69 2883.51 2880.01 2878.04 2875.91 2874.18 2872.46 2873.04 2871.53 2872.70 2871.20 2869.70 2868.44 2867.26 2866.87 2865.10 2863.33 2861.23 2859.39 2858.41 2856.51 2854.60 2851.47 2848.84 2846.44 2844.56 2842.68 2841.37 2839.58 2838.37 2837.27 2836.21 2835.11 2833.87 2832.59 2831.30 2829.98 2828.57 2826.92 2825.19 2823.49 2821.88 2820.41 2818.56 2816.00 2813.57 2811.34 2809.06 2806.99 2804.79 2803.03 2801.28 2799.91 2798.25 2796.42 2794.84 2793.25 2792.25 2790.73 2789.74 2788.21 2786.68 2784.92 2783.39 2781.82 2780.32 2778.81 2777.22 2775.68 2774.54 2773.06 2771.59 2770.90 2769.49 2769.01 2767.47 2765.94 2765.31 2763.68 2761.84 2760.10 2758.36 2757.13 2755.33 2753.89 2751.95 2750.01 2747.37 2745.28 2742.00 2739.80 2737.61 2734.10 2731.92 2728.85 2726.83 2724.80 2723.28 2721.44 2720.33 2718.58 2716.83 2715.85 2714.19 2713.73 2712.16 2710.60 2710.02 2708.33 2707.51 2705.96 2704.41 2702.83 2700.99 2699.85 2698.14 2695.47 2692.32 2690.14 2687.45 2685.32 2683.18 2680.65 2678.61 2677.49 2675.50 2673.52 2673.00 2670.92 2670.49 2668.10 2665.70 2663.51 2660.62 2656.01 2652.63 2649.25 2642.28 2638.75 2633.26 2629.93 2626.60 2623.14 2619.97 2616.86 2614.01 2611.15 2608.57 2606.02 2603.70 2601.07 2598.43 2596.35 2593.58 2589.62 2586.71 2583.80 2579.02 2576.32 2574.29 2570.20 2566.51 2561.34 2534.50 2486.87
3044.44 3041.68 3040.04 3041.30 3041.58 3043.89 3047.04 3050.69 3053.38 3056.12 3058.34 3064.65 3070.96 3074.54 3079.08 3080.53 3078.79 3076.80 3074.90 3073.22 3071.01 3065.49 3060.17 3052.92 3049.35 3047.66 3045.97 3044.95 3043.50 3041.53 3039.89 3038.80 3037.96 3036.68 3035.20 3033.70 3031.92 3030.04 3028.40 3026.80 3025.01 3022.99 3021.29 3019.69 3018.13 3016.47 3014.80 3012.58 3010.31 3008.05 3005.86 3003.72 3001.61 2999.50 2997.36 2995.22 2993.33 2990.86 2988.22 2985.73 2983.74 2981.75 2979.02 2976.66 2974.43 2972.19 2969.89 2967.54 2965.16 2962.71 2960.53 2958.16 2955.69 2953.20 2950.75 2948.23 2945.71 2942.54 2939.29 2935.45 2932.72 2929.99 2925.97 2923.24 2919.91 2916.31 2913.66 2910.65 2908.12 2905.28 2902.86 2900.44 2897.12 2894.78 2890.77 2888.58 2886.40 2883.06 2881.09 2879.00 2877.27 2875.54 2876.08 2874.58 2875.70 2874.20 2872.70 2872.24 2871.09 2869.79 2868.02 2866.25 2864.13 2862.29 2861.30 2859.40 2857.50 2854.78 2852.14 2849.15 2847.27 2845.39 2843.97 2842.17 2840.69 2839.34 2838.15 2837.00 2835.81 2834.60 2833.37 2832.08 2830.66 2829.06 2827.55 2826.10 2824.73 2823.36 2821.51 2819.43 2817.31 2815.29 2813.33 2811.02 2808.02 2806.26 2804.51 2803.03 2801.37 2799.48 2797.90 2796.32 2795.20 2793.68 2792.57 2791.05 2789.52 2787.63 2786.10 2784.46 2782.95 2781.45 2779.78 2778.24 2777.15 2775.67 2774.20 2773.31 2771.89 2771.59 2770.06 2768.52 2767.83 2766.20 2764.54 2762.80 2761.06 2759.87 2758.07 2756.62 2754.68 2752.74 2750.04 2747.95 2744.71 2742.51 2740.31 2736.81 2734.63 2731.52 2729.50 2727.48 2725.96 2724.12 2723.05 2721.30 2719.55 2718.68 2717.02 2716.47 2714.91 2713.34 2712.51 2710.60 2708.25 2708.27 2706.72 2705.23 2703.38 2701.00 2698.75 2696.64 2694.67 2692.48 2689.69 2687.56 2685.43 2682.68 2680.64 2679.35 2677.36 2675.38 2674.87 2672.79 2672.39 2669.99 2667.60 2665.51 2662.62 2658.20 2654.82 2651.44 2644.73 2641.21 2636.01 2632.68 2629.35 2626.05 2622.97 2619.99 2617.13 2614.28 2611.56 2609.06 2606.92 2604.29 2601.65 2599.58 2596.82 2592.75 2589.84 2586.94 2582.15 2577.60 2572.31 2569.54 2567.56 2556.00 2544.98 2497.45
3064.10 3061.29 3059.48 3057.53 3056.60 3057.01 3060.64 3063.09 3063.89 3066.45 3068.96 3072.38 3078.01 3083.24 3085.59 3085.08 3082.74 3080.75 3078.53 3076.43 3073.51 3066.68 3062.18 3055.16 3052.60 3049.85 3047.98 3045.97 3044.11 3043.59 3042.23 3041.30 3040.40 3039.12 3037.56 3035.87 3033.98 3031.94 3030.35 3028.90 3027.19 3025.30 3023.44 3021.78 3020.46 3018.87 3017.06 3014.88 3012.58 3010.32 3008.14 3006.04 3003.96 3001.90 2999.89 2997.97 2996.08 2993.45 2990.74 2988.23 2986.08 2983.72 2980.93 2978.85 2976.70 2974.48 2972.22 2969.91 2967.59 2965.30 2963.12 2960.63 2958.10 2955.58 2953.16 2950.70 2948.15 2945.33 2942.78 2939.20 2936.21 2933.54 2930.81 2928.15 2924.30 2921.43 2918.37 2915.66 2913.26 2909.96 2907.16 2904.55 2901.69 2899.11 2896.06 2893.88 2892.22 2891.00 2888.96 2886.63 2885.72 2883.14 2882.91 2881.21 2880.29 2878.99 2877.28 2876.67 2875.03 2873.69 2872.28 2870.45 2869.16 2867.31 2864.97 2862.90 2860.68 2857.97 2855.88 2852.72 2850.62 2848.41 2846.27 2844.39 2843.06 2841.52 2840.17 2838.97 2837.79 2836.63 2835.46 2834.25 2832.90 2831.26 2829.87 2828.51 2827.19 2825.85 2824.28 2822.56 2820.75 2818.98 2817.59 2815.75 2813.10 2811.54 2809.19 2807.12 2805.39 2803.76 2802.50 2800.59 2799.12 2797.53 2795.81 2794.08 2792.39 2790.58 2788.91 2787.25 2785.70 2784.06 2782.14 2780.60 2779.55 2778.11 2776.83 2776.03 2774.54 2773.90 2772.41 2770.85 2769.33 2767.71 2767.01 2765.60 2763.97 2762.67 2760.88 2759.21 2757.28 2755.18 2752.75 2750.74 2748.24 2746.22 2743.70 2740.42 2738.26 2735.18 2733.09 2730.90 2729.04 2727.18 2725.55 2723.64 2722.01 2720.63 2718.94 2717.93 2716.07 2714.90 2713.89 2712.36 2710.73 2708.99 2707.57 2705.59 2703.57 2701.76 2699.32 2696.95 2693.10 2690.91 2689.30 2686.80 2685.02 2681.91 2679.71 2678.53 2676.07 2674.95 2674.23 2672.11 2671.30 2668.45 2666.73 2664.30 2661.50 2658.05 2654.27 2651.18 2645.51 2642.23 2638.12 2634.73 2631.70 2628.75 2625.87 2622.97 2620.10 2617.24 2614.41 2611.74 2609.65 2607.36 2605.00 2602.75 2599.99 2596.61 2593.75 2590.40 2585.55 2580.52 2576.63 2573.19 2575.87 2573.83 2561.93 2516.49
3078.17 3076.09 3074.45 3073.12 3070.97 3070.36 3072.94 3075.18 3075.33 3076.43 3078.50 3081.64 3086.65 3090.54 3090.94 3089.95 3087.20 3084.54 3082.46 3080.17 3076.21 3062.40 3066.69 3060.53 3056.47 3053.70 3051.39 3049.73 3047.87 3047.40 3045.79 3044.18 3042.89 3041.48 3039.96 3038.32 3036.66 3035.10 3033.50 3031.62 3029.77 3028.00 3026.38 3024.73 3023.04 3021.21 3019.21 3017.01 3014.73 3012.48 3010.36 3008.30 3006.24 3004.18 3002.16 3000.19 2998.13 2995.67 2993.08 2990.58 2988.56 2986.09 2983.48 2981.40 2979.12 2976.85 2974.60 2972.32 2970.02 2967.73 2965.45 2963.00 2960.49 2957.95 2955.57 2953.17 2950.69 2948.08 2945.53 2942.43 2939.42 2936.59 2933.78 2931.12 2927.15 2924.54 2921.93 2918.81 2916.41 2914.01 2911.60 2909.20 2906.74 2904.30 2901.77 2899.39 2897.04 2894.65 2892.61 2891.09 2889.21 2887.32 2886.15 2884.45 2883.66 2882.05 2880.44 2879.59 2877.95 2876.95 2875.19 2873.43 2872.04 2870.18 2867.75 2865.78 2863.80 2860.83 2858.73 2855.47 2853.44 2851.41 2848.96 2847.09 2845.88 2844.15 2842.42 2841.10 2839.85 2838.73 2837.60 2836.56 2835.58 2833.95 2832.38 2830.90 2829.51 2828.21 2826.86 2825.37 2823.60 2821.83 2820.53 2818.69 2816.48 2814.62 2812.76 2810.12 2808.38 2807.10 2805.48 2803.86 2802.06 2800.47 2798.77 2797.04 2795.32 2793.57 2791.84 2790.11 2788.54 2786.97 2784.98 2783.44 2782.44 2780.93 2779.42 2778.81 2777.32 2776.74 2775.18 2773.61 2772.03 2770.41 2770.07 2768.41 2766.74 2765.50 2763.71 2761.89 2759.93 2757.86 2755.66 2753.65 2751.37 2749.24 2747.10 2743.50 2741.33 2738.23 2736.20 2734.17 2732.11 2730.25 2728.52 2726.78 2725.03 2723.75 2722.07 2720.78 2719.14 2717.49 2716.82 2715.13 2713.68 2711.82 2709.96 2708.29 2706.26 2704.18 2701.96 2699.74 2695.58 2693.39 2691.50 2689.30 2687.11 2684.25 2682.06 2680.33 2678.27 2676.20 2676.41 2674.29 2672.97 2670.55 2668.13 2666.37 2663.57 2659.63 2656.45 2653.27 2647.92 2644.64 2640.46 2637.37 2634.28 2631.66 2628.78 2625.88 2623.02 2620.24 2617.52 2614.84 2612.61 2610.43 2608.25 2605.98 2603.22 2600.03 2597.05 2594.06 2588.93 2585.76 2579.59 2578.29 2579.81 2580.57 2575.21 2521.24
3092.25 3090.30 3087.75 3085.98 3084.23 3083.63 3087.44 3087.24 3086.20 3086.73 3088.84 3090.27 3095.07 3097.41 3096.42 3094.86 3092.36 3089.80 3086.25 3083.05 3077.53 3075.88 3070.44 3065.71 3060.87 3057.66 3055.52 3053.49 3051.63 3050.60 3049.34 3047.20 3045.59 3043.97 3042.53 3040.93 3039.42 3038.25 3036.66 3034.32 3032.36 3030.67 3029.33 3027.67 3025.66 3023.57 3021.40 3019.14 3016.85 3014.61 3012.57 3010.57 3008.48 3006.33 3004.25 3002.20 3000.07 2997.77 2995.41 2993.18 2991.16 2988.55 2986.04 2983.95 2981.49 2979.21 2977.01 2974.74 2972.41 2970.09 2967.78 2965.39 2962.97 2960.55 2958.11 2955.71 2953.31 2950.84 2948.29 2945.40 2942.40 2939.46 2936.75 2934.09 2930.55 2927.65 2924.96 2921.97 2919.57 2918.00 2916.00 2913.85 2911.75 2909.55 2907.42 2904.95 2901.99 2898.29 2896.26 2894.76 2892.70 2891.22 2889.39 2887.69 2886.70 2885.12 2883.60 2882.51 2880.87 2879.88 2878.10 2876.65 2874.91 2873.05 2870.99 2868.66 2866.67 2863.69 2861.59 2858.61 2856.25 2854.24 2851.66 2849.79 2848.30 2846.78 2844.87 2843.42 2842.01 2840.93 2839.71 2838.69 2838.27 2836.64 2834.92 2833.28 2831.76 2830.53 2829.32 2828.01 2826.45 2824.75 2823.47 2821.63 2819.50 2817.69 2815.63 2813.12 2811.38 2809.88 2808.45 2806.64 2805.00 2803.41 2801.63 2799.94 2798.27 2796.61 2794.94 2793.22 2791.38 2789.79 2787.82 2786.28 2785.33 2783.75 2782.56 2781.59 2780.10 2779.29 2777.95 2776.41 2774.73 2773.12 2772.45 2771.22 2769.73 2768.33 2766.54 2764.64 2762.69 2760.68 2758.57 2756.57 2754.49 2752.25 2750.02 2746.57 2744.41 2741.75 2739.30 2737.53 2735.17 2733.31 2731.95 2729.91 2728.53 2726.88 2725.19 2724.19 2722.20 2721.06 2719.74 2718.05 2716.72 2714.65 2713.01 2710.98 2708.96 2706.45 2704.60 2701.57 2698.05 2695.86 2694.46 2691.81 2689.94 2686.60 2684.40 2682.45 2680.46 2678.69 2678.59 2676.47 2674.74 2672.65 2670.25 2668.44 2665.64 2661.59 2658.63 2654.85 2650.33 2647.05 2642.91 2640.01 2636.79 2634.57 2631.69 2628.65 2625.81 2623.16 2620.62 2617.95 2615.59 2613.43 2611.36 2609.20 2606.44 2603.42 2600.35 2597.16 2592.32 2589.14 2583.90 2584.58 2586.52 2585.28 2572.55 2522.17
3105.76 3102.84 3100.67 3098.73 3097.45 3097.21 3099.56 3098.63 3096.90 3097.81 3098.28 3099.75 3103.52 3104.09 3101.98 3099.38 3095.70 3092.46 3089.00 3085.02 3082.85 3080.10 3073.90 3071.01 3065.29 3062.85 3060.41 3057.91 3055.61 3053.56 3051.64 3049.73 3048.46 3046.67 3045.40 3043.68 3041.95 3040.66 3038.91 3036.58 3034.83 3033.08 3031.71 3030.04 3028.04 3025.88 3023.65 3021.38 3019.11 3016.86 3014.92 3012.99 3010.73 3008.41 3006.24 3004.14 3002.00 2999.77 2997.50 2995.26 2993.04 2990.54 2988.10 2985.89 2983.58 2981.51 2979.45 2977.15 2974.79 2972.44 2970.13 2967.78 2965.41 2963.02 2960.61 2958.26 2955.97 2953.65 2951.23 2948.36 2945.26 2941.95 2938.61 2936.13 2933.58 2931.05 2928.55 2926.04 2923.92 2922.34 2920.17 2917.99 2916.22 2914.10 2912.56 2910.40 2908.25 2906.18 2903.98 2900.25 2898.14 2896.04 2893.71 2891.78 2890.33 2888.56 2886.79 2885.94 2884.22 2883.38 2881.54 2879.71 2876.33 2874.45 2874.14 2872.29 2870.43 2867.41 2864.68 2861.73 2859.66 2857.60 2854.60 2852.66 2850.58 2848.81 2847.04 2845.86 2844.25 2843.36 2841.83 2840.30 2840.02 2838.91 2837.38 2835.72 2834.05 2832.89 2831.76 2830.51 2828.82 2827.13 2825.91 2824.17 2821.99 2820.16 2818.33 2815.73 2814.01 2812.21 2810.59 2808.97 2807.74 2806.16 2804.36 2802.79 2801.21 2799.69 2798.22 2796.80 2795.16 2793.58 2792.08 2790.98 2789.39 2787.63 2786.22 2784.97 2783.57 2782.44 2781.09 2779.52 2777.83 2776.27 2775.15 2773.92 2772.54 2771.04 2769.20 2767.36 2765.52 2763.73 2762.00 2760.07 2757.98 2755.94 2753.90 2750.63 2748.56 2746.00 2744.06 2742.12 2739.83 2738.06 2736.85 2735.06 2733.28 2731.67 2729.95 2729.27 2727.54 2725.81 2723.88 2722.04 2720.82 2718.89 2716.97 2714.46 2711.52 2707.86 2705.60 2703.33 2701.25 2699.96 2699.25 2696.85 2694.46 2689.53 2687.15 2684.83 2682.57 2680.32 2679.85 2678.34 2676.38 2673.80 2671.22 2668.12 2665.29 2661.81 2658.78 2655.74 2651.20 2648.11 2644.05 2641.07 2638.09 2636.20 2633.77 2630.97 2628.32 2625.80 2623.30 2620.74 2618.37 2616.24 2614.17 2611.87 2609.24 2606.73 2603.98 2601.24 2596.51 2592.49 2588.89 2590.79 2590.89 2588.27 2561.45 2522.46
3118.40 3116.85 3113.89 3111.35 3110.64 3109.68 3111.12 3109.27 3107.89 3108.68 3108.73 3109.25 3111.35 3109.92 3107.22 3103.43 3101.81 3097.64 3094.49 3090.46 3086.71 3083.18 3078.11 3075.23 3069.39 3066.95 3064.51 3062.29 3059.87 3057.24 3055.33 3053.42 3051.98 3050.19 3048.72 3046.99 3045.27 3043.52 3041.64 3039.62 3037.87 3036.11 3034.33 3032.45 3030.40 3028.24 3026.00 3023.77 3021.66 3019.59 3017.65 3015.72 3013.04 3010.41 3008.22 3006.10 3003.94 3001.70 2999.42 2997.12 2994.78 2992.32 2989.92 2987.87 2986.06 2984.00 2981.94 2979.51 2977.09 2974.75 2972.51 2970.20 2967.85 2965.49 2963.10 2960.78 2958.55 2956.36 2953.94 2951.30 2948.41 2945.11 2941.60 2939.12 2937.07 2934.75 2932.38 2930.06 2927.78 2925.40 2923.22 2921.05 2919.30 2917.18 2915.73 2913.58 2911.42 2909.59 2907.39 2903.53 2901.43 2899.32 2897.51 2895.49 2893.30 2891.53 2889.76 2888.79 2887.07 2886.17 2884.33 2882.50 2879.08 2877.20 2876.96 2875.11 2873.26 2870.62 2867.90 2864.57 2862.50 2860.44 2857.34 2855.40 2853.25 2851.48 2849.71 2848.58 2846.97 2846.12 2844.59 2843.06 2842.63 2841.54 2840.16 2838.49 2836.83 2835.45 2834.21 2833.13 2831.44 2829.75 2828.69 2826.95 2824.80 2822.97 2821.14 2818.51 2816.81 2814.98 2813.36 2811.74 2810.54 2808.96 2807.21 2805.64 2804.06 2802.68 2801.37 2800.40 2798.91 2797.36 2795.86 2794.07 2792.49 2791.27 2789.92 2788.59 2787.14 2785.86 2784.46 2782.80 2781.04 2779.39 2777.99 2776.64 2775.25 2773.79 2771.97 2770.08 2768.25 2766.56 2764.93 2762.99 2761.02 2758.98 2756.94 2753.79 2751.73 2749.27 2747.33 2745.39 2744.07 2742.32 2740.28 2738.50 2736.71 2735.08 2733.36 2732.69 2730.96 2729.23 2727.20 2725.36 2724.02 2722.09 2720.16 2718.32 2715.35 2710.71 2708.45 2706.18 2704.56 2703.28 2702.11 2699.72 2697.32 2692.30 2689.92 2687.45 2685.20 2682.94 2682.18 2680.65 2678.78 2676.20 2673.62 2670.41 2667.58 2664.12 2661.09 2658.05 2653.68 2650.60 2646.71 2643.73 2640.75 2638.50 2636.10 2633.29 2630.81 2628.41 2625.94 2623.41 2621.00 2618.98 2617.06 2615.07 2612.44 2610.09 2607.35 2604.61 2600.08 2595.87 2594.19 2594.61 2593.82 2583.83 2556.86 2526.84
3132.45 3129.90 3127.33 3125.27 3123.26 3124.83 3122.37 3121.64 3119.82 3119.47 3118.29 3118.92 3118.72 3115.15 3110.48 3108.95 3106.92 3102.80 3100.09 3094.65 3090.83 3087.44 3083.14 3079.40 3074.80 3071.74 3069.17 3066.93 3064.57 3061.78 3059.76 3057.61 3055.88 3053.88 3052.07 3050.20 3048.34 3046.46 3044.54 3042.57 3040.70 3038.84 3036.92 3034.92 3032.83 3030.67 3028.46 3026.25 3024.28 3022.19 3020.05 3017.79 3015.08 3012.34 3010.32 3008.19 3005.94 3003.63 3001.29 2998.93 2996.56 2994.13 2991.69 2989.68 2987.96 2985.97 2983.85 2981.56 2979.27 2977.02 2974.94 2972.63 2970.29 2967.98 2965.72 2963.39 2960.96 2958.49 2956.19 2954.18 2951.87 2949.25 2947.05 2944.66 2941.48 2938.64 2936.12 2933.84 2931.49 2928.62 2926.26 2924.11 2922.36 2920.29 2918.72 2916.73 2914.67 2912.91 2910.81 2907.59 2905.15 2903.08 2901.37 2899.35 2897.01 2895.20 2893.18 2891.63 2889.78 2888.61 2886.85 2885.26 2883.42 2881.59 2879.85 2877.68 2875.45 2873.49 2871.54 2868.25 2865.55 2863.05 2860.37 2858.46 2855.96 2853.94 2852.27 2851.09 2849.86 2848.89 2847.70 2846.63 2846.00 2844.39 2842.87 2841.23 2839.57 2837.97 2836.25 2834.56 2832.55 2831.46 2830.37 2828.79 2826.85 2824.93 2822.84 2820.31 2818.63 2817.16 2815.64 2814.07 2812.55 2811.01 2809.64 2808.24 2806.84 2805.53 2804.06 2803.30 2801.80 2800.77 2799.79 2798.21 2796.44 2795.08 2793.51 2792.12 2790.50 2789.24 2787.81 2786.02 2784.14 2782.39 2780.81 2779.32 2777.80 2776.13 2774.33 2772.63 2770.85 2769.18 2767.68 2765.86 2763.96 2762.03 2760.06 2757.71 2755.85 2753.41 2751.43 2749.80 2748.71 2746.92 2745.05 2743.58 2741.47 2739.78 2738.05 2737.28 2736.07 2734.24 2733.04 2731.19 2728.67 2726.42 2724.59 2723.13 2721.00 2716.44 2713.17 2710.46 2708.22 2706.08 2703.71 2700.94 2699.07 2696.23 2693.90 2691.26 2688.93 2686.89 2685.53 2683.06 2680.37 2677.35 2674.89 2671.71 2668.79 2664.91 2661.23 2658.68 2655.26 2652.36 2649.19 2646.27 2643.53 2641.22 2638.96 2636.29 2633.63 2631.24 2628.76 2626.18 2623.66 2621.71 2619.68 2617.32 2614.81 2612.62 2610.09 2607.24 2603.54 2600.13 2597.51 2597.25 2597.92 2582.83 2547.64 2516.84
3145.74 3143.57 3141.12 3139.01 3136.39 3135.92 3134.20 3132.87 3131.51 3130.00 3128.65 3127.73 3125.03 3120.01 3116.61 3114.01 3111.17 3107.16 3104.45 3097.88 3095.10 3092.32 3088.06 3084.08 3079.90 3076.59 3073.66 3070.84 3068.48 3065.64 3063.48 3061.32 3059.39 3057.39 3055.41 3053.39 3051.38 3049.44 3047.49 3045.48 3043.49 3041.53 3039.52 3037.45 3035.34 3033.21 3031.08 3028.99 3027.01 3024.75 3022.38 3019.95 3017.39 3014.93 3012.92 3010.45 3008.01 3005.59 3003.18 3000.80 2998.51 2996.28 2994.15 2992.14 2990.07 2987.89 2985.65 2983.50 2981.43 2979.46 2977.39 2974.99 2972.64 2970.37 2968.13 2965.85 2963.50 2961.14 2958.84 2957.04 2954.67 2952.29 2950.01 2947.63 2944.74 2941.94 2939.29 2936.75 2934.40 2931.38 2929.17 2926.97 2925.29 2923.22 2921.77 2919.71 2917.65 2915.94 2913.84 2911.11 2908.64 2906.40 2904.30 2902.28 2899.99 2898.04 2896.09 2894.30 2892.46 2891.29 2889.46 2887.63 2886.03 2884.20 2882.29 2880.15 2878.11 2876.34 2874.10 2871.21 2868.41 2865.72 2863.16 2861.24 2858.54 2856.72 2854.91 2853.78 2852.75 2851.78 2850.76 2849.79 2848.82 2847.20 2845.63 2843.98 2842.34 2840.73 2839.01 2836.83 2835.11 2833.59 2832.12 2830.45 2828.59 2826.74 2824.85 2822.86 2821.19 2819.50 2817.91 2816.48 2815.25 2813.71 2812.22 2810.80 2809.50 2808.34 2806.87 2806.02 2804.85 2803.81 2802.77 2801.19 2799.65 2798.06 2796.48 2795.01 2793.39 2792.32 2790.63 2788.95 2786.96 2785.20 2783.58 2782.01 2780.45 2778.79 2777.00 2775.33 2773.54 2771.75 2770.45 2768.63 2766.81 2764.94 2763.07 2760.83 2758.97 2757.11 2755.33 2753.64 2751.98 2750.20 2748.76 2746.97 2745.18 2743.19 2741.46 2741.19 2739.47 2737.74 2736.43 2734.58 2732.50 2730.39 2728.38 2726.35 2724.22 2721.04 2717.97 2714.99 2712.18 2709.35 2706.26 2703.94 2701.61 2699.26 2696.93 2694.91 2692.78 2690.58 2688.47 2686.01 2682.82 2680.12 2677.42 2674.31 2671.39 2666.76 2663.78 2660.80 2657.90 2655.00 2651.78 2648.81 2646.14 2643.88 2641.60 2639.16 2636.71 2634.36 2631.89 2629.38 2627.01 2624.93 2622.85 2620.59 2618.08 2615.45 2612.85 2610.16 2607.21 2604.61 2600.65 2600.72 2598.74 2576.84 2551.04 2541.81
3159.17 3156.14 3154.35 3153.17 3150.08 3149.42 3147.20 3144.48 3142.86 3141.17 3137.68 3136.13 3130.78 3124.84 3122.25 3119.26 3115.98 3111.53 3108.81 3103.18 3099.37 3096.73 3092.35 3088.70 3084.50 3081.31 3078.25 3074.76 3072.39 3069.67 3067.20 3065.07 3062.90 3060.90 3058.79 3056.64 3054.46 3052.49 3050.52 3048.42 3046.30 3044.29 3042.20 3040.03 3037.87 3035.77 3033.71 3031.72 3029.75 3027.21 3024.67 3022.16 3019.68 3017.24 3014.79 3012.44 3010.04 3007.60 3005.13 3002.71 3000.54 2998.49 2996.60 2994.59 2992.23 2989.86 2987.50 2985.45 2983.39 2981.34 2979.27 2977.05 2974.85 2972.67 2970.49 2968.28 2966.05 2963.80 2961.50 2959.66 2957.46 2955.17 2952.98 2950.60 2947.57 2944.88 2942.29 2939.65 2937.31 2934.49 2932.08 2930.03 2928.22 2926.15 2924.65 2922.70 2920.74 2918.98 2916.87 2914.24 2911.85 2909.58 2907.23 2905.21 2902.96 2900.88 2898.83 2896.98 2895.14 2893.56 2892.07 2890.06 2888.63 2886.80 2884.56 2882.36 2880.38 2878.54 2876.37 2873.82 2871.18 2868.53 2865.94 2864.03 2861.57 2859.50 2857.97 2856.78 2855.74 2854.73 2853.72 2852.70 2851.64 2850.02 2848.40 2846.70 2845.07 2843.49 2841.77 2839.47 2837.58 2835.83 2834.02 2832.24 2830.32 2828.57 2826.94 2825.42 2823.74 2821.73 2820.01 2818.67 2817.96 2816.42 2814.76 2813.28 2811.99 2811.15 2809.69 2808.96 2807.81 2806.66 2805.75 2804.17 2802.76 2801.05 2799.58 2797.91 2796.28 2795.09 2793.46 2791.69 2789.77 2788.01 2786.33 2784.69 2783.07 2781.45 2779.66 2777.90 2776.24 2774.45 2773.22 2771.40 2769.61 2767.85 2765.90 2763.96 2762.09 2760.72 2759.12 2757.34 2755.26 2753.47 2752.24 2750.36 2748.67 2746.61 2744.88 2744.37 2742.86 2741.24 2739.82 2737.97 2736.13 2734.13 2732.00 2729.56 2727.43 2725.17 2722.55 2719.43 2716.34 2713.40 2710.05 2706.93 2704.94 2702.28 2699.95 2698.76 2696.77 2694.29 2691.42 2688.95 2686.15 2682.89 2680.64 2676.91 2673.99 2669.54 2666.33 2663.43 2660.54 2657.64 2654.18 2651.20 2648.56 2646.56 2644.26 2642.00 2639.79 2637.62 2635.19 2632.80 2630.52 2628.31 2626.16 2623.86 2621.35 2618.28 2615.68 2613.28 2610.87 2608.27 2605.63 2607.06 2608.85 2611.45 2565.15 2544.40
3173.20 3170.47 3167.89 3166.89 3164.22 3163.71 3158.64 3155.98 3153.00 3149.59 3146.98 3143.53 3135.69 3131.89 3127.90 3124.51 3121.12 3115.30 3112.18 3107.81 3104.90 3101.99 3096.15 3093.30 3088.48 3085.85 3083.23 3079.58 3076.62 3073.80 3071.46 3069.13 3066.76 3064.54 3062.28 3060.02 3057.78 3055.64 3053.56 3051.40 3049.26 3047.25 3044.94 3042.63 3040.38 3038.27 3036.14 3033.98 3031.76 3029.31 3026.82 3024.35 3021.98 3019.57 3016.64 3014.51 3012.18 3009.73 3007.23 3004.71 3002.64 3000.57 2998.53 2996.43 2994.18 2991.93 2989.78 2987.85 2985.54 2983.26 2981.20 2979.13 2977.08 2974.98 2972.86 2970.73 2968.59 2966.47 2964.39 2962.48 2960.19 2957.90 2955.88 2953.51 2950.10 2947.69 2945.28 2942.64 2940.11 2937.51 2935.31 2933.11 2931.14 2929.29 2927.77 2925.71 2923.64 2921.74 2919.63 2917.01 2914.87 2912.73 2910.28 2908.01 2905.69 2903.45 2901.21 2898.95 2896.94 2894.97 2893.17 2891.01 2888.79 2886.96 2886.06 2884.29 2882.51 2880.74 2878.72 2876.46 2874.09 2871.70 2869.36 2867.21 2864.84 2863.08 2861.31 2859.94 2858.79 2857.69 2856.57 2855.33 2853.87 2852.28 2851.05 2849.38 2847.72 2846.06 2844.17 2841.88 2840.07 2838.25 2836.16 2834.35 2832.24 2830.47 2828.71 2826.56 2824.89 2823.45 2821.88 2820.31 2819.68 2818.56 2817.10 2815.67 2814.25 2813.93 2812.53 2812.11 2810.69 2809.28 2808.71 2807.22 2806.11 2804.50 2802.88 2800.80 2799.12 2797.92 2796.20 2794.49 2792.83 2791.04 2789.10 2787.26 2785.43 2783.38 2781.56 2779.99 2778.24 2776.49 2775.42 2773.65 2772.09 2770.41 2768.73 2767.78 2766.14 2764.57 2762.85 2761.12 2758.94 2757.21 2756.28 2754.55 2752.83 2751.24 2749.49 2748.29 2746.51 2744.74 2743.58 2741.70 2739.75 2737.72 2735.69 2733.08 2730.93 2729.07 2726.77 2723.39 2720.17 2717.71 2714.63 2712.19 2709.76 2706.79 2704.49 2703.31 2701.02 2698.73 2696.81 2694.26 2691.17 2688.28 2685.39 2679.70 2676.67 2671.94 2668.98 2666.02 2662.42 2659.57 2656.24 2653.56 2650.89 2649.45 2646.97 2644.78 2642.72 2640.83 2638.40 2636.13 2633.99 2631.63 2629.26 2626.23 2623.87 2620.89 2618.61 2616.33 2613.61 2610.98 2612.70 2617.52 2620.17 2621.76 2556.57 2537.12
3186.39 3184.17 3183.63 3181.09 3179.03 3177.94 3171.89 3167.34 3162.32 3158.87 3156.25 3149.67 3139.75 3136.63 3135.08 3128.21 3124.82 3119.41 3115.96 3111.56 3108.65 3105.74 3099.89 3097.03 3092.22 3089.60 3086.98 3083.66 3080.64 3077.39 3075.05 3072.72 3070.45 3068.16 3065.76 3063.43 3061.11 3058.82 3056.64 3054.38 3052.12 3049.90 3047.55 3045.19 3042.87 3040.80 3038.52 3036.11 3033.66 3031.33 3028.96 3026.56 3024.39 3022.21 3019.15 3017.02 3014.54 3012.05 3009.65 3007.16 3005.09 3003.02 3000.43 2998.18 2996.04 2993.91 2991.80 2989.75 2987.63 2985.65 2983.59 2981.53 2979.45 2977.37 2975.27 2973.18 2971.11 2969.09 2967.12 2965.17 2962.88 2960.59 2958.62 2956.26 2952.87 2950.46 2948.05 2945.51 2942.92 2940.33 2938.13 2935.92 2933.88 2932.05 2930.63 2928.56 2926.49 2924.60 2922.49 2919.83 2917.69 2915.55 2913.03 2910.70 2908.30 2905.99 2903.73 2901.51 2899.50 2896.58 2894.61 2892.65 2891.19 2889.37 2888.64 2886.86 2885.09 2883.21 2881.26 2879.21 2877.11 2875.01 2872.92 2870.66 2867.77 2866.01 2864.24 2862.98 2861.85 2860.68 2859.51 2858.26 2856.77 2855.18 2853.98 2852.31 2850.65 2848.88 2846.96 2844.61 2842.80 2840.98 2838.86 2837.05 2834.87 2833.11 2831.34 2829.13 2827.46 2826.08 2824.51 2822.94 2821.95 2820.93 2819.80 2818.38 2816.95 2816.67 2815.28 2814.82 2813.40 2811.98 2811.43 2809.93 2808.87 2807.26 2805.64 2803.53 2801.85 2800.58 2798.86 2797.14 2795.45 2793.66 2791.63 2789.79 2787.96 2785.85 2784.04 2782.45 2780.71 2778.96 2777.91 2776.14 2774.64 2772.97 2771.29 2770.59 2768.94 2767.48 2765.76 2764.03 2762.00 2760.27 2759.42 2757.69 2755.97 2754.43 2752.68 2751.41 2749.63 2747.85 2746.62 2744.75 2742.73 2740.70 2738.67 2736.07 2733.91 2731.86 2729.56 2726.27 2723.05 2720.59 2717.59 2715.15 2712.72 2709.74 2707.44 2706.17 2703.88 2701.59 2699.75 2697.20 2694.03 2691.14 2688.26 2682.43 2679.40 2674.74 2671.78 2668.82 2665.25 2662.39 2659.20 2656.52 2653.85 2652.46 2649.98 2647.46 2645.17 2643.21 2641.13 2639.14 2637.40 2635.03 2632.66 2629.80 2627.45 2624.86 2622.58 2620.30 2617.73 2620.85 2625.56 2628.20 2630.78 2551.60 2542.18 2507.21
3200.02 3197.92 3197.69 3196.23 3196.20 3191.59 3187.30 3180.11 3173.78 3168.68 3161.09 3149.91 3146.40 3142.01 3135.52 3132.39 3126.59 3123.63 3119.10 3116.00 3112.20 3108.93 3104.05 3101.31 3097.12 3094.54 3091.33 3087.54 3084.82 3081.33 3078.75 3076.30 3074.00 3071.68 3069.07 3066.74 3064.36 3061.90 3059.69 3057.29 3054.88 3052.52 3050.14 3047.82 3045.63 3043.56 3040.98 3038.30 3035.67 3033.53 3031.25 3028.96 3026.78 3023.35 3021.08 3019.04 3016.75 3014.38 3012.21 3009.65 3007.23 3004.77 3002.05 2999.96 2997.97 2995.90 2993.78 2991.62 2989.60 2987.76 2985.82 2983.83 2981.82 2979.77 2977.69 2975.61 2973.58 2971.61 2969.65 2967.63 2965.43 2963.18 2961.01 2958.74 2955.91 2953.41 2950.97 2948.45 2945.88 2943.36 2941.02 2938.72 2936.47 2934.34 2932.83 2931.00 2929.04 2927.06 2924.90 2922.47 2920.21 2917.93 2915.47 2913.35 2910.83 2908.50 2906.16 2903.40 2901.29 2898.78 2896.93 2894.76 2892.87 2890.82 2890.19 2889.02 2887.51 2885.72 2883.87 2881.98 2880.09 2878.24 2876.46 2874.54 2871.29 2869.23 2867.40 2866.12 2864.99 2863.69 2862.56 2861.54 2860.54 2858.96 2857.62 2856.14 2854.17 2852.02 2850.17 2847.71 2845.46 2843.27 2841.41 2839.43 2837.24 2835.29 2833.54 2831.37 2829.66 2828.38 2826.98 2825.54 2824.33 2823.18 2821.96 2820.61 2819.34 2818.56 2817.47 2816.62 2815.28 2813.78 2812.51 2811.07 2810.42 2808.83 2807.42 2805.51 2803.79 2802.18 2800.20 2798.82 2797.27 2795.44 2793.29 2791.14 2789.45 2787.36 2785.51 2783.77 2781.78 2780.47 2779.45 2777.84 2776.02 2772.89 2771.98 2772.03 2770.57 2769.32 2767.57 2766.19 2764.72 2763.06 2761.84 2760.07 2758.62 2757.42 2755.67 2753.98 2752.02 2750.24 2748.41 2746.48 2744.77 2742.69 2740.91 2738.86 2736.67 2733.75 2730.89 2728.35 2725.31 2722.87 2719.90 2717.26 2714.97 2712.36 2710.06 2708.12 2705.64 2703.85 2702.64 2700.09 2696.01 2692.38 2689.05 2682.81 2679.86 2677.44 2674.94 2671.73 2667.68 2664.88 2661.83 2659.01 2656.39 2654.04 2651.64 2649.77 2647.51 2645.60 2643.77 2641.64 2639.52 2636.89 2635.19 2633.26 2631.56 2629.87 2627.96 2627.20 2631.69 2631.26 2635.39 2612.24 2560.38 2541.57 2515.89 2489.38
3216.61 3214.42 3212.17 3205.67 3200.22 3193.70 3187.18 3180.06 3173.19 3166.57 3158.20 3149.87 3141.63 3132.91 3131.16 3129.27 3128.65 3124.96 3121.58 3117.77 3114.85 3112.16 3107.16 3104.42 3100.37 3097.77 3095.17 3090.89 3088.17 3084.56 3082.07 3079.58 3077.17 3074.84 3072.04 3069.76 3067.49 3064.81 3062.60 3060.06 3057.55 3055.10 3052.63 3050.30 3048.04 3045.81 3043.29 3040.65 3038.25 3036.11 3033.50 3030.80 3027.92 3025.72 3023.45 3021.30 3019.06 3016.77 3014.61 3011.91 3009.33 3006.84 3004.41 3002.32 3000.18 2998.05 2995.95 2993.90 2991.88 2989.98 2988.03 2986.09 2984.19 2982.18 2980.09 2978.02 2976.01 2974.09 2972.11 2970.07 2967.93 2965.76 2963.63 2961.37 2958.84 2956.40 2953.97 2951.46 2948.91 2946.40 2944.00 2941.60 2939.19 2937.06 2935.28 2933.44 2931.48 2929.42 2927.25 2924.92 2922.67 2920.44 2918.18 2916.06 2913.36 2911.23 2909.10 2906.09 2903.97 2901.07 2899.05 2897.03 2895.22 2893.35 2892.45 2891.39 2890.05 2888.26 2886.49 2884.71 2882.91 2881.12 2879.31 2877.39 2873.99 2872.20 2870.40 2869.26 2868.17 2866.58 2865.43 2864.43 2863.45 2861.87 2860.81 2859.11 2857.42 2854.93 2853.09 2850.64 2848.29 2846.07 2844.22 2842.01 2839.75 2837.99 2836.22 2834.07 2832.36 2830.95 2829.54 2828.10 2826.72 2825.38 2824.00 2822.62 2821.33 2820.30 2819.28 2818.41 2817.21 2815.85 2815.06 2813.62 2812.96 2811.35 2809.74 2808.05 2806.33 2804.45 2802.66 2800.87 2799.53 2797.70 2795.29 2793.40 2791.50 2789.56 2787.71 2785.72 2783.93 2782.15 2781.23 2780.09 2777.09 2775.04 2773.38 2774.45 2772.99 2771.77 2770.20 2768.62 2767.50 2765.85 2764.52 2762.83 2761.14 2760.24 2758.48 2756.63 2754.77 2752.90 2751.04 2749.11 2747.31 2745.30 2743.28 2741.44 2739.25 2735.78 2733.41 2731.03 2727.98 2725.55 2722.32 2719.92 2717.53 2715.09 2712.78 2710.66 2708.38 2706.10 2705.39 2702.84 2698.10 2695.16 2692.22 2685.70 2682.75 2680.78 2677.93 2675.08 2670.71 2667.92 2664.73 2662.14 2659.54 2657.25 2654.85 2653.12 2650.90 2648.68 2647.34 2645.21 2642.83 2640.71 2638.59 2636.80 2635.52 2634.38 2633.57 2637.89 2641.24 2643.54 2646.03 2590.95 2579.76 2526.02 2518.41 2507.59
3221.62 3214.96 3207.46 3200.29 3193.95 3187.63 3180.48 3173.93 3167.62 3161.24 3153.85 3145.86 3138.75 3128.62 3129.69 3127.60 3127.69 3127.03 3123.82 3119.47 3117.06 3113.83 3110.27 3107.54 3103.54 3101.00 3097.95 3094.24 3091.52 3088.06 3085.38 3082.81 3080.33 3078.00 3075.14 3072.79 3070.37 3067.72 3065.51 3062.67 3060.12 3057.66 3055.05 3052.69 3050.32 3048.03 3045.60 3042.84 3040.46 3038.15 3035.69 3033.12 3030.29 3028.10 3025.85 3023.65 3021.44 3019.17 3017.01 3013.90 3011.33 3008.97 3006.77 3004.68 3002.38 3000.14 2998.06 2996.17 2994.15 2992.19 2990.20 2988.28 2986.57 2984.58 2982.47 2980.39 2978.37 2976.58 2974.57 2972.52 2970.39 2968.27 2966.25 2963.99 2961.65 2959.34 2956.99 2954.48 2951.92 2949.40 2947.04 2944.60 2941.90 2939.77 2937.92 2936.02 2933.97 2931.83 2929.66 2927.32 2925.14 2922.99 2920.89 2918.77 2916.28 2913.96 2911.70 2908.77 2906.66 2904.03 2901.59 2899.82 2898.13 2896.50 2895.27 2893.98 2892.68 2890.89 2889.12 2887.37 2885.62 2883.87 2882.16 2880.24 2877.41 2875.16 2873.73 2872.43 2871.04 2869.46 2868.20 2867.10 2866.36 2864.78 2863.78 2862.08 2860.34 2857.84 2856.00 2853.44 2851.24 2849.15 2847.04 2844.77 2842.53 2840.69 2838.83 2836.77 2835.06 2833.69 2832.25 2830.71 2829.15 2827.66 2826.07 2824.61 2823.24 2822.06 2821.01 2820.45 2819.73 2818.37 2817.62 2816.18 2815.00 2813.87 2811.90 2810.60 2808.88 2806.85 2805.12 2802.47 2800.07 2799.96 2797.36 2795.65 2793.29 2791.77 2789.91 2787.72 2786.08 2783.86 2782.49 2780.97 2778.84 2777.18 2776.13 2776.87 2775.41 2774.19 2772.83 2771.29 2770.29 2768.64 2766.77 2765.60 2763.69 2763.05 2761.30 2759.08 2757.52 2755.44 2753.67 2751.74 2749.52 2747.91 2745.59 2744.02 2741.83 2738.13 2735.92 2733.00 2730.65 2728.22 2725.01 2722.59 2720.09 2717.81 2715.50 2713.44 2711.12 2709.25 2708.15 2705.59 2701.11 2697.93 2694.14 2688.59 2685.64 2683.72 2680.92 2677.67 2673.75 2670.96 2667.79 2665.26 2662.77 2660.47 2658.07 2656.22 2654.29 2652.23 2650.91 2648.78 2646.59 2644.53 2642.59 2640.27 2642.29 2641.88 2644.46 2647.91 2651.19 2654.65 2605.50 2585.73 2566.56 2532.54 2523.97 2523.46
3216.58 3209.60 3202.37 3194.76 3187.90 3180.83 3173.96 3168.08 3162.24 3155.43 3147.72 3142.43 3129.93 3129.37 3123.86 3123.56 3124.17 3124.15 3122.35 3119.52 3117.30 3114.40 3111.48 3109.01 3105.02 3102.53 3100.04 3096.34 3093.82 3090.81 3088.34 3085.86 3083.30 3080.88 3077.79 3075.44 3073.09 3070.18 3067.86 3064.94 3062.61 3060.29 3057.42 3055.16 3052.63 3050.36 3048.08 3044.93 3042.68 3040.24 3037.99 3035.74 3032.74 3030.50 3028.22 3025.99 3023.77 3021.28 3018.55 3015.37 3013.20 3011.02 3008.86 3006.65 3004.31 3002.00 2999.76 2997.49 2995.54 2994.16 2992.26 2990.36 2989.00 2986.98 2984.82 2982.73 2980.65 2979.12 2977.02 2974.99 2972.83 2970.67 2968.84 2966.66 2964.36 2962.15 2959.93 2957.39 2954.81 2952.26 2950.06 2947.86 2945.18 2942.88 2940.85 2938.82 2936.62 2934.34 2932.22 2929.75 2927.65 2925.56 2923.53 2921.46 2919.25 2917.16 2915.07 2912.68 2910.57 2907.63 2905.08 2903.10 2901.36 2899.72 2898.17 2896.35 2894.54 2893.17 2891.64 2889.98 2888.25 2886.44 2884.63 2882.90 2880.88 2879.14 2877.40 2875.69 2874.05 2872.47 2870.96 2869.45 2868.94 2867.45 2866.94 2865.28 2863.62 2860.98 2859.11 2856.09 2854.18 2852.28 2849.98 2847.63 2845.30 2843.53 2841.77 2840.09 2838.42 2836.78 2835.17 2833.46 2831.70 2830.14 2828.31 2826.83 2825.35 2824.06 2822.71 2822.24 2820.90 2819.55 2818.82 2817.57 2816.04 2814.36 2812.67 2811.43 2809.83 2807.99 2806.19 2804.14 2802.15 2800.25 2797.53 2795.57 2793.60 2792.38 2790.44 2788.46 2786.59 2784.71 2783.58 2781.88 2780.43 2778.98 2777.53 2777.52 2776.24 2775.92 2774.57 2773.21 2772.41 2770.81 2767.86 2766.17 2764.48 2764.09 2762.36 2760.10 2758.22 2756.35 2753.30 2751.33 2749.75 2747.71 2745.68 2742.81 2740.61 2737.92 2735.61 2733.30 2731.35 2728.92 2726.52 2724.27 2722.02 2719.56 2717.33 2716.18 2713.88 2711.58 2709.12 2706.59 2702.84 2700.18 2697.51 2694.48 2691.81 2688.00 2684.34 2680.81 2677.37 2674.72 2670.88 2668.40 2665.92 2663.55 2661.29 2659.35 2657.31 2655.26 2653.98 2652.18 2650.66 2649.02 2647.38 2650.34 2652.71 2655.21 2657.07 2660.81 2663.55 2665.76 2586.05 2573.97 2547.57 2532.01 2521.44 2508.87
3209.85 3205.53 3197.90 3189.16 3182.05 3174.88 3168.18 3161.47 3155.55 3149.13 3141.99 3130.84 3126.48 3127.96 3124.07 3121.53 3120.94 3120.84 3120.10 3118.53 3117.58 3116.61 3114.09 3111.57 3107.74 3105.25 3102.76 3099.11 3096.59 3093.79 3091.31 3088.84 3086.21 3083.79 3080.54 3078.19 3075.84 3072.92 3070.61 3067.58 3065.25 3062.93 3060.07 3057.81 3055.20 3052.93 3050.66 3047.46 3045.21 3042.73 3040.48 3038.23 3035.17 3032.92 3030.56 3028.34 3026.11 3023.40 3020.50 3017.63 3015.46 3013.29 3010.92 3008.54 3006.16 3003.86 3001.75 2999.72 2997.76 2996.36 2994.46 2992.56 2991.33 2989.31 2987.19 2985.11 2983.03 2981.51 2979.41 2977.42 2975.26 2973.10 2971.31 2969.12 2966.86 2964.65 2962.43 2960.04 2957.56 2954.88 2952.67 2950.47 2948.10 2945.91 2943.87 2941.81 2939.46 2937.02 2934.91 2932.43 2930.34 2928.25 2926.30 2924.24 2922.01 2919.92 2917.83 2915.48 2913.37 2910.60 2907.83 2905.84 2904.54 2902.84 2900.85 2899.04 2897.22 2895.90 2894.35 2892.69 2890.96 2889.21 2887.40 2885.56 2883.76 2882.01 2880.27 2878.46 2876.83 2875.24 2873.73 2872.22 2871.69 2870.19 2869.37 2868.14 2866.15 2863.83 2861.96 2859.00 2857.09 2855.18 2852.89 2850.65 2848.09 2846.33 2844.56 2842.87 2841.20 2839.72 2838.14 2836.35 2834.48 2832.92 2831.10 2829.62 2828.14 2826.79 2825.44 2824.84 2823.49 2822.15 2820.61 2819.33 2818.47 2816.78 2815.09 2812.72 2810.88 2809.02 2807.08 2805.59 2804.24 2801.40 2799.55 2797.59 2795.62 2794.18 2792.24 2790.19 2788.32 2786.44 2785.11 2783.41 2782.08 2780.63 2779.18 2779.36 2778.07 2778.14 2776.78 2775.43 2774.81 2773.20 2770.25 2768.56 2766.88 2766.46 2764.72 2762.44 2760.56 2758.69 2755.60 2753.62 2752.10 2750.06 2748.02 2745.14 2742.94 2740.24 2737.93 2735.62 2732.82 2730.00 2729.01 2726.76 2724.51 2722.14 2719.91 2718.88 2716.58 2714.28 2711.75 2709.22 2705.62 2702.95 2700.28 2697.55 2694.88 2691.10 2687.40 2683.96 2680.61 2677.96 2674.26 2671.78 2669.31 2667.11 2664.84 2663.03 2660.99 2658.94 2657.98 2656.18 2655.26 2653.62 2656.29 2661.25 2664.74 2667.87 2669.61 2672.07 2674.97 2662.08 2615.79 2555.18 2543.17 2529.51 2514.72 2499.66
3196.86 3200.09 3192.65 3183.83 3176.62 3169.59 3162.19 3155.03 3148.77 3141.50 3132.74 3125.95 3130.65 3122.51 3124.28 3119.11 3118.33 3118.32 3118.55 3117.23 3116.69 3115.75 3113.93 3111.76 3108.99 3106.53 3103.80 3100.28 3097.94 3095.73 3093.41 3090.92 3088.19 3085.37 3082.12 3079.25 3077.36 3074.96 3072.52 3069.81 3067.38 3064.96 3062.71 3060.24 3057.59 3055.06 3052.54 3049.88 3047.43 3044.91 3042.51 3040.14 3037.44 3035.00 3032.54 3030.09 3027.53 3025.27 3022.41 3019.54 3017.12 3015.08 3012.77 3010.37 3007.98 3005.70 3003.71 3001.64 2999.54 2997.52 2995.23 2993.79 2992.64 2991.00 2989.04 2986.78 2984.89 2983.24 2981.16 2979.24 2977.03 2974.99 2972.93 2970.78 2968.80 2966.60 2964.55 2962.46 2960.25 2957.27 2954.81 2952.73 2950.74 2948.79 2946.84 2944.88 2942.51 2940.09 2937.85 2935.57 2933.46 2931.41 2929.43 2927.41 2925.29 2923.16 2920.95 2918.62 2916.34 2913.79 2911.34 2909.47 2908.15 2906.26 2904.15 2902.25 2900.51 2899.04 2897.23 2895.46 2893.65 2891.79 2889.84 2888.06 2886.35 2884.56 2882.65 2880.64 2878.98 2877.62 2876.24 2874.85 2873.70 2872.18 2871.27 2869.68 2868.23 2866.49 2864.74 2862.56 2860.88 2858.63 2855.94 2854.08 2851.50 2849.27 2847.16 2845.13 2843.55 2842.56 2841.11 2839.17 2836.67 2835.12 2833.69 2832.19 2830.61 2828.73 2827.31 2826.79 2825.35 2824.07 2822.29 2820.72 2819.54 2817.52 2816.14 2814.00 2813.26 2811.41 2808.20 2806.18 2803.25 2800.98 2799.80 2798.12 2795.87 2793.10 2790.72 2788.79 2786.25 2783.78 2780.52 2778.81 2778.84 2776.88 2776.60 2776.19 2775.13 2777.47 2776.80 2776.14 2775.47 2774.01 2772.51 2770.84 2768.88 2767.17 2765.86 2763.99 2762.15 2760.14 2757.64 2755.63 2753.76 2752.00 2749.79 2747.09 2744.63 2742.09 2739.74 2737.40 2734.85 2732.35 2730.10 2728.07 2725.96 2723.81 2721.78 2720.19 2717.99 2715.42 2712.38 2710.04 2707.11 2704.30 2702.12 2699.88 2697.36 2693.59 2690.28 2687.31 2684.18 2681.22 2677.99 2675.61 2673.32 2671.47 2669.39 2666.62 2664.25 2662.62 2661.78 2660.69 2660.39 2663.51 2667.71 2672.25 2676.22 2678.61 2678.70 2678.39 2670.42 2654.95 2616.47 2548.71 2541.04 2528.43 2510.70 2498.35
3183.18 3185.74 3186.42 3179.20 3171.24 3163.11 3155.81 3149.43 3143.17 3136.49 3129.35 3121.66 3125.18 3122.93 3122.07 3120.08 3118.09 3117.46 3119.06 3118.27 3116.06 3114.26 3112.68 3111.08 3109.29 3107.45 3105.34 3102.67 3100.33 3097.79 3095.35 3092.79 3089.90 3087.02 3084.02 3081.73 3079.43 3076.88 3074.28 3071.71 3069.47 3067.44 3065.20 3062.48 3059.73 3057.04 3054.38 3052.14 3049.55 3046.87 3044.35 3042.00 3039.48 3036.97 3034.47 3032.03 3029.73 3027.46 3024.40 3021.54 3019.32 3017.10 3014.64 3012.19 3009.88 3007.83 3005.78 3003.56 3001.37 2999.24 2997.31 2995.37 2994.11 2992.72 2991.08 2989.05 2987.02 2985.57 2983.49 2981.48 2979.35 2977.21 2975.25 2973.10 2971.11 2968.96 2966.80 2964.92 2962.70 2959.52 2957.33 2955.15 2953.42 2951.58 2949.58 2947.49 2945.40 2943.10 2940.92 2938.81 2936.76 2934.75 2932.78 2930.81 2928.79 2926.65 2924.27 2921.84 2919.50 2917.05 2914.75 2912.74 2910.96 2909.07 2907.27 2905.48 2903.66 2901.83 2900.03 2898.26 2896.43 2894.54 2892.59 2890.81 2889.05 2887.17 2885.22 2883.29 2881.63 2880.17 2878.79 2877.50 2876.35 2874.83 2873.99 2872.37 2870.75 2869.21 2867.46 2865.49 2863.67 2861.85 2858.78 2856.92 2854.56 2852.20 2849.94 2847.90 2846.32 2845.60 2844.00 2842.40 2839.64 2838.08 2836.71 2835.21 2833.72 2831.79 2830.38 2829.84 2828.40 2826.96 2825.29 2823.71 2822.08 2820.38 2818.68 2816.73 2814.93 2813.01 2810.89 2808.77 2805.75 2803.49 2801.17 2799.11 2796.86 2794.50 2792.12 2788.37 2784.82 2783.29 2781.83 2780.12 2779.64 2778.25 2776.86 2777.69 2776.62 2779.67 2778.55 2777.44 2777.30 2775.83 2774.54 2772.87 2770.82 2769.08 2767.33 2765.41 2763.56 2761.48 2759.36 2757.60 2755.88 2754.04 2751.50 2748.67 2746.11 2743.62 2741.28 2739.04 2736.83 2734.69 2731.78 2729.32 2727.11 2725.08 2723.11 2721.30 2719.26 2717.11 2714.97 2712.62 2709.46 2707.05 2704.64 2702.86 2700.35 2696.06 2693.48 2690.90 2687.81 2684.73 2681.52 2679.31 2677.10 2675.41 2673.33 2670.21 2668.38 2666.56 2666.06 2665.17 2669.52 2675.95 2679.46 2683.11 2686.65 2686.53 2685.67 2676.50 2650.67 2620.78 2568.80 2552.32 2536.83 2517.43 2504.91 2496.43
3169.74 3191.15 3183.43 3174.84 3166.59 3156.11 3150.18 3143.38 3136.94 3131.16 3124.30 3128.49 3126.32 3123.35 3122.14 3121.05 3119.09 3118.42 3116.98 3115.99 3114.04 3112.22 3111.09 3110.14 3109.26 3108.28 3107.23 3105.20 3102.72 3099.72 3097.25 3094.76 3091.64 3089.04 3086.47 3084.20 3081.51 3078.72 3075.95 3073.31 3071.10 3069.04 3066.84 3064.29 3061.66 3059.12 3056.75 3054.51 3051.58 3048.72 3046.15 3043.97 3041.46 3038.88 3036.31 3033.82 3031.54 3029.11 3026.27 3023.86 3021.51 3018.98 3016.40 3013.92 3011.70 3009.95 3007.58 3005.37 3003.25 3001.24 2999.38 2997.40 2995.90 2994.49 2993.00 2991.33 2989.48 2987.90 2985.82 2983.70 2981.66 2979.45 2977.58 2975.43 2973.33 2971.32 2969.22 2967.37 2965.15 2962.27 2959.86 2957.98 2956.37 2954.48 2952.31 2950.09 2948.17 2945.95 2943.90 2941.99 2940.03 2938.07 2936.11 2934.22 2932.34 2930.22 2927.60 2924.97 2922.68 2920.20 2918.00 2915.87 2913.77 2911.89 2910.43 2908.75 2906.84 2904.63 2902.83 2901.14 2899.32 2897.47 2895.63 2893.84 2891.90 2889.88 2887.87 2885.94 2884.28 2882.72 2881.28 2879.99 2879.00 2877.48 2876.39 2875.06 2873.41 2871.94 2870.19 2868.05 2866.47 2864.25 2861.62 2859.76 2857.45 2855.07 2852.76 2850.66 2849.08 2848.18 2846.88 2845.08 2842.61 2841.05 2839.82 2838.24 2836.89 2834.85 2833.44 2832.65 2831.45 2830.08 2828.29 2826.71 2824.59 2823.23 2821.10 2819.46 2817.65 2814.80 2812.98 2810.66 2808.03 2805.99 2802.84 2800.46 2797.48 2792.79 2790.24 2788.28 2786.45 2784.33 2783.14 2781.43 2780.48 2779.63 2778.19 2779.18 2778.11 2780.15 2780.30 2778.87 2779.13 2777.66 2774.81 2772.66 2771.28 2770.98 2768.33 2767.16 2765.31 2762.53 2761.00 2759.14 2758.01 2755.63 2752.98 2750.07 2747.49 2745.00 2742.66 2740.43 2738.19 2735.87 2732.86 2730.38 2728.16 2726.32 2724.32 2722.50 2720.53 2718.73 2717.55 2715.21 2712.28 2709.80 2707.66 2705.85 2703.33 2699.35 2696.69 2694.16 2691.31 2688.52 2685.20 2683.01 2681.11 2679.36 2677.27 2674.26 2672.52 2670.59 2671.85 2677.12 2682.33 2687.08 2690.48 2693.35 2694.84 2681.83 2665.96 2648.84 2612.06 2589.75 2577.18 2554.95 2535.94 2511.58 2498.35 2483.06
3173.66 3185.48 3178.15 3169.59 3157.43 3150.28 3143.94 3138.26 3131.61 3137.25 3133.33 3129.73 3126.99 3124.40 3122.62 3120.77 3118.92 3117.78 3115.88 3114.62 3112.69 3110.76 3109.97 3109.34 3109.20 3108.81 3109.46 3107.43 3104.41 3101.18 3099.08 3096.97 3093.31 3091.15 3088.67 3086.15 3083.37 3080.50 3077.64 3074.86 3072.74 3070.61 3068.42 3065.94 3063.38 3060.83 3058.34 3055.84 3053.14 3050.54 3048.37 3046.19 3043.45 3040.77 3038.14 3035.58 3033.40 3030.96 3028.31 3026.08 3023.34 3020.65 3018.01 3015.44 3012.95 3010.92 3008.90 3007.02 3005.09 3003.15 3001.22 2999.29 2997.72 2996.26 2994.77 2993.17 2991.41 2989.62 2987.55 2985.37 2983.16 2980.90 2979.02 2977.07 2975.05 2973.04 2971.00 2969.04 2967.00 2964.81 2962.85 2960.88 2959.35 2957.38 2955.10 2953.10 2951.09 2948.60 2946.65 2944.96 2943.04 2941.12 2939.17 2937.36 2935.64 2933.63 2930.68 2927.79 2925.76 2923.11 2921.16 2919.21 2917.66 2915.79 2913.91 2912.06 2910.20 2907.94 2906.16 2904.22 2902.22 2900.39 2898.59 2896.86 2894.73 2892.58 2890.51 2888.58 2886.85 2885.21 2883.66 2882.11 2881.07 2879.79 2878.52 2877.04 2875.40 2873.62 2872.00 2869.64 2867.97 2866.31 2864.27 2862.33 2860.14 2857.86 2855.63 2853.63 2852.08 2850.94 2849.74 2848.37 2846.96 2845.56 2843.94 2842.58 2841.22 2839.48 2838.14 2836.31 2835.00 2833.70 2831.71 2829.38 2826.52 2824.84 2823.15 2822.15 2820.21 2818.24 2816.35 2813.59 2811.18 2808.77 2805.50 2803.13 2800.57 2795.03 2792.50 2789.44 2787.20 2784.95 2782.86 2780.95 2780.41 2778.90 2777.38 2778.23 2777.00 2779.63 2778.31 2776.99 2775.89 2774.27 2772.98 2771.20 2769.43 2767.85 2766.01 2764.98 2763.10 2761.22 2759.93 2757.92 2757.45 2755.98 2754.08 2751.99 2748.88 2746.27 2743.97 2741.80 2739.54 2737.26 2733.90 2731.65 2729.40 2727.94 2725.77 2724.03 2721.88 2719.73 2718.71 2716.91 2714.63 2712.41 2710.38 2708.42 2706.07 2702.02 2699.71 2697.39 2694.72 2692.56 2688.63 2686.71 2684.78 2682.10 2679.75 2677.40 2680.00 2682.69 2687.95 2689.56 2692.80 2698.22 2701.08 2702.52 2660.62 2660.36 2634.37 2620.75 2600.26 2585.33 2573.55 2552.78 2528.42 2505.75 2489.34 2481.73
3168.19 3180.35 3173.13 3165.13 3153.74 3146.49 3139.80 3144.40 3140.48 3137.54 3134.13 3130.71 3127.78 3125.63 3124.14 3122.29 3120.44 3119.16 3117.26 3116.23 3114.30 3112.37 3110.18 3108.89 3109.39 3107.94 3108.60 3107.59 3105.50 3103.14 3100.86 3098.93 3095.55 3093.39 3090.70 3087.98 3085.18 3082.36 3079.62 3077.11 3074.98 3072.86 3070.24 3067.61 3065.03 3062.38 3059.69 3057.02 3054.63 3052.51 3050.59 3047.98 3045.15 3042.60 3040.10 3037.71 3035.52 3032.95 3030.36 3027.55 3024.71 3022.14 3019.63 3017.25 3014.93 3012.90 3010.87 3008.91 3007.02 3005.18 3003.25 3001.32 2999.59 2998.00 2996.43 2994.79 2993.02 2991.12 2989.04 2986.82 2984.50 2982.11 2980.35 2978.60 2976.67 2974.64 2972.54 2970.42 2968.57 2967.05 2965.09 2963.12 2961.56 2959.59 2957.42 2955.42 2953.41 2950.97 2949.02 2947.38 2945.46 2943.54 2941.75 2939.93 2938.09 2936.02 2933.29 2930.34 2928.32 2925.75 2923.80 2921.85 2920.30 2918.43 2916.45 2914.59 2912.73 2910.39 2908.63 2906.87 2904.82 2903.08 2901.15 2899.42 2897.28 2895.11 2893.05 2891.13 2889.41 2887.70 2886.15 2884.60 2883.32 2882.05 2880.69 2879.08 2877.66 2876.15 2874.53 2872.23 2870.57 2868.90 2866.93 2864.92 2862.80 2860.61 2858.47 2856.54 2855.04 2853.77 2852.52 2851.29 2850.05 2848.65 2847.16 2845.80 2844.44 2842.87 2841.54 2839.91 2838.60 2837.30 2836.07 2833.89 2831.03 2829.34 2827.66 2826.00 2824.05 2822.65 2820.87 2818.64 2814.34 2812.44 2808.60 2806.04 2803.48 2799.43 2796.88 2791.73 2789.48 2787.24 2785.06 2783.15 2782.49 2780.98 2779.47 2780.24 2779.01 2781.53 2780.21 2778.89 2777.67 2776.05 2774.78 2773.01 2771.23 2769.61 2767.77 2766.57 2764.69 2762.81 2761.40 2759.39 2757.69 2755.99 2753.97 2751.61 2749.11 2747.19 2745.21 2743.32 2741.52 2739.24 2736.03 2733.78 2731.54 2730.13 2727.96 2726.31 2724.15 2722.00 2720.56 2718.76 2716.85 2714.85 2712.98 2711.22 2708.86 2705.06 2702.75 2700.43 2698.23 2696.07 2692.76 2690.83 2688.91 2690.44 2693.33 2693.85 2693.47 2699.47 2702.52 2702.41 2705.75 2709.27 2711.54 2687.73 2663.12 2631.97 2626.94 2609.28 2592.73 2574.32 2553.92 2527.76 2514.45 2498.04 2488.68 2481.71
3158.91 3169.59 3166.14 3160.86 3151.30 3143.94 3145.88 3141.30 3139.58 3137.61 3134.89 3131.76 3128.71 3126.85 3125.36 3123.39 3121.39 3118.84 3116.85 3115.46 3112.96 3111.76 3110.14 3108.47 3111.15 3109.70 3108.74 3107.70 3106.13 3104.17 3102.20 3100.22 3096.66 3094.53 3092.28 3089.70 3086.95 3084.16 3081.45 3078.86 3076.53 3074.24 3071.72 3069.15 3066.71 3064.02 3061.15 3058.29 3056.12 3054.17 3052.08 3049.48 3046.66 3044.42 3041.97 3039.52 3037.10 3034.45 3031.65 3028.67 3025.94 3023.69 3021.33 3019.19 3016.92 3014.78 3012.72 3010.75 3008.84 3006.97 3005.06 3003.16 3001.36 2999.66 2997.99 2996.29 2994.48 2992.54 2990.48 2988.35 2986.20 2984.08 2982.09 2980.40 2978.72 2976.69 2974.22 2971.74 2969.77 2968.38 2966.65 2964.76 2962.84 2960.95 2959.25 2957.31 2955.42 2953.28 2951.39 2949.95 2948.08 2946.09 2944.20 2942.28 2940.40 2938.40 2936.00 2933.09 2931.09 2929.26 2927.71 2925.41 2923.22 2921.05 2918.91 2916.81 2914.56 2912.03 2910.27 2908.89 2907.29 2905.55 2903.59 2901.64 2899.55 2897.46 2895.46 2893.59 2891.96 2890.18 2888.49 2886.92 2885.58 2884.35 2883.11 2881.58 2880.05 2878.37 2876.84 2874.89 2873.13 2871.39 2869.49 2867.50 2865.46 2863.38 2861.30 2859.36 2857.98 2856.64 2855.29 2853.97 2852.50 2851.29 2850.01 2848.74 2847.72 2847.04 2845.94 2845.24 2845.18 2845.22 2842.76 2841.07 2840.90 2839.47 2837.40 2837.05 2835.11 2829.70 2826.65 2824.05 2820.57 2818.94 2814.39 2810.55 2806.79 2802.49 2799.95 2795.66 2793.45 2790.64 2787.70 2785.62 2784.80 2783.43 2782.23 2782.74 2781.41 2782.81 2781.69 2780.40 2778.76 2777.10 2776.18 2774.52 2772.95 2771.48 2769.54 2767.73 2765.53 2763.50 2760.86 2758.80 2757.63 2756.11 2754.00 2751.37 2749.35 2748.36 2746.47 2744.31 2741.51 2739.37 2737.60 2735.58 2733.55 2731.89 2729.74 2728.19 2726.42 2724.61 2722.98 2720.89 2719.21 2717.24 2715.36 2713.72 2711.66 2708.93 2706.63 2704.28 2701.99 2699.94 2698.15 2696.25 2699.29 2703.43 2707.33 2708.60 2710.35 2712.32 2713.19 2715.77 2716.99 2718.76 2713.16 2713.02 2688.13 2629.63 2617.84 2604.74 2581.05 2565.41 2555.61 2525.72 2511.45 2497.40 2485.57 2476.01
3144.94 3149.40 3153.04 3155.82 3148.14 3150.48 3146.13 3142.85 3141.13 3138.86 3136.37 3133.63 3131.00 3129.15 3127.46 3125.52 3123.58 3120.90 3118.91 3116.95 3114.97 3112.99 3112.03 3110.36 3110.67 3109.50 3108.40 3107.81 3106.93 3105.33 3104.04 3101.63 3098.64 3096.51 3094.17 3091.53 3088.74 3085.93 3083.16 3080.30 3077.80 3075.47 3073.14 3070.74 3068.60 3065.90 3063.08 3060.44 3058.27 3056.06 3053.76 3051.27 3048.73 3046.50 3043.80 3041.18 3038.61 3035.91 3033.06 3030.09 3027.89 3025.69 3023.28 3021.14 3018.80 3016.58 3014.49 3012.50 3010.58 3008.69 3006.79 3004.90 3003.05 3001.26 2999.50 2997.71 2995.85 2993.91 2991.90 2989.90 2987.94 2986.05 2983.97 2982.09 2980.28 2978.26 2975.98 2973.72 2971.74 2969.99 2968.25 2966.52 2964.87 2962.98 2961.37 2959.45 2957.52 2955.43 2953.54 2952.24 2950.37 2948.38 2946.39 2944.46 2942.59 2940.74 2938.72 2935.48 2933.47 2932.05 2930.16 2928.28 2925.84 2923.51 2921.30 2919.11 2916.80 2914.41 2912.65 2911.11 2909.54 2907.80 2905.82 2903.76 2901.67 2899.70 2897.81 2896.03 2894.40 2892.52 2890.68 2889.08 2887.72 2886.50 2885.33 2884.07 2882.47 2880.90 2879.37 2877.46 2875.65 2873.88 2872.03 2870.11 2868.18 2866.25 2864.28 2862.31 2860.93 2859.62 2858.32 2857.02 2855.68 2854.48 2853.27 2852.10 2850.94 2850.68 2849.57 2849.97 2850.29 2849.02 2847.51 2846.02 2846.43 2844.37 2843.08 2841.30 2839.36 2834.34 2831.87 2829.39 2825.22 2822.69 2819.12 2815.43 2811.30 2806.79 2804.15 2798.98 2796.54 2794.11 2790.57 2788.49 2787.69 2786.04 2784.39 2785.22 2783.89 2785.53 2784.09 2782.65 2781.08 2779.41 2778.55 2776.75 2774.95 2773.58 2771.64 2769.50 2767.47 2765.43 2762.76 2760.69 2758.88 2757.25 2755.41 2753.51 2751.49 2750.58 2748.52 2746.46 2743.66 2741.52 2740.06 2737.91 2735.77 2734.21 2732.06 2730.42 2728.83 2727.20 2725.52 2723.43 2721.96 2719.91 2717.86 2716.49 2714.84 2712.87 2710.86 2708.45 2705.95 2703.79 2702.94 2702.23 2712.87 2714.88 2715.18 2715.47 2718.98 2722.87 2724.98 2726.30 2726.65 2726.65 2726.84 2715.38 2682.02 2621.74 2607.41 2590.55 2567.42 2551.96 2542.79 2524.32 2511.76 2500.25 2487.19 2477.50
3135.09 3137.98 3142.90 3151.74 3147.15 3149.72 3147.02 3144.40 3142.68 3140.49 3138.41 3136.03 3133.29 3131.44 3129.79 3127.65 3125.55 3122.97 3120.97 3118.89 3116.98 3115.13 3113.92 3112.25 3110.55 3108.86 3107.63 3107.98 3108.52 3106.92 3104.87 3102.72 3100.62 3098.17 3096.07 3093.39 3090.52 3087.68 3084.96 3081.57 3079.03 3076.77 3074.80 3072.85 3070.71 3067.80 3064.97 3062.59 3060.42 3057.94 3055.50 3053.10 3050.81 3048.58 3045.41 3042.73 3040.21 3037.56 3034.97 3032.23 3029.84 3027.52 3025.24 3023.10 3020.54 3018.28 3016.18 3014.20 3012.27 3010.37 3008.48 3006.59 3004.72 3002.86 3001.01 2999.15 2997.24 2995.29 2993.31 2991.37 2989.47 2987.57 2985.56 2983.61 2981.73 2979.78 2977.71 2975.69 2973.71 2971.65 2969.80 2968.16 2966.90 2965.01 2963.31 2961.58 2959.55 2957.57 2955.68 2954.12 2952.29 2950.44 2948.57 2946.65 2944.49 2942.95 2940.46 2937.86 2935.86 2934.22 2932.62 2930.37 2927.93 2925.73 2923.64 2921.55 2919.32 2916.80 2915.03 2913.42 2911.82 2910.08 2908.03 2905.84 2903.71 2901.88 2900.14 2898.47 2896.84 2894.73 2892.70 2891.08 2889.75 2888.51 2887.25 2885.94 2884.57 2883.44 2881.91 2879.84 2878.07 2876.39 2874.61 2872.77 2870.95 2869.25 2867.46 2865.26 2863.88 2862.60 2861.35 2859.99 2858.87 2858.44 2857.33 2855.46 2854.86 2854.31 2853.21 2854.65 2854.85 2854.09 2853.34 2850.87 2850.84 2848.77 2847.65 2845.55 2846.27 2844.48 2836.10 2834.10 2830.40 2826.44 2823.84 2820.79 2816.56 2810.07 2807.43 2803.51 2799.63 2797.72 2793.44 2791.36 2790.16 2788.65 2787.39 2787.70 2786.36 2787.57 2786.49 2784.97 2783.39 2781.72 2780.83 2778.99 2777.47 2775.68 2773.73 2771.57 2769.40 2766.99 2764.66 2762.59 2760.56 2758.97 2757.26 2755.64 2753.31 2751.08 2750.58 2748.48 2745.81 2743.67 2742.52 2740.25 2738.55 2736.53 2734.38 2732.88 2731.39 2729.80 2728.06 2725.97 2724.41 2722.58 2721.05 2719.78 2718.24 2716.67 2715.12 2712.82 2710.46 2708.55 2707.73 2714.06 2719.45 2719.81 2720.04 2720.94 2723.54 2726.73 2728.49 2728.50 2730.73 2732.17 2732.09 2700.74 2651.33 2614.30 2596.15 2570.31 2561.65 2532.19 2521.56 2511.05 2505.51 2496.63 2491.98 2475.54
3122.79 3127.53 3143.26 3152.78 3149.45 3150.84 3148.86 3146.87 3145.72 3142.80 3141.18 3139.55 3137.73 3135.89 3133.33 3130.80 3128.49 3126.28 3124.13 3121.25 3119.07 3116.90 3114.63 3112.54 3110.50 3108.59 3106.67 3107.19 3107.08 3105.98 3104.28 3102.77 3101.49 3100.10 3098.00 3095.15 3092.26 3089.44 3087.14 3082.79 3080.49 3078.20 3076.40 3074.21 3071.99 3069.17 3066.32 3063.97 3061.79 3059.42 3057.01 3054.61 3052.20 3049.60 3046.47 3044.20 3041.94 3039.30 3037.06 3034.31 3031.64 3029.10 3026.68 3024.39 3021.94 3019.91 3017.87 3015.90 3013.95 3012.05 3010.16 3008.27 3006.38 3004.49 3002.59 3000.67 2998.73 2996.76 2994.77 2992.83 2990.95 2989.04 2987.03 2985.04 2983.18 2981.27 2979.29 2977.27 2975.20 2973.13 2971.25 2969.37 2968.04 2966.40 2964.76 2963.05 2961.09 2959.01 2957.18 2955.87 2954.02 2952.17 2949.87 2947.94 2945.27 2943.33 2941.39 2939.54 2937.70 2935.80 2933.92 2931.96 2929.71 2927.83 2925.96 2924.10 2922.23 2919.83 2918.03 2915.94 2914.21 2912.48 2910.29 2907.97 2905.72 2904.07 2902.42 2900.71 2898.88 2896.75 2894.63 2893.09 2891.83 2890.58 2889.21 2887.77 2886.33 2885.26 2883.78 2881.88 2880.41 2878.94 2877.25 2875.48 2873.75 2872.30 2870.86 2868.14 2866.84 2865.59 2864.28 2863.08 2862.45 2861.85 2860.73 2860.00 2860.03 2860.50 2859.52 2860.56 2859.53 2858.51 2857.65 2856.25 2856.74 2855.05 2853.36 2850.05 2849.21 2848.02 2843.91 2841.65 2837.52 2833.83 2829.75 2826.92 2824.10 2817.47 2813.26 2810.14 2807.53 2804.92 2799.84 2797.48 2794.01 2792.05 2790.09 2790.39 2790.34 2791.20 2789.59 2787.98 2787.48 2785.75 2784.37 2782.48 2780.59 2778.18 2775.77 2773.44 2771.18 2768.92 2768.21 2766.74 2762.90 2761.18 2759.46 2758.84 2756.31 2753.35 2752.39 2750.85 2748.99 2747.43 2746.50 2744.39 2742.27 2739.78 2737.56 2735.82 2734.17 2732.54 2730.84 2729.00 2727.38 2725.83 2724.46 2723.24 2721.49 2719.95 2718.47 2716.98 2715.53 2715.16 2722.10 2724.83 2725.85 2726.85 2726.12 2726.67 2727.25 2728.75 2730.50 2731.96 2735.18 2738.64 2730.69 2694.34 2645.77 2611.27 2583.60 2564.16 2535.22 2521.62 2509.37 2501.89 2492.68 2481.48 2472.29 2455.53
3114.51 3129.18 3145.61 3154.43 3152.90 3153.33 3151.40 3149.38 3148.23 3145.67 3144.04 3142.42 3140.65 3138.81 3136.52 3133.93 3131.40 3128.94 3126.79 3123.77 3121.59 3119.41 3116.94 3114.84 3112.66 3110.74 3108.82 3107.90 3106.18 3105.00 3103.25 3102.21 3101.49 3100.53 3098.81 3096.41 3093.96 3091.50 3089.20 3085.04 3082.74 3080.45 3078.49 3076.30 3073.59 3070.59 3067.56 3065.27 3063.13 3060.80 3058.39 3055.98 3053.54 3051.01 3048.41 3046.15 3043.89 3041.21 3038.97 3036.07 3033.21 3030.50 3027.98 3025.80 3023.82 3021.78 3019.74 3017.65 3015.66 3013.75 3011.85 3009.96 3008.06 3006.16 3004.24 3002.30 3000.34 2998.36 2996.35 2994.40 2992.53 2990.60 2988.59 2986.54 2984.72 2982.84 2980.89 2978.88 2976.82 2975.03 2973.15 2971.27 2969.42 2967.66 2966.07 2964.45 2962.73 2960.99 2959.16 2957.93 2956.08 2954.22 2951.93 2949.99 2947.29 2945.34 2943.40 2941.51 2939.72 2937.99 2936.11 2934.00 2931.94 2930.06 2928.24 2926.38 2924.51 2922.17 2920.38 2918.26 2916.53 2914.80 2912.57 2910.25 2908.09 2906.43 2904.78 2902.97 2901.04 2899.00 2897.07 2895.53 2894.18 2892.90 2891.66 2890.22 2888.77 2887.46 2886.04 2884.48 2883.01 2881.55 2879.96 2878.30 2876.65 2875.20 2873.75 2871.27 2869.96 2869.08 2867.52 2866.32 2866.61 2866.16 2865.22 2864.59 2864.29 2864.15 2863.23 2864.20 2863.47 2862.97 2861.85 2860.75 2860.34 2858.65 2856.96 2853.29 2851.62 2849.92 2847.85 2846.67 2843.02 2840.39 2833.27 2830.44 2827.62 2822.25 2817.59 2813.44 2810.83 2808.22 2802.98 2800.62 2796.89 2794.94 2792.98 2793.68 2793.54 2793.78 2792.17 2790.56 2789.98 2788.26 2786.75 2784.86 2782.98 2780.25 2777.47 2774.76 2772.96 2770.83 2765.65 2767.42 2764.80 2763.08 2761.36 2761.12 2759.24 2756.84 2755.18 2753.66 2752.19 2750.55 2749.02 2746.91 2744.80 2742.62 2740.61 2738.82 2736.99 2735.33 2733.68 2731.70 2730.44 2729.10 2727.62 2726.16 2724.42 2722.95 2721.60 2720.63 2720.43 2725.80 2732.74 2731.58 2731.18 2732.95 2731.09 2730.94 2731.59 2733.52 2734.53 2737.30 2737.16 2722.93 2694.27 2659.17 2628.54 2607.11 2580.30 2552.33 2530.68 2516.77 2504.86 2497.78 2486.77 2475.94 2460.94 2446.06
3114.44 3126.93 3140.75 3155.21 3154.43 3154.99 3154.67 3154.16 3153.46 3150.56 3148.90 3146.86 3144.65 3142.70 3140.00 3137.15 3134.42 3131.65 3129.34 3126.49 3124.07 3121.88 3119.50 3117.21 3114.87 3112.58 3110.32 3108.58 3107.79 3105.57 3102.86 3101.93 3101.56 3101.00 3099.69 3097.60 3095.57 3092.95 3090.59 3087.90 3085.91 3083.18 3080.17 3077.87 3075.28 3072.43 3069.63 3067.35 3064.81 3062.26 3059.76 3057.31 3054.88 3052.42 3049.95 3047.58 3045.16 3042.58 3040.13 3037.34 3034.53 3031.81 3029.22 3027.14 3025.30 3023.37 3021.39 3019.34 3017.38 3015.48 3013.57 3011.66 3009.76 3007.85 3005.94 3004.01 3002.07 3000.14 2998.23 2996.28 2994.30 2992.33 2990.36 2988.43 2986.48 2984.53 2982.58 2980.64 2978.69 2976.79 2974.84 2972.86 2970.83 2968.98 2967.45 2965.87 2964.22 2962.55 2960.86 2959.36 2957.60 2955.71 2953.61 2951.57 2949.25 2947.22 2945.27 2943.38 2941.56 2939.76 2937.85 2935.80 2933.76 2931.83 2929.99 2928.13 2926.21 2924.11 2922.24 2920.32 2918.57 2916.78 2914.71 2912.52 2910.48 2908.77 2907.11 2905.26 2903.31 2901.39 2899.72 2898.12 2896.59 2895.10 2893.68 2892.33 2891.01 2889.73 2888.40 2887.01 2885.61 2884.21 2882.77 2881.31 2879.88 2878.58 2877.40 2876.19 2875.01 2874.39 2873.82 2872.17 2871.92 2870.83 2869.60 2868.86 2868.26 2868.55 2867.52 2867.77 2867.20 2866.40 2865.18 2863.87 2862.54 2860.45 2859.14 2856.95 2855.05 2853.44 2852.19 2850.01 2846.36 2843.64 2838.58 2834.68 2831.13 2825.74 2821.46 2816.78 2813.80 2811.15 2807.79 2805.35 2800.81 2798.41 2796.88 2797.77 2796.13 2795.78 2794.23 2792.76 2791.70 2789.88 2787.80 2785.39 2783.96 2781.77 2779.29 2776.85 2774.43 2765.03 2763.40 2761.78 2762.75 2761.11 2762.73 2762.01 2761.76 2759.97 2758.03 2756.39 2755.23 2753.22 2751.20 2748.94 2746.99 2745.16 2743.43 2741.75 2739.70 2738.10 2736.62 2735.08 2733.82 2732.40 2730.66 2729.19 2727.63 2726.16 2724.88 2724.43 2731.28 2733.50 2735.38 2734.48 2735.38 2734.76 2733.71 2735.45 2737.17 2739.71 2740.47 2718.57 2708.66 2697.30 2680.16 2662.15 2627.79 2603.75 2588.19 2547.41 2528.01 2515.23 2498.81 2487.95 2477.56 2468.76 2449.86 2435.50
3112.51 3122.80 3139.82 3154.50 3156.74 3157.54 3157.97 3157.53 3156.83 3154.04 3152.51 3150.98 3148.16 3146.21 3143.42 3140.41 3137.76 3134.67 3132.37 3129.46 3127.09 3124.71 3122.20 3119.73 3117.22 3114.66 3112.11 3110.05 3107.99 3107.01 3104.93 3102.86 3102.26 3102.00 3101.55 3099.47 3097.84 3095.18 3092.61 3090.24 3087.98 3085.73 3082.25 3079.94 3077.25 3074.43 3071.67 3069.11 3066.43 3063.73 3061.12 3058.66 3056.23 3053.78 3051.30 3048.82 3046.26 3043.64 3041.20 3038.46 3035.82 3033.32 3031.03 3028.95 3026.92 3024.97 3023.06 3021.19 3019.23 3017.27 3015.32 3013.38 3011.46 3009.55 3007.66 3005.76 3003.84 3001.91 2999.99 2998.03 2996.04 2994.05 2992.09 2990.14 2988.18 2986.21 2984.28 2982.41 2980.56 2978.48 2976.48 2974.55 2972.70 2970.85 2969.11 2967.41 2965.69 2964.00 2962.35 2960.69 2958.95 2957.08 2955.08 2953.13 2951.04 2949.00 2947.02 2945.11 2943.25 2941.40 2939.47 2937.45 2935.40 2933.39 2931.55 2929.69 2927.75 2925.76 2923.92 2922.16 2920.47 2918.74 2916.81 2914.69 2912.70 2911.05 2909.46 2907.55 2905.58 2903.69 2902.17 2900.64 2898.98 2897.31 2895.68 2894.41 2893.23 2892.05 2890.82 2889.54 2888.22 2886.90 2885.63 2884.38 2883.13 2881.87 2880.61 2879.37 2878.19 2878.20 2877.07 2875.94 2875.14 2874.05 2873.02 2872.15 2871.28 2871.49 2869.96 2870.74 2869.68 2868.86 2867.97 2866.64 2865.23 2863.55 2861.87 2860.12 2858.21 2856.12 2853.94 2851.76 2848.96 2846.09 2842.54 2837.77 2834.69 2828.34 2825.26 2819.56 2816.73 2813.90 2810.65 2808.21 2803.33 2801.33 2799.33 2800.48 2798.84 2798.42 2796.71 2795.01 2794.18 2792.36 2789.78 2787.76 2785.75 2783.43 2781.03 2778.63 2776.33 2774.03 2773.34 2771.44 2765.09 2763.45 2764.95 2763.39 2763.36 2762.44 2760.55 2758.66 2757.77 2755.76 2753.57 2751.45 2749.33 2747.66 2746.04 2744.33 2742.28 2740.92 2739.66 2738.35 2737.01 2735.23 2733.44 2732.29 2730.99 2729.65 2728.52 2732.99 2735.75 2734.16 2736.05 2735.80 2734.27 2734.46 2735.31 2739.51 2737.23 2716.87 2711.00 2704.88 2698.00 2684.39 2668.68 2659.14 2628.73 2605.69 2588.95 2548.43 2526.20 2514.04 2498.49 2479.12 2471.83 2460.60 2443.34 2425.85
3108.26 3120.41 3132.97 3152.59 3162.38 3160.67 3161.84 3160.91 3160.20 3158.28 3156.11 3154.72 3151.67 3149.72 3147.13 3143.93 3141.46 3138.99 3136.14 3133.03 3130.10 3127.82 3125.02 3122.43 3119.82 3117.20 3114.60 3112.17 3109.99 3108.70 3107.01 3104.46 3103.16 3102.39 3101.60 3100.32 3099.68 3097.40 3094.62 3092.33 3090.06 3087.46 3084.32 3082.01 3079.24 3076.40 3073.62 3070.90 3068.11 3065.26 3062.51 3060.07 3057.65 3055.17 3052.65 3050.12 3047.47 3044.75 3042.48 3039.55 3037.11 3034.84 3032.84 3030.75 3028.54 3026.52 3024.65 3023.05 3021.08 3019.05 3017.04 3015.07 3013.14 3011.24 3009.37 3007.50 3005.62 3003.67 3001.73 2999.75 2997.76 2995.76 2993.78 2991.82 2989.84 2987.86 2985.90 2983.99 2982.03 2979.94 2978.00 2976.19 2974.57 2972.72 2970.82 2968.99 2967.19 2965.46 2963.90 2962.12 2960.37 2958.53 2956.60 2954.79 2952.79 2950.72 2948.70 2946.75 2944.88 2943.01 2941.10 2939.11 2937.05 2934.98 2933.19 2931.31 2929.31 2927.30 2925.54 2923.91 2922.34 2920.74 2918.95 2916.73 2914.64 2913.29 2911.70 2909.71 2907.84 2906.12 2904.61 2903.04 2901.38 2899.73 2898.15 2896.74 2895.58 2894.44 2893.29 2892.10 2890.83 2889.57 2888.47 2887.45 2886.39 2885.13 2883.79 2882.55 2881.37 2881.35 2880.31 2879.39 2878.36 2877.27 2876.49 2875.44 2876.74 2875.72 2873.09 2873.38 2872.77 2871.87 2871.07 2869.49 2868.15 2866.65 2864.87 2863.32 2861.38 2859.00 2856.85 2854.67 2851.62 2849.13 2844.73 2840.87 2837.03 2831.39 2828.31 2822.92 2819.67 2817.04 2813.51 2811.07 2806.98 2804.25 2802.76 2803.20 2801.56 2800.44 2799.20 2797.31 2796.66 2794.84 2792.04 2790.13 2787.54 2785.13 2782.84 2780.49 2778.74 2777.10 2776.38 2774.48 2771.25 2770.94 2769.23 2767.52 2765.88 2764.57 2763.06 2761.39 2760.30 2758.29 2756.06 2753.95 2751.98 2750.31 2748.73 2747.11 2745.41 2744.04 2742.73 2741.32 2739.54 2738.06 2736.58 2735.71 2734.51 2733.44 2732.35 2737.59 2736.17 2736.66 2735.09 2734.37 2733.82 2734.12 2727.32 2713.96 2705.05 2705.06 2703.25 2697.57 2690.82 2675.57 2663.72 2639.54 2623.97 2606.97 2578.22 2551.04 2537.00 2508.16 2490.65 2478.30 2466.43 2455.46 2436.58 2424.00
3099.40 3115.64 3129.90 3147.14 3156.85 3166.06 3167.13 3165.45 3165.01 3163.79 3162.28 3160.78 3157.95 3155.72 3152.33 3149.14 3145.59 3142.65 3140.04 3137.10 3134.42 3131.74 3128.07 3125.38 3122.66 3120.05 3117.45 3114.68 3112.17 3110.38 3107.93 3105.48 3103.93 3102.64 3101.32 3099.42 3097.52 3098.09 3095.99 3093.87 3091.21 3089.06 3086.37 3083.81 3081.06 3078.26 3075.51 3072.75 3069.93 3066.95 3064.00 3061.67 3059.22 3056.66 3054.09 3051.64 3049.09 3046.55 3044.28 3040.69 3038.51 3036.33 3034.52 3032.44 3030.06 3028.03 3026.01 3024.41 3022.60 3020.66 3018.69 3016.72 3014.78 3012.88 3011.04 3009.23 3007.42 3005.47 3003.48 3001.48 2999.46 2997.45 2995.46 2993.50 2991.52 2989.52 2987.51 2985.59 2983.52 2981.36 2979.50 2977.63 2976.02 2974.25 2972.40 2970.58 2968.76 2966.99 2965.75 2963.97 2961.97 2960.17 2958.51 2956.71 2954.54 2952.37 2950.30 2948.35 2946.49 2944.67 2942.82 2940.90 2938.94 2937.05 2935.26 2933.12 2931.00 2928.90 2927.23 2925.67 2924.19 2922.80 2921.21 2918.63 2916.00 2914.41 2912.83 2911.45 2909.95 2908.44 2906.96 2905.41 2903.80 2902.18 2900.62 2899.25 2898.04 2896.90 2895.79 2894.70 2893.44 2892.17 2891.25 2890.45 2889.62 2888.42 2887.22 2886.95 2885.80 2885.42 2884.29 2883.16 2882.22 2881.37 2880.85 2879.72 2879.69 2878.72 2877.58 2876.98 2875.74 2874.49 2873.31 2871.85 2870.86 2869.22 2867.58 2866.49 2864.56 2861.67 2859.40 2856.58 2852.99 2850.38 2845.49 2842.62 2839.76 2834.26 2829.81 2824.67 2821.61 2818.55 2811.32 2810.11 2809.13 2807.14 2805.15 2804.52 2802.63 2801.36 2799.61 2797.79 2796.85 2795.16 2792.82 2790.84 2788.87 2786.88 2784.82 2782.04 2780.05 2778.07 2777.68 2775.77 2773.95 2772.18 2772.06 2769.59 2767.75 2766.25 2764.61 2763.12 2761.88 2760.10 2758.23 2756.35 2754.57 2752.98 2751.50 2750.04 2748.58 2747.23 2745.83 2744.17 2742.40 2741.30 2739.65 2739.25 2737.96 2737.49 2743.61 2742.97 2738.78 2734.68 2736.12 2735.81 2737.07 2736.04 2736.89 2715.21 2686.62 2682.36 2679.48 2684.00 2681.46 2663.35 2634.07 2626.46 2616.76 2598.37 2563.90 2545.95 2520.49 2501.23 2486.09 2473.27 2462.83 2449.99 2433.75 2403.93
3090.87 3110.34 3124.93 3138.66 3153.71 3172.57 3171.57 3169.91 3169.46 3168.38 3166.87 3165.37 3162.13 3159.90 3156.66 3153.24 3150.66 3146.63 3144.02 3140.73 3138.05 3135.37 3131.51 3128.82 3125.76 3123.15 3120.55 3117.48 3114.97 3112.80 3110.36 3107.91 3105.29 3103.46 3102.84 3100.94 3099.03 3098.71 3097.64 3095.19 3093.04 3090.89 3088.22 3085.55 3082.81 3080.05 3077.39 3074.69 3072.00 3068.98 3066.00 3063.67 3060.97 3058.26 3055.62 3053.34 3050.78 3048.15 3045.51 3042.44 3040.26 3038.08 3036.23 3034.16 3031.83 3029.80 3027.78 3025.95 3024.11 3022.22 3020.29 3018.34 3016.39 3014.49 3012.66 3010.87 3009.06 3007.16 3005.19 3003.18 3001.16 2999.14 2997.14 2995.19 2993.23 2991.26 2989.31 2987.39 2985.18 2983.16 2981.30 2979.43 2977.58 2975.73 2973.91 2972.18 2970.58 2968.81 2967.12 2965.19 2963.18 2961.48 2959.86 2958.05 2955.98 2953.85 2951.80 2949.93 2948.18 2946.44 2944.63 2942.74 2940.80 2938.85 2936.88 2934.81 2932.82 2930.94 2929.27 2927.42 2925.92 2924.97 2923.38 2920.76 2918.19 2916.61 2915.03 2913.60 2912.20 2910.79 2909.34 2907.83 2906.27 2904.71 2903.20 2901.82 2900.55 2899.35 2898.24 2897.32 2896.06 2894.79 2894.00 2893.29 2892.46 2891.26 2890.07 2889.92 2888.77 2888.38 2887.25 2886.11 2885.66 2884.72 2883.73 2882.60 2882.15 2881.79 2880.66 2879.88 2878.64 2877.39 2876.15 2874.68 2873.72 2872.08 2870.44 2869.37 2867.44 2864.53 2862.27 2859.14 2855.83 2853.22 2848.38 2845.51 2842.65 2836.13 2831.74 2827.42 2824.36 2817.77 2814.09 2811.36 2812.05 2810.06 2808.07 2807.27 2805.38 2803.21 2801.19 2800.16 2797.62 2795.94 2795.40 2793.42 2791.44 2789.57 2787.51 2784.65 2782.67 2780.69 2780.25 2778.33 2776.49 2774.72 2772.95 2772.29 2770.45 2768.12 2765.89 2764.46 2763.42 2761.74 2760.34 2758.71 2757.07 2755.63 2754.29 2752.98 2751.71 2750.50 2749.19 2747.55 2745.95 2744.29 2742.64 2742.29 2741.00 2740.29 2739.67 2739.68 2739.85 2740.31 2738.80 2741.61 2737.40 2740.27 2742.01 2730.01 2690.85 2670.21 2666.59 2672.81 2667.49 2638.28 2625.74 2616.50 2601.11 2575.29 2553.99 2537.67 2514.08 2502.56 2479.70 2471.81 2461.65 2449.30 2429.78 2399.06
3085.29 3103.28 3120.88 3138.02 3150.40 3164.61 3176.85 3176.76 3176.54 3176.51 3176.38 3173.50 3169.12 3165.41 3161.99 3159.51 3156.35 3152.50 3149.74 3146.40 3143.97 3140.75 3136.68 3133.82 3130.70 3127.42 3123.87 3120.18 3117.04 3114.73 3112.05 3109.18 3106.21 3103.49 3102.46 3100.19 3098.91 3098.34 3096.12 3094.92 3093.53 3091.79 3089.59 3087.15 3084.52 3081.82 3079.32 3076.66 3074.25 3071.22 3068.21 3065.50 3062.66 3059.97 3057.52 3055.24 3052.45 3049.65 3046.87 3044.07 3041.66 3039.26 3036.87 3034.80 3033.03 3031.22 3029.32 3027.46 3025.62 3023.78 3021.89 3019.97 3018.02 3016.08 3014.27 3012.49 3010.68 3008.81 3006.88 3004.89 3002.86 3000.84 2998.83 2996.91 2994.93 2992.89 2990.82 2988.70 2986.49 2984.58 2982.75 2980.90 2979.02 2977.15 2975.29 2973.56 2971.94 2970.20 2968.36 2966.35 2964.28 2962.73 2961.11 2959.30 2957.30 2955.22 2953.21 2951.52 2950.18 2948.44 2946.54 2944.61 2942.65 2940.62 2938.49 2936.43 2934.36 2931.65 2929.97 2928.62 2927.03 2926.05 2924.72 2922.71 2920.62 2918.95 2917.40 2915.96 2914.59 2913.21 2911.79 2910.31 2908.78 2907.26 2905.79 2904.40 2903.07 2901.78 2900.52 2899.64 2898.63 2897.61 2896.82 2896.13 2895.38 2894.34 2893.13 2892.49 2891.28 2890.00 2888.50 2888.21 2888.69 2887.53 2886.37 2884.51 2883.71 2883.00 2881.84 2880.97 2879.38 2878.46 2877.05 2875.59 2875.07 2873.40 2871.90 2869.90 2868.03 2866.22 2863.85 2861.07 2856.86 2854.32 2851.12 2848.19 2844.27 2836.41 2833.22 2827.67 2823.15 2819.99 2817.02 2814.22 2813.53 2811.23 2809.63 2808.12 2806.12 2804.64 2802.72 2800.81 2797.81 2795.95 2795.87 2793.90 2792.54 2790.75 2788.73 2785.75 2783.66 2781.50 2778.98 2776.94 2776.45 2774.45 2773.60 2773.15 2771.84 2769.73 2767.13 2765.88 2765.53 2763.57 2762.82 2761.24 2759.57 2758.29 2757.08 2755.88 2754.73 2753.66 2752.57 2750.79 2749.19 2747.61 2746.46 2746.85 2745.47 2743.87 2743.19 2745.82 2742.17 2745.03 2744.99 2740.78 2743.22 2746.47 2749.41 2735.57 2709.85 2669.40 2656.51 2652.95 2643.08 2631.68 2616.62 2610.38 2599.37 2583.32 2555.85 2536.55 2515.08 2503.12 2485.58 2468.84 2460.51 2448.33 2426.50 2393.43
3079.20 3095.30 3116.20 3136.00 3147.90 3158.88 3185.15 3185.75 3183.54 3183.61 3181.96 3180.31 3175.50 3171.12 3167.22 3164.46 3161.70 3156.88 3154.11 3151.04 3148.14 3145.23 3140.75 3137.89 3135.94 3132.35 3127.97 3123.95 3120.81 3117.44 3114.23 3111.01 3108.57 3105.85 3104.20 3101.90 3099.60 3099.70 3097.64 3095.58 3094.12 3092.62 3090.87 3088.80 3086.36 3083.79 3081.43 3078.59 3076.19 3073.23 3070.25 3067.32 3064.17 3061.40 3058.93 3056.50 3053.79 3051.00 3048.23 3045.54 3043.10 3040.76 3038.51 3036.44 3034.55 3032.71 3030.82 3028.94 3027.11 3025.36 3023.53 3021.64 3019.73 3017.79 3015.94 3014.12 3012.32 3010.49 3008.59 3006.59 3004.58 3002.58 3000.61 2998.70 2996.64 2994.50 2992.29 2990.01 2987.71 2985.94 2984.16 2982.31 2980.45 2978.59 2976.71 2974.93 2973.31 2971.59 2969.77 2967.87 2966.09 2964.32 2962.52 2960.65 2958.67 2956.62 2954.58 2952.87 2951.61 2950.08 2948.32 2946.48 2944.56 2942.58 2940.35 2938.54 2936.73 2933.71 2932.03 2930.72 2929.17 2927.63 2926.37 2924.77 2923.02 2921.40 2919.87 2918.45 2917.07 2915.70 2914.29 2912.82 2911.31 2909.81 2908.36 2906.98 2905.63 2904.32 2903.06 2902.14 2901.25 2900.39 2899.61 2898.90 2898.27 2897.14 2896.01 2895.41 2894.06 2892.38 2891.26 2890.13 2890.63 2890.33 2888.38 2887.20 2886.02 2885.77 2884.60 2883.40 2882.11 2880.82 2879.76 2878.30 2877.66 2876.04 2874.42 2872.60 2870.73 2868.86 2866.62 2864.39 2859.69 2857.16 2854.01 2851.15 2848.29 2839.57 2836.38 2829.81 2826.45 2823.33 2820.27 2817.77 2816.50 2814.47 2812.45 2811.24 2809.24 2806.39 2804.70 2802.98 2800.99 2799.13 2798.87 2797.05 2795.23 2793.95 2791.93 2788.81 2786.72 2784.33 2781.98 2779.94 2779.29 2777.30 2775.31 2774.47 2773.51 2772.15 2770.08 2768.01 2768.49 2766.53 2766.16 2764.13 2762.10 2761.08 2759.91 2758.73 2757.54 2756.48 2755.53 2753.75 2752.30 2750.81 2749.32 2750.19 2748.81 2749.00 2749.75 2748.60 2750.23 2750.17 2750.04 2749.08 2749.62 2753.89 2756.27 2743.00 2724.53 2687.89 2657.16 2634.96 2626.24 2615.10 2608.64 2601.70 2596.59 2583.92 2554.54 2536.07 2515.36 2494.21 2483.92 2472.62 2454.89 2441.13 2420.34 2392.43
3077.10 3090.97 3112.66 3131.73 3144.30 3163.42 3172.16 3197.37 3193.64 3191.13 3187.57 3186.07 3182.29 3178.28 3175.54 3171.72 3168.00 3164.26 3161.52 3156.83 3152.30 3145.59 3144.82 3141.96 3141.86 3137.88 3132.62 3128.73 3124.58 3119.77 3117.45 3113.44 3110.93 3108.21 3105.99 3103.62 3100.87 3099.75 3098.03 3096.23 3094.79 3093.47 3092.13 3090.68 3088.40 3085.82 3083.42 3080.53 3078.13 3075.04 3072.15 3069.21 3065.44 3062.63 3060.16 3057.70 3055.05 3052.30 3049.55 3046.91 3044.58 3042.33 3040.15 3038.08 3036.15 3034.26 3032.33 3030.41 3028.58 3026.99 3025.19 3023.33 3021.44 3019.51 3017.61 3015.75 3013.94 3012.22 3010.31 3008.27 3006.25 3004.30 3002.40 3000.48 2998.34 2996.14 2993.90 2991.65 2989.47 2987.61 2985.70 2983.78 2981.95 2980.20 2978.49 2976.71 2974.91 2973.12 2971.35 2969.59 2967.91 2965.91 2964.02 2962.12 2960.19 2958.33 2956.52 2954.81 2953.31 2951.76 2950.10 2948.36 2946.58 2944.86 2942.68 2940.64 2938.45 2935.76 2934.08 2932.77 2931.32 2929.87 2928.55 2927.06 2925.47 2923.91 2922.42 2921.00 2919.61 2918.23 2916.82 2915.36 2913.85 2912.35 2910.91 2909.55 2908.21 2906.87 2905.61 2904.73 2903.92 2903.11 2902.31 2901.50 2901.11 2899.94 2899.43 2898.89 2897.39 2895.59 2894.02 2893.01 2892.69 2892.06 2890.93 2889.90 2888.89 2888.54 2887.37 2886.24 2884.85 2883.71 2882.46 2881.00 2879.67 2878.04 2876.65 2875.30 2873.43 2871.14 2869.39 2866.50 2862.53 2860.00 2856.30 2854.11 2849.68 2842.73 2839.54 2833.18 2829.88 2826.73 2823.79 2821.40 2819.59 2817.72 2815.81 2814.36 2812.36 2809.68 2807.66 2805.87 2804.17 2802.31 2801.45 2800.20 2798.67 2797.15 2795.13 2792.19 2789.91 2787.60 2784.99 2782.95 2781.52 2780.15 2777.38 2776.24 2775.37 2774.26 2773.02 2771.49 2771.45 2769.49 2768.56 2767.02 2764.79 2764.25 2762.88 2761.59 2760.20 2758.99 2758.49 2756.71 2755.21 2754.01 2752.83 2753.52 2752.85 2755.91 2754.84 2758.20 2758.99 2757.59 2756.98 2753.52 2751.74 2752.16 2753.17 2745.74 2733.98 2699.15 2671.20 2644.21 2618.73 2611.64 2603.09 2592.27 2583.87 2576.43 2550.79 2536.93 2521.68 2496.58 2479.72 2461.65 2446.44 2433.98 2416.14 2385.85
3075.70 3086.65 3107.21 3127.89 3141.10 3155.96 3166.93 3185.76 3202.87 3200.76 3198.37 3194.79 3190.45 3186.33 3182.82 3179.42 3175.93 3172.95 3169.53 3167.12 3163.75 3161.26 3155.40 3153.01 3150.55 3146.30 3141.99 3136.49 3133.16 3121.96 3114.92 3113.67 3112.25 3108.61 3107.00 3104.18 3101.35 3099.86 3098.21 3096.67 3095.34 3094.10 3092.88 3091.53 3089.74 3087.75 3085.43 3082.39 3079.54 3076.49 3073.93 3071.38 3066.50 3063.90 3061.50 3059.01 3056.38 3053.64 3050.90 3048.27 3046.12 3043.97 3041.87 3039.82 3037.83 3035.86 3033.89 3031.91 3030.01 3028.73 3026.86 3024.99 3023.09 3021.16 3019.25 3017.34 3015.44 3013.68 3011.79 3009.80 3007.82 3005.88 3003.99 3002.05 2999.95 2997.79 2995.59 2993.42 2991.33 2989.34 2987.33 2985.32 2983.50 2981.75 2980.00 2978.25 2976.49 2974.72 2972.98 2971.19 2969.34 2967.37 2965.58 2963.73 2961.84 2960.12 2958.39 2956.69 2955.09 2953.51 2951.90 2950.27 2948.65 2946.93 2944.85 2942.74 2940.57 2938.33 2936.61 2935.16 2933.72 2932.31 2930.96 2929.48 2927.95 2926.45 2924.98 2923.56 2922.16 2920.76 2919.36 2917.89 2916.38 2914.87 2913.42 2912.11 2910.81 2909.51 2908.33 2907.42 2906.60 2905.80 2904.99 2903.97 2904.44 2903.39 2902.70 2901.60 2900.49 2899.02 2897.55 2896.20 2895.11 2893.98 2893.48 2892.33 2891.18 2890.46 2889.72 2889.19 2887.88 2886.57 2884.49 2882.72 2881.36 2879.80 2878.24 2876.25 2874.45 2871.97 2869.86 2867.75 2863.40 2860.99 2856.26 2853.66 2851.06 2846.11 2841.50 2836.85 2833.17 2830.44 2827.68 2824.82 2823.23 2821.16 2819.08 2817.29 2815.27 2812.97 2810.76 2809.08 2807.84 2806.61 2804.88 2803.99 2802.37 2800.22 2798.27 2795.50 2793.47 2791.44 2788.35 2786.06 2783.25 2780.94 2778.64 2778.41 2777.64 2776.05 2773.81 2773.33 2773.08 2771.95 2770.71 2768.66 2766.61 2767.75 2765.87 2764.58 2762.89 2761.19 2761.48 2760.01 2757.82 2756.07 2755.16 2756.55 2757.46 2758.25 2761.91 2763.26 2761.82 2756.88 2751.85 2751.64 2746.77 2740.68 2735.72 2739.19 2726.44 2721.70 2699.57 2659.10 2624.47 2604.36 2595.28 2584.46 2573.57 2564.57 2544.41 2532.58 2518.13 2504.81 2489.13 2471.98 2445.52 2428.27 2411.81 2383.38
3074.79 3082.43 3101.11 3124.58 3136.99 3149.34 3165.91 3181.65 3198.66 3207.72 3203.78 3200.01 3196.64 3192.88 3189.37 3186.07 3184.48 3181.53 3179.36 3177.71 3174.63 3171.36 3168.08 3164.50 3160.10 3157.70 3153.83 3150.13 3144.93 3135.34 3126.61 3118.53 3114.83 3111.19 3108.89 3106.07 3103.24 3100.77 3098.59 3097.16 3095.92 3094.64 3093.38 3092.04 3090.44 3088.59 3086.35 3083.63 3080.95 3078.29 3075.73 3073.18 3068.38 3065.79 3063.17 3060.53 3057.84 3055.11 3052.42 3049.93 3047.78 3045.63 3043.60 3041.55 3039.50 3037.48 3035.50 3033.59 3031.68 3030.39 3028.52 3026.66 3024.66 3022.74 3020.89 3018.99 3017.09 3015.17 3013.24 3011.27 3009.30 3007.40 3005.52 3003.58 3001.55 2999.44 2997.31 2995.22 2993.22 2991.17 2989.11 2987.10 2985.28 2983.37 2981.49 2979.74 2978.12 2976.53 2974.79 2972.88 2970.96 2969.22 2967.39 2965.56 2963.76 2962.04 2960.26 2958.53 2956.87 2955.26 2953.65 2952.03 2950.39 2948.71 2946.83 2944.85 2942.83 2940.88 2939.24 2937.70 2936.21 2934.74 2933.27 2931.80 2930.40 2928.96 2927.52 2926.10 2924.67 2923.26 2921.87 2920.43 2918.91 2917.38 2915.92 2914.61 2913.31 2912.11 2910.98 2910.08 2909.23 2908.38 2907.56 2906.53 2907.04 2905.99 2904.93 2903.90 2902.90 2902.09 2900.93 2899.32 2897.81 2896.68 2896.17 2895.01 2893.86 2892.14 2891.45 2891.93 2890.62 2889.31 2885.79 2883.82 2883.07 2882.42 2880.62 2879.04 2877.23 2874.87 2872.77 2870.66 2866.54 2864.13 2859.54 2856.94 2854.33 2850.08 2845.60 2840.72 2837.39 2834.28 2831.37 2828.78 2827.01 2824.94 2822.86 2820.99 2818.97 2816.52 2814.06 2812.47 2811.64 2810.60 2808.87 2808.53 2806.75 2804.28 2802.33 2799.78 2797.75 2795.72 2792.75 2790.49 2787.28 2784.97 2782.67 2782.62 2781.48 2779.86 2777.62 2776.09 2775.19 2774.54 2774.03 2771.97 2769.92 2770.91 2769.03 2767.74 2766.04 2764.35 2764.87 2763.40 2760.69 2758.97 2757.94 2760.56 2765.57 2765.32 2757.47 2752.87 2750.11 2748.99 2744.65 2741.11 2727.06 2722.28 2724.13 2719.97 2717.62 2707.57 2705.49 2695.72 2642.38 2628.17 2598.56 2575.15 2557.34 2542.68 2535.23 2520.35 2509.11 2497.68 2488.71 2463.22 2446.06 2424.84 2407.18 2380.44
3073.88 3080.27 3090.97 3112.86 3126.63 3145.14 3165.05 3176.18 3191.35 3205.83 3208.25 3205.45 3202.01 3198.16 3194.25 3191.39 3189.14 3187.46 3185.26 3183.50 3181.40 3178.50 3175.51 3172.25 3169.11 3165.55 3160.88 3155.04 3144.75 3128.81 3120.39 3119.54 3117.40 3113.31 3110.04 3106.64 3104.24 3101.78 3099.15 3097.96 3096.81 3095.28 3093.91 3092.50 3090.95 3089.18 3087.09 3084.65 3082.26 3079.74 3077.07 3074.43 3070.32 3067.75 3064.93 3062.15 3059.38 3056.60 3053.87 3051.30 3049.02 3047.04 3045.24 3043.21 3041.10 3039.00 3036.95 3034.99 3033.12 3031.51 3029.69 3027.83 3025.92 3024.05 3022.23 3020.37 3018.49 3016.59 3014.68 3012.75 3010.80 3008.94 3007.08 3005.16 3003.17 3001.12 2999.04 2996.98 2995.12 2993.02 2990.91 2988.88 2986.94 2984.96 2983.00 2981.25 2979.69 2978.12 2976.42 2974.60 2972.79 2971.07 2969.21 2967.38 2965.59 2963.85 2962.07 2960.32 2958.64 2957.02 2955.41 2953.78 2952.12 2950.53 2948.80 2946.95 2945.06 2943.29 2941.79 2940.22 2938.72 2937.26 2935.83 2934.40 2932.96 2931.49 2930.02 2928.60 2927.14 2925.69 2924.31 2922.93 2921.41 2919.89 2918.45 2917.14 2915.88 2914.69 2913.50 2912.68 2911.74 2910.77 2909.91 2909.10 2908.76 2907.52 2906.73 2905.98 2904.93 2904.72 2903.41 2902.06 2900.53 2899.21 2898.28 2896.96 2895.25 2892.98 2891.84 2892.20 2891.23 2889.19 2885.65 2884.40 2884.23 2882.98 2881.84 2880.05 2878.48 2876.22 2873.77 2872.32 2869.94 2867.90 2863.94 2860.76 2857.77 2854.34 2851.76 2844.70 2841.18 2838.48 2835.47 2832.20 2829.96 2827.32 2825.58 2823.51 2821.54 2820.16 2818.29 2816.42 2816.05 2814.98 2813.48 2812.72 2811.03 2809.61 2808.02 2806.02 2803.66 2801.73 2798.19 2796.17 2792.21 2790.29 2788.28 2788.13 2785.95 2783.76 2781.67 2779.18 2777.48 2776.77 2776.46 2775.18 2773.55 2773.77 2771.91 2770.88 2769.65 2768.38 2767.75 2766.18 2764.66 2771.64 2774.46 2774.83 2766.84 2755.05 2749.41 2745.11 2744.16 2737.75 2735.62 2732.80 2715.38 2708.53 2704.48 2700.26 2695.54 2692.90 2690.56 2686.59 2667.51 2656.12 2622.04 2601.33 2557.51 2527.57 2521.37 2506.67 2498.55 2484.98 2470.44 2458.08 2430.29 2401.83 2395.96 2385.05
3073.33 3080.26 3087.34 3098.25 3113.77 3137.39 3155.02 3168.39 3183.94 3199.41 3213.68 3208.95 3206.62 3203.35 3199.62 3196.31 3193.25 3190.39 3188.49 3186.98 3184.88 3182.23 3179.84 3177.58 3173.95 3170.05 3164.62 3157.07 3146.66 3136.06 3128.34 3122.49 3119.81 3115.72 3112.16 3108.76 3106.01 3103.61 3100.97 3099.62 3098.40 3096.18 3094.67 3093.12 3091.55 3089.88 3088.03 3086.03 3084.03 3081.44 3078.89 3076.35 3072.08 3069.51 3066.57 3063.72 3060.95 3058.12 3055.30 3052.71 3050.58 3048.46 3046.82 3044.78 3042.59 3040.38 3038.26 3036.24 3034.31 3032.50 3030.66 3028.81 3026.99 3025.21 3023.46 3021.66 3019.81 3017.99 3016.16 3014.33 3012.48 3010.63 3008.73 3006.81 3004.84 3002.85 3000.81 2998.76 2996.90 2994.75 2992.64 2990.60 2988.62 2986.68 2984.80 2983.04 2981.37 2979.73 2978.05 2976.30 2974.55 2972.80 2970.96 2969.15 2967.38 2965.63 2963.87 2962.09 2960.40 2958.80 2957.23 2955.69 2954.18 2952.60 2950.87 2949.06 2947.24 2945.51 2944.01 2942.57 2941.17 2939.80 2938.44 2937.07 2935.57 2934.01 2932.48 2931.07 2929.61 2928.16 2926.74 2925.35 2923.86 2922.37 2920.94 2919.63 2918.38 2917.10 2915.91 2915.23 2914.11 2912.99 2912.13 2911.42 2910.99 2909.97 2908.95 2908.50 2907.45 2906.84 2905.70 2904.56 2903.03 2901.57 2900.51 2899.16 2897.50 2895.73 2894.59 2893.62 2892.40 2890.65 2888.59 2887.35 2887.32 2885.98 2884.64 2883.21 2881.63 2879.03 2877.20 2875.37 2873.58 2871.54 2867.84 2864.61 2861.64 2858.67 2856.09 2848.47 2845.89 2843.30 2839.73 2836.44 2833.89 2831.76 2829.64 2827.98 2826.01 2824.07 2822.52 2821.72 2821.66 2820.12 2818.58 2818.38 2817.44 2816.37 2815.00 2813.72 2812.53 2816.11 2817.10 2811.57 2799.56 2796.97 2794.33 2792.22 2790.67 2789.34 2787.05 2783.29 2780.68 2779.56 2779.60 2778.71 2776.68 2777.35 2775.49 2774.61 2773.75 2772.75 2771.71 2772.72 2776.16 2778.65 2778.25 2767.94 2763.01 2751.33 2742.65 2736.60 2732.58 2727.80 2724.52 2713.11 2703.70 2695.25 2692.01 2689.32 2685.43 2682.85 2680.83 2677.88 2673.70 2672.48 2638.35 2627.13 2602.52 2558.48 2512.03 2496.90 2475.92 2461.43 2447.78 2433.91 2429.85 2405.58 2401.85 2417.76
3073.21 3079.16 3086.15 3093.77 3102.04 3125.60 3150.99 3162.80 3181.23 3190.60 3198.23 3205.29 3208.45 3207.39 3204.28 3200.80 3197.35 3194.13 3191.40 3188.70 3186.54 3184.77 3182.85 3180.53 3176.77 3172.65 3167.84 3162.24 3153.58 3141.30 3125.91 3125.77 3122.21 3118.12 3114.05 3110.60 3107.69 3105.44 3102.80 3101.32 3099.99 3097.37 3095.81 3093.97 3092.32 3090.68 3088.95 3087.13 3085.21 3083.00 3080.71 3077.58 3073.84 3071.26 3068.00 3065.21 3062.54 3059.65 3056.72 3054.10 3052.15 3049.95 3048.39 3046.36 3043.90 3041.58 3039.44 3037.39 3035.41 3033.49 3031.61 3029.77 3028.03 3026.33 3024.70 3023.00 3021.17 3019.42 3017.68 3015.93 3014.15 3012.32 3010.43 3008.50 3006.57 3004.64 3002.66 3000.54 2998.68 2996.38 2994.30 2992.30 2990.30 2988.41 2986.54 2984.77 2983.05 2981.39 2979.71 2978.00 2976.29 2974.56 2972.68 2970.92 2969.17 2967.45 2965.70 2963.85 2962.18 2960.61 2959.07 2957.59 2956.25 2954.66 2952.96 2951.19 2949.42 2947.73 2946.23 2944.89 2943.60 2942.31 2941.02 2939.73 2938.17 2936.51 2934.87 2933.47 2932.04 2930.64 2929.24 2927.81 2926.32 2924.81 2923.37 2922.07 2920.84 2919.52 2918.32 2917.35 2916.48 2915.05 2914.17 2913.36 2912.93 2912.42 2911.57 2911.02 2909.97 2908.98 2907.80 2906.19 2905.30 2904.19 2903.07 2901.73 2900.18 2898.48 2897.34 2895.54 2894.26 2892.84 2891.54 2890.29 2889.83 2888.97 2887.60 2886.37 2884.79 2883.21 2880.63 2879.69 2877.22 2875.18 2871.22 2868.42 2865.79 2863.00 2860.42 2854.00 2850.59 2847.95 2844.20 2840.82 2838.06 2836.20 2833.37 2832.46 2830.49 2828.13 2827.31 2827.45 2827.40 2826.30 2824.76 2825.18 2824.59 2823.78 2825.16 2824.95 2826.66 2826.59 2828.77 2820.16 2812.70 2809.13 2800.22 2798.63 2796.99 2799.06 2798.08 2796.70 2787.65 2784.04 2783.90 2782.37 2780.87 2780.94 2779.08 2778.77 2778.29 2777.76 2778.10 2781.83 2783.06 2783.19 2769.19 2763.36 2758.31 2747.74 2738.35 2729.64 2720.07 2712.18 2706.88 2697.33 2692.51 2686.59 2682.34 2678.61 2674.96 2671.36 2669.69 2668.34 2665.72 2664.19 2654.52 2638.84 2613.00 2567.78 2519.15 2487.82 2467.50 2454.66 2442.03 2434.14 2415.85 2415.07 2421.72 2434.05
3073.32 3078.91 3085.82 3093.05 3101.08 3118.21 3144.93 3158.58 3173.35 3180.89 3194.17 3208.75 3213.41 3209.71 3207.77 3204.83 3201.08 3197.71 3194.59 3191.50 3189.98 3186.85 3184.17 3180.96 3178.29 3174.02 3170.12 3164.86 3155.87 3145.98 3136.13 3128.31 3122.42 3118.37 3114.99 3112.07 3109.04 3106.96 3104.30 3102.44 3100.11 3097.78 3097.17 3094.98 3093.27 3091.55 3089.79 3087.97 3086.03 3083.87 3081.46 3078.49 3075.20 3072.23 3068.98 3066.59 3064.19 3061.19 3058.03 3055.05 3052.87 3050.69 3049.05 3047.05 3044.75 3042.55 3040.51 3038.52 3036.55 3034.60 3032.72 3030.84 3029.16 3027.48 3026.01 3024.55 3022.72 3020.95 3019.22 3017.54 3015.84 3014.03 3012.14 3010.22 3008.30 3006.46 3004.62 3002.43 3000.24 2997.86 2995.96 2994.06 2992.01 2990.18 2988.29 2986.53 2984.77 2983.11 2981.45 2979.75 2978.08 2976.42 2974.44 2972.76 2971.01 2969.33 2967.65 2965.65 2964.03 2962.51 2960.95 2959.40 2958.08 2956.62 2955.01 2953.32 2951.61 2949.97 2948.53 2947.24 2946.02 2944.80 2943.49 2942.09 2940.68 2939.02 2937.35 2935.85 2934.45 2933.13 2931.78 2930.34 2928.82 2927.26 2925.75 2924.42 2923.08 2921.02 2919.80 2918.80 2917.68 2916.55 2916.10 2915.05 2914.52 2914.03 2913.54 2913.01 2911.98 2910.93 2909.73 2908.62 2907.62 2906.81 2905.64 2904.47 2903.38 2902.41 2901.27 2897.92 2896.85 2895.79 2895.86 2894.75 2892.91 2891.73 2890.56 2889.98 2888.74 2889.34 2887.78 2886.23 2881.99 2880.06 2874.50 2872.58 2870.66 2868.94 2866.78 2859.40 2856.50 2853.59 2848.96 2845.05 2843.11 2841.27 2839.58 2838.69 2837.34 2836.61 2835.35 2834.05 2835.77 2834.42 2832.13 2831.30 2831.50 2831.42 2836.24 2835.58 2836.61 2835.22 2839.01 2830.74 2822.78 2819.21 2815.35 2815.31 2816.15 2814.34 2813.39 2809.76 2801.39 2790.86 2789.05 2787.95 2785.68 2785.76 2784.00 2783.89 2783.39 2784.64 2789.73 2790.53 2790.41 2763.48 2754.15 2757.11 2752.47 2749.16 2736.35 2718.34 2710.54 2702.86 2694.49 2690.16 2684.27 2676.89 2671.30 2668.08 2666.15 2662.16 2659.28 2658.56 2654.86 2652.12 2649.45 2647.61 2604.64 2541.23 2502.77 2488.93 2476.50 2447.91 2439.35 2432.30 2428.92 2437.18 2446.81 2447.31
3074.14 3079.54 3086.68 3092.82 3101.65 3111.85 3135.34 3153.34 3164.84 3179.08 3190.07 3206.45 3218.54 3214.09 3210.23 3207.85 3205.01 3201.42 3197.83 3194.39 3192.61 3188.93 3185.79 3182.13 3178.83 3175.28 3171.72 3166.65 3160.02 3150.84 3141.90 3132.17 3124.34 3119.44 3116.17 3114.02 3110.98 3108.69 3106.03 3104.06 3101.73 3099.40 3098.84 3096.65 3094.50 3092.50 3090.56 3088.62 3086.60 3084.42 3082.00 3079.27 3076.38 3073.55 3070.68 3068.28 3065.88 3062.82 3059.53 3056.54 3054.36 3052.19 3050.03 3047.83 3045.60 3043.55 3041.63 3039.68 3037.81 3036.10 3034.22 3032.34 3030.51 3028.65 3027.24 3025.81 3024.16 3022.42 3020.72 3019.13 3017.54 3015.74 3013.87 3011.95 3010.03 3008.19 3006.35 3004.30 3002.13 2999.80 2997.90 2995.99 2993.88 2992.06 2990.16 2988.39 2986.63 2984.99 2983.34 2981.66 2979.99 2978.32 2976.46 2974.78 2973.00 2971.32 2969.64 2967.71 2966.08 2964.57 2963.02 2961.46 2960.07 2958.65 2957.12 2955.50 2953.83 2952.21 2950.77 2949.59 2948.48 2947.37 2946.19 2944.81 2943.25 2941.51 2939.78 2938.19 2936.84 2935.64 2934.37 2932.94 2931.38 2929.78 2928.21 2926.88 2925.55 2923.42 2922.20 2921.15 2920.03 2918.90 2918.41 2917.37 2916.22 2915.42 2915.30 2915.45 2914.42 2912.92 2911.46 2910.34 2909.29 2908.44 2907.75 2906.89 2906.01 2905.20 2904.06 2901.02 2899.96 2898.89 2899.11 2898.00 2896.33 2895.15 2893.98 2893.60 2892.35 2893.21 2891.66 2890.10 2885.97 2884.04 2879.04 2877.11 2875.19 2874.11 2871.94 2865.74 2863.09 2859.93 2854.68 2856.06 2852.48 2847.75 2852.31 2851.95 2853.29 2851.71 2849.57 2846.10 2842.83 2846.13 2847.41 2848.41 2846.28 2844.92 2845.74 2846.64 2846.85 2845.50 2843.83 2837.83 2836.44 2836.12 2832.89 2830.33 2830.54 2828.27 2835.27 2820.26 2810.71 2796.19 2795.92 2793.41 2790.13 2790.23 2788.47 2789.55 2791.84 2795.29 2804.83 2801.30 2780.86 2752.03 2740.32 2743.41 2729.36 2736.34 2723.33 2713.37 2701.75 2695.71 2688.35 2680.61 2678.16 2671.89 2665.69 2658.59 2657.33 2655.30 2650.13 2647.39 2643.78 2639.96 2637.14 2610.83 2587.90 2535.10 2488.50 2478.88 2459.52 2452.84 2444.48 2439.43 2444.49 2451.71 2453.21 2459.73
3075.44 3080.93 3086.83 3093.51 3101.60 3109.83 3126.04 3144.56 3166.37 3172.03 3183.70 3195.91 3220.71 3219.17 3215.17 3210.65 3207.97 3205.23 3202.04 3198.66 3195.99 3191.30 3187.05 3183.56 3179.44 3176.15 3173.16 3168.74 3161.70 3156.72 3145.56 3137.95 3126.71 3123.28 3117.61 3114.44 3111.51 3108.82 3105.75 3104.31 3102.61 3100.83 3099.59 3097.62 3095.46 3093.33 3091.24 3089.17 3087.06 3084.85 3082.50 3080.03 3077.54 3075.14 3072.84 3070.64 3067.97 3064.58 3060.98 3057.67 3055.16 3053.13 3051.07 3048.97 3047.15 3045.10 3042.96 3040.84 3038.82 3037.01 3035.28 3033.56 3031.92 3030.10 3028.58 3027.11 3025.55 3023.81 3022.12 3020.65 3019.17 3017.37 3015.57 3013.70 3011.81 3009.96 3008.14 3006.31 3004.58 3003.21 3001.41 2998.81 2996.51 2994.69 2992.45 2990.64 2988.76 2987.07 2985.45 2983.88 2982.39 2981.01 2979.78 2978.16 2975.86 2973.80 2971.96 2970.24 2968.68 2966.98 2965.34 2963.75 2962.24 2960.79 2959.30 2957.75 2956.12 2954.54 2953.14 2951.98 2950.95 2949.94 2948.89 2947.55 2945.83 2943.99 2942.17 2940.49 2939.20 2938.19 2937.01 2935.59 2934.01 2932.38 2930.79 2929.32 2927.84 2926.13 2924.88 2923.50 2922.11 2920.79 2919.61 2918.55 2917.57 2916.49 2916.37 2916.46 2915.80 2914.56 2913.07 2912.08 2910.96 2910.04 2909.91 2909.10 2907.87 2905.71 2904.86 2905.28 2905.42 2904.06 2903.55 2902.59 2901.83 2901.44 2899.94 2899.55 2898.49 2897.96 2896.73 2894.77 2891.59 2889.21 2886.44 2885.75 2883.74 2883.84 2882.16 2881.56 2873.23 2867.80 2872.13 2869.12 2866.24 2868.33 2869.15 2866.13 2867.59 2866.80 2863.26 2858.23 2857.68 2859.56 2857.58 2856.00 2853.77 2853.24 2852.64 2852.81 2853.57 2853.43 2853.33 2853.14 2853.48 2857.48 2852.75 2847.55 2846.49 2845.73 2844.04 2829.54 2819.79 2808.47 2799.16 2796.41 2795.48 2795.03 2794.91 2798.85 2804.22 2812.39 2816.55 2817.60 2759.36 2741.29 2729.07 2725.27 2720.37 2714.02 2713.24 2703.55 2694.71 2687.93 2681.53 2673.86 2670.78 2664.20 2656.84 2649.98 2648.53 2648.31 2643.84 2637.48 2634.52 2629.54 2626.96 2611.17 2573.17 2529.06 2513.94 2488.98 2463.91 2457.40 2450.45 2449.17 2456.03 2466.62 2474.36 2483.42
3076.66 3082.10 3088.07 3094.37 3101.50 3109.65 3120.59 3139.04 3150.69 3167.99 3178.78 3196.11 3216.34 3225.90 3220.20 3216.75 3212.60 3208.87 3207.93 3204.97 3200.65 3195.32 3190.60 3185.87 3181.99 3178.11 3174.31 3169.82 3163.33 3156.25 3148.79 3138.86 3135.47 3130.85 3119.79 3115.49 3112.41 3110.51 3107.43 3105.34 3103.59 3101.94 3100.36 3098.37 3096.25 3094.08 3091.91 3089.73 3087.55 3085.31 3083.04 3080.76 3078.61 3076.58 3074.59 3072.24 3069.89 3066.26 3062.41 3058.90 3056.70 3054.50 3052.59 3050.49 3048.51 3046.41 3044.24 3042.03 3039.82 3037.92 3036.23 3034.51 3032.88 3031.55 3029.88 3028.33 3026.88 3025.17 3023.46 3022.10 3020.63 3018.94 3017.22 3015.43 3013.57 3011.71 3009.86 3008.02 3006.29 3005.08 3003.28 3000.80 2998.36 2996.54 2994.25 2992.51 2990.76 2989.16 2987.62 2986.15 2984.74 2983.30 2981.83 2980.21 2978.20 2976.14 2974.16 2972.31 2970.76 2969.25 2967.71 2966.11 2964.48 2963.00 2961.57 2960.10 2958.48 2956.85 2955.46 2954.36 2953.36 2952.34 2951.23 2949.90 2948.26 2946.46 2944.62 2942.93 2941.64 2940.77 2939.48 2938.19 2936.62 2934.99 2933.37 2931.78 2930.19 2928.58 2927.34 2925.74 2924.14 2922.90 2921.90 2920.84 2919.82 2918.84 2917.85 2917.66 2917.24 2916.50 2915.52 2914.53 2913.50 2912.58 2912.75 2911.83 2910.91 2908.56 2907.71 2909.42 2908.60 2907.77 2906.84 2905.88 2905.93 2904.93 2903.94 2903.23 2902.17 2901.81 2900.59 2899.38 2896.82 2894.42 2892.02 2890.61 2889.19 2889.41 2887.73 2887.49 2883.40 2879.04 2884.95 2882.55 2881.65 2880.34 2882.10 2881.85 2882.24 2879.73 2874.23 2870.32 2869.26 2867.54 2864.20 2862.10 2860.46 2860.59 2859.95 2859.71 2860.46 2860.82 2861.64 2863.28 2864.07 2865.43 2863.61 2860.89 2860.52 2860.22 2859.57 2860.03 2828.05 2817.70 2805.52 2803.00 2802.41 2804.08 2808.82 2816.93 2823.13 2827.87 2802.54 2770.22 2739.50 2724.50 2718.47 2713.84 2709.34 2704.67 2700.55 2697.05 2689.11 2681.52 2674.05 2665.23 2658.43 2657.35 2648.77 2643.37 2638.36 2638.61 2637.46 2632.09 2625.93 2621.47 2619.07 2602.35 2555.25 2515.00 2493.02 2481.48 2468.57 2462.18 2469.51 2460.30 2470.51 2477.24 2485.95 2500.55
3077.87 3083.18 3089.35 3095.77 3102.48 3111.72 3119.99 3135.70 3145.73 3159.29 3177.19 3189.85 3205.72 3214.78 3226.29 3221.46 3217.82 3215.91 3214.05 3210.38 3205.51 3198.57 3192.64 3187.98 3183.74 3179.27 3173.87 3168.09 3162.34 3154.71 3147.13 3141.76 3135.69 3128.68 3121.99 3117.52 3113.44 3112.19 3109.12 3106.46 3104.55 3102.96 3101.29 3099.14 3097.04 3094.89 3092.69 3090.46 3088.22 3085.97 3083.72 3081.53 3079.59 3077.72 3075.84 3073.84 3071.12 3067.64 3063.95 3060.62 3058.25 3056.16 3054.11 3052.01 3049.81 3047.68 3045.57 3043.46 3041.36 3039.43 3037.45 3035.46 3033.49 3032.15 3030.74 3029.20 3027.75 3026.67 3025.17 3023.76 3022.17 3020.50 3018.89 3017.17 3015.34 3013.49 3011.63 3009.73 3008.00 3006.57 3004.77 3002.52 3000.21 2998.39 2996.39 2994.37 2992.78 2991.27 2989.78 2988.40 2987.05 2985.50 2983.88 2982.27 2980.43 2978.43 2976.39 2974.38 2972.83 2971.56 2970.14 2968.58 2966.84 2965.14 2963.91 2962.61 2960.96 2959.17 2957.77 2956.81 2955.80 2954.73 2953.58 2952.24 2950.71 2949.01 2947.20 2945.38 2944.09 2943.18 2941.96 2940.70 2939.19 2937.59 2935.95 2934.30 2932.64 2931.04 2929.79 2927.85 2925.95 2924.86 2924.19 2923.13 2922.05 2921.18 2919.95 2919.28 2918.81 2918.41 2917.97 2916.95 2916.04 2915.12 2914.99 2914.56 2913.36 2911.40 2910.56 2911.74 2911.77 2911.03 2910.13 2909.17 2909.12 2908.43 2907.49 2906.90 2905.84 2905.20 2904.46 2903.21 2901.35 2899.47 2897.14 2895.46 2895.00 2894.97 2893.29 2894.71 2889.12 2892.53 2894.92 2893.95 2894.69 2894.49 2894.47 2895.43 2895.14 2889.55 2884.80 2881.92 2879.92 2877.41 2873.17 2870.06 2868.21 2868.53 2867.22 2867.02 2867.86 2868.13 2870.16 2872.20 2874.35 2874.96 2874.69 2874.17 2874.40 2875.07 2878.71 2875.53 2841.06 2825.82 2814.82 2810.86 2811.49 2818.53 2823.34 2828.70 2829.17 2783.83 2762.79 2740.82 2721.78 2714.67 2710.16 2703.67 2699.84 2695.51 2691.06 2687.93 2683.56 2674.23 2665.87 2658.58 2649.29 2649.12 2642.32 2635.04 2629.29 2627.77 2628.67 2625.91 2619.96 2614.86 2610.35 2593.56 2549.54 2527.76 2512.18 2480.45 2478.87 2492.18 2491.95 2472.43 2478.52 2491.06 2505.53 2518.73
3079.08 3084.74 3090.56 3096.71 3104.75 3111.70 3119.59 3129.81 3145.63 3154.22 3167.57 3179.97 3192.54 3204.55 3215.10 3226.32 3225.31 3222.51 3219.47 3214.67 3206.45 3200.58 3194.88 3189.69 3184.95 3180.00 3173.67 3167.46 3161.42 3155.14 3148.52 3141.42 3135.53 3130.29 3125.66 3120.83 3115.54 3113.29 3110.04 3107.12 3105.35 3104.02 3102.54 3100.07 3098.00 3095.87 3093.66 3091.43 3089.19 3086.97 3084.73 3082.50 3080.67 3078.77 3076.68 3074.38 3072.08 3068.93 3065.44 3062.19 3059.90 3057.60 3054.55 3052.68 3050.77 3048.83 3046.91 3044.98 3042.92 3040.81 3038.82 3036.87 3035.01 3033.19 3031.82 3030.10 3028.37 3027.71 3026.68 3025.45 3023.74 3022.03 3020.58 3018.93 3017.10 3015.34 3013.59 3011.78 3009.98 3008.26 3006.40 3004.32 3002.25 3000.47 2998.76 2996.70 2994.95 2993.39 2991.83 2990.54 2989.32 2987.69 2986.16 2984.61 2982.82 2980.88 2978.91 2977.05 2975.47 2974.08 2972.60 2971.13 2969.38 2967.78 2966.51 2965.34 2963.83 2962.46 2961.12 2959.62 2958.33 2957.14 2955.95 2954.68 2953.29 2951.79 2950.23 2948.70 2947.38 2946.20 2944.89 2943.44 2941.82 2940.22 2938.57 2936.87 2935.14 2933.44 2931.81 2929.83 2927.51 2926.36 2925.21 2924.40 2923.45 2922.53 2921.51 2920.74 2920.21 2919.89 2919.49 2918.66 2917.58 2916.77 2916.84 2916.73 2916.17 2915.38 2914.61 2914.51 2914.32 2913.76 2912.98 2912.14 2912.28 2911.53 2910.78 2910.77 2909.98 2908.53 2907.65 2906.77 2905.55 2904.55 2902.40 2901.46 2900.51 2899.23 2898.54 2899.49 2896.72 2897.21 2902.99 2906.36 2910.92 2912.14 2910.99 2909.36 2904.70 2898.58 2893.59 2890.51 2890.17 2887.57 2883.95 2881.01 2877.12 2876.14 2874.96 2877.41 2877.12 2878.95 2880.48 2882.21 2885.49 2887.11 2887.74 2887.01 2887.74 2889.77 2890.93 2892.33 2847.73 2839.18 2823.53 2820.18 2827.09 2832.69 2836.22 2806.61 2782.26 2757.65 2739.17 2722.59 2715.20 2707.05 2701.26 2696.01 2691.22 2688.06 2683.49 2677.47 2674.51 2666.67 2659.80 2652.17 2642.84 2639.20 2636.86 2628.82 2621.62 2618.68 2618.87 2618.00 2612.75 2606.78 2601.06 2599.33 2568.63 2521.45 2494.95 2493.56 2502.31 2516.51 2504.00 2484.97 2494.00 2511.44 2521.50 2538.38
3080.49 3086.07 3092.06 3098.25 3104.82 3112.41 3119.57 3131.75 3145.90 3151.87 3163.52 3171.50 3184.15 3195.29 3210.33 3223.68 3232.96 3229.23 3222.98 3214.15 3208.25 3202.57 3195.97 3191.42 3185.63 3179.66 3174.02 3168.29 3162.22 3156.06 3149.67 3143.39 3137.26 3131.51 3126.32 3121.43 3117.82 3114.27 3111.44 3108.10 3106.25 3105.14 3104.18 3101.71 3099.30 3097.03 3094.81 3092.62 3090.46 3088.56 3086.32 3084.08 3082.19 3080.20 3078.18 3075.88 3073.58 3070.44 3067.08 3063.86 3061.56 3059.26 3056.15 3053.89 3051.92 3050.03 3048.29 3046.60 3044.59 3042.22 3040.31 3038.42 3036.53 3034.92 3033.35 3031.62 3029.90 3029.34 3028.25 3027.00 3025.30 3023.59 3022.28 3020.54 3018.79 3017.22 3015.64 3013.94 3011.99 3010.06 3008.16 3006.15 3004.15 3002.24 3000.54 2998.73 2996.96 2995.22 2993.65 2992.43 2991.18 2989.68 2988.45 2987.09 2985.30 2983.38 2981.49 2979.74 2978.06 2976.17 2974.69 2973.21 2971.72 2970.25 2968.86 2967.49 2966.08 2964.71 2963.37 2961.95 2960.66 2959.48 2958.33 2957.16 2955.93 2954.67 2953.41 2952.18 2950.87 2949.44 2948.00 2946.32 2944.45 2942.88 2941.22 2939.48 2937.69 2935.86 2934.07 2932.51 2930.36 2928.75 2927.17 2925.88 2924.67 2923.69 2922.85 2922.10 2921.50 2921.27 2921.06 2920.64 2920.12 2919.31 2919.05 2918.95 2918.72 2918.32 2917.55 2917.02 2916.71 2916.36 2916.03 2915.19 2915.48 2914.73 2914.72 2913.97 2913.26 2912.28 2911.40 2910.52 2909.81 2908.80 2907.31 2906.36 2905.42 2904.91 2904.21 2906.46 2905.98 2903.97 2905.63 2914.57 2921.07 2923.99 2924.25 2920.29 2914.79 2907.47 2903.71 2900.85 2900.48 2900.34 2895.35 2892.35 2886.30 2884.62 2885.28 2886.88 2890.90 2890.42 2892.85 2894.77 2897.04 2899.19 2901.06 2900.35 2901.16 2902.27 2903.47 2874.49 2862.39 2846.91 2833.02 2836.48 2842.65 2823.55 2814.17 2793.07 2771.09 2741.55 2725.91 2718.35 2709.35 2702.33 2695.71 2690.60 2684.60 2681.02 2675.05 2667.45 2665.21 2660.04 2652.37 2644.76 2637.18 2628.52 2626.81 2623.91 2615.50 2610.32 2609.77 2609.96 2605.46 2599.75 2592.50 2585.25 2572.24 2515.73 2501.68 2512.51 2529.08 2546.19 2517.73 2499.81 2515.62 2525.44 2541.06 2550.30
3082.23 3087.49 3093.30 3099.50 3106.13 3113.00 3119.88 3135.50 3146.06 3150.99 3159.72 3167.56 3177.77 3191.44 3208.93 3226.00 3240.85 3234.46 3224.74 3216.63 3209.86 3204.45 3199.58 3193.85 3186.58 3180.84 3175.16 3169.53 3163.06 3156.99 3150.70 3145.46 3139.60 3133.86 3128.44 3125.36 3121.87 3116.86 3113.05 3110.30 3107.86 3105.90 3104.56 3102.57 3100.35 3098.15 3096.01 3093.90 3091.63 3089.80 3087.83 3085.82 3083.90 3081.63 3079.48 3077.17 3074.76 3071.96 3069.08 3066.49 3064.46 3061.45 3057.75 3055.46 3053.36 3051.35 3049.69 3048.35 3046.46 3043.82 3041.91 3040.28 3038.77 3036.95 3034.96 3033.16 3031.74 3031.43 3029.82 3028.42 3026.84 3025.27 3023.83 3022.23 3020.63 3019.14 3017.67 3016.05 3013.90 3011.80 3009.94 3008.01 3006.09 3004.24 3002.50 3000.77 2999.07 2997.47 2995.94 2994.45 2993.04 2991.85 2990.77 2989.57 2987.69 2985.76 2983.93 2982.29 2980.82 2978.81 2977.10 2975.55 2974.08 2972.64 2971.13 2969.61 2968.04 2966.44 2965.12 2963.96 2962.84 2961.74 2960.68 2959.61 2958.52 2957.42 2956.39 2955.43 2954.13 2952.48 2951.04 2949.22 2946.94 2945.54 2943.86 2942.11 2940.33 2938.42 2936.34 2935.07 2933.08 2931.14 2929.25 2927.50 2925.91 2924.93 2924.35 2923.73 2922.96 2922.84 2922.74 2922.48 2921.93 2921.28 2921.22 2921.19 2921.05 2920.70 2920.01 2919.37 2919.02 2918.47 2917.58 2917.12 2915.73 2915.76 2917.66 2916.83 2913.77 2915.36 2915.81 2915.20 2914.85 2914.39 2913.89 2913.86 2912.93 2913.45 2913.34 2913.14 2913.25 2912.52 2912.83 2921.86 2927.86 2933.01 2935.68 2930.31 2923.59 2916.94 2912.96 2912.56 2910.79 2908.63 2904.18 2902.77 2895.63 2896.23 2897.68 2898.04 2901.65 2902.72 2904.81 2907.73 2909.42 2912.63 2913.80 2914.21 2913.77 2915.07 2895.45 2880.89 2871.47 2856.89 2845.11 2839.38 2821.72 2803.40 2794.03 2779.82 2752.10 2735.97 2724.61 2716.56 2708.70 2700.16 2692.33 2685.63 2678.79 2672.80 2667.72 2661.04 2656.01 2653.25 2646.13 2636.83 2629.84 2620.65 2615.70 2614.50 2610.37 2602.82 2599.87 2600.26 2598.79 2593.05 2587.92 2569.46 2556.96 2517.05 2523.44 2546.57 2557.82 2569.35 2534.81 2521.57 2527.71 2545.27 2553.46 2543.40
3083.93 3090.58 3095.10 3101.00 3107.31 3114.04 3124.69 3135.25 3145.66 3151.77 3157.59 3165.26 3173.37 3186.95 3204.82 3217.72 3243.87 3237.62 3229.65 3219.90 3212.86 3207.33 3202.77 3197.81 3188.58 3182.52 3176.63 3170.51 3164.19 3157.98 3152.09 3146.21 3141.02 3135.63 3131.83 3126.24 3122.54 3119.01 3117.55 3116.04 3108.90 3106.86 3105.28 3103.44 3101.32 3099.20 3097.23 3095.46 3093.19 3091.26 3089.35 3087.43 3085.44 3083.16 3080.79 3078.40 3075.97 3073.41 3070.85 3068.44 3066.15 3063.86 3060.47 3057.75 3055.25 3052.96 3051.03 3049.92 3048.02 3045.70 3043.70 3041.97 3040.36 3038.53 3036.48 3034.76 3033.05 3032.98 3031.37 3029.90 3028.41 3026.91 3025.44 3023.92 3022.39 3020.89 3019.38 3017.60 3015.52 3013.36 3011.60 3009.84 3008.02 3006.24 3004.51 3002.78 3001.02 2999.25 2997.72 2996.45 2995.20 2994.02 2992.83 2991.40 2989.71 2987.91 2986.07 2984.26 2982.79 2981.10 2979.45 2977.88 2976.36 2974.96 2973.34 2971.75 2970.16 2968.60 2967.27 2966.11 2965.04 2964.02 2963.01 2962.00 2960.97 2959.91 2958.87 2957.79 2956.49 2954.84 2953.46 2952.09 2949.44 2948.04 2946.41 2944.74 2943.18 2941.52 2939.49 2937.71 2935.66 2933.55 2931.46 2929.45 2927.43 2926.53 2926.38 2926.28 2925.52 2924.90 2924.70 2924.70 2924.57 2923.92 2923.79 2923.65 2923.49 2923.31 2923.00 2922.36 2921.90 2921.37 2920.63 2919.72 2915.55 2915.35 2915.88 2916.19 2917.07 2919.75 2919.44 2919.13 2918.95 2918.49 2918.89 2918.54 2918.20 2919.00 2918.89 2920.57 2920.72 2920.64 2921.34 2928.74 2935.14 2939.98 2947.78 2943.39 2932.80 2930.87 2929.98 2926.57 2924.57 2919.06 2916.15 2910.40 2908.83 2909.74 2908.12 2907.50 2912.56 2915.32 2918.85 2921.48 2923.01 2925.74 2927.16 2927.89 2920.26 2899.49 2891.96 2874.69 2857.91 2850.15 2833.45 2816.56 2798.34 2786.04 2767.84 2744.03 2733.64 2732.49 2724.75 2716.80 2708.46 2699.32 2691.41 2681.92 2673.20 2666.09 2660.37 2654.48 2645.84 2645.53 2641.11 2632.12 2623.33 2615.15 2608.20 2603.63 2600.73 2595.51 2591.33 2591.15 2590.61 2585.36 2580.89 2575.74 2548.64 2535.96 2555.11 2563.38 2567.53 2565.70 2558.19 2542.69 2553.94 2555.52 2547.56 2537.88
3087.08 3093.00 3097.42 3102.85 3108.89 3115.26 3127.14 3137.27 3145.46 3150.66 3157.25 3163.84 3171.12 3182.50 3199.26 3213.89 3229.72 3242.48 3236.25 3226.21 3218.25 3212.11 3207.81 3200.56 3190.91 3184.76 3178.62 3172.35 3165.90 3159.77 3153.80 3148.19 3143.77 3140.18 3133.83 3129.61 3125.18 3121.63 3118.82 3116.76 3113.54 3109.11 3107.18 3104.89 3102.42 3100.18 3098.22 3097.03 3094.75 3092.76 3090.83 3088.92 3086.97 3084.70 3082.05 3079.59 3077.20 3074.80 3072.41 3070.10 3067.84 3065.48 3062.68 3060.09 3057.28 3054.57 3052.78 3051.48 3049.59 3047.40 3045.37 3043.53 3041.95 3040.12 3038.36 3036.37 3035.13 3034.53 3032.92 3031.47 3030.02 3028.56 3027.09 3025.58 3024.05 3022.45 3020.82 3019.15 3017.24 3015.28 3013.54 3011.75 3009.93 3008.20 3006.49 3004.79 3003.00 3001.03 2999.49 2998.55 2997.38 2996.13 2994.77 2993.22 2991.72 2990.07 2988.33 2986.59 2985.00 2983.35 2981.72 2980.16 2978.43 2977.03 2975.39 2973.87 2972.35 2970.75 2969.42 2968.34 2967.33 2966.34 2965.35 2964.36 2963.33 2962.24 2961.16 2960.15 2958.85 2957.27 2955.89 2954.32 2951.93 2950.54 2948.95 2947.33 2946.02 2944.72 2942.60 2940.46 2938.25 2936.03 2933.94 2932.20 2930.26 2929.15 2928.65 2928.24 2927.46 2926.70 2926.57 2926.87 2927.21 2926.56 2926.57 2926.27 2925.99 2925.90 2925.76 2925.41 2925.04 2924.60 2923.85 2922.28 2919.27 2919.13 2918.98 2918.71 2920.52 2922.83 2923.07 2922.60 2923.05 2922.60 2922.97 2923.03 2923.32 2924.55 2924.43 2926.07 2927.21 2927.72 2928.75 2937.74 2944.13 2952.00 2954.85 2952.69 2948.35 2946.16 2938.42 2937.72 2934.83 2932.54 2927.89 2923.01 2918.82 2922.06 2917.08 2921.62 2923.61 2928.03 2930.51 2934.39 2937.10 2937.30 2931.41 2923.68 2899.25 2887.53 2867.69 2853.87 2828.05 2816.44 2811.21 2796.44 2783.40 2767.44 2747.58 2729.45 2721.61 2730.61 2725.81 2719.82 2711.36 2702.29 2692.31 2682.35 2670.74 2663.09 2655.49 2647.30 2638.36 2635.51 2633.19 2629.10 2620.79 2611.48 2602.69 2595.51 2590.58 2587.03 2583.89 2581.80 2582.44 2575.30 2572.16 2565.33 2546.46 2562.01 2565.77 2565.45 2559.91 2556.56 2560.01 2556.93 2557.94 2550.76 2544.22 2535.58
3089.72 3093.62 3098.90 3104.33 3110.24 3116.60 3133.12 3142.69 3145.20 3150.21 3155.82 3162.16 3168.85 3176.35 3191.23 3209.95 3223.12 3237.50 3243.96 3234.28 3225.70 3216.46 3210.66 3203.59 3193.95 3187.23 3181.11 3174.92 3168.47 3162.26 3156.27 3151.84 3144.97 3140.03 3136.01 3131.38 3127.56 3124.08 3121.08 3119.84 3116.29 3110.20 3110.65 3107.01 3103.73 3101.22 3098.71 3097.76 3096.06 3094.15 3092.17 3090.14 3088.03 3085.68 3083.07 3080.77 3078.48 3076.16 3073.84 3071.53 3069.25 3066.92 3064.48 3062.38 3059.53 3056.79 3054.56 3052.55 3050.60 3048.79 3046.88 3044.96 3043.54 3042.16 3040.87 3039.08 3037.30 3036.05 3034.57 3033.12 3031.69 3030.24 3028.76 3027.24 3025.66 3023.92 3022.19 3020.71 3018.96 3017.09 3015.28 3013.53 3011.67 3010.00 3008.34 3006.75 3005.16 3003.28 3001.82 3000.87 2999.53 2998.19 2996.87 2995.44 2993.96 2992.37 2990.69 2988.98 2987.33 2985.60 2983.94 2982.56 2980.78 2979.11 2977.35 2976.02 2974.70 2973.21 2971.90 2970.76 2969.71 2968.70 2967.71 2966.70 2965.65 2964.47 2963.28 2962.26 2961.03 2959.53 2958.25 2956.98 2954.91 2953.27 2951.65 2950.04 2948.58 2947.19 2945.32 2943.11 2940.83 2938.57 2936.49 2935.34 2933.17 2931.93 2931.10 2930.41 2929.51 2928.50 2928.36 2928.65 2928.65 2928.24 2929.35 2928.96 2928.57 2928.60 2928.63 2928.51 2928.29 2928.04 2927.67 2927.01 2924.09 2922.98 2923.08 2924.84 2925.10 2925.79 2924.46 2924.17 2924.48 2924.47 2927.20 2926.99 2927.32 2928.97 2930.16 2931.31 2932.61 2933.80 2935.42 2948.10 2955.51 2960.55 2960.40 2957.29 2957.06 2955.08 2950.56 2951.45 2949.16 2941.32 2939.30 2936.52 2929.55 2931.75 2932.75 2934.19 2938.26 2940.38 2941.68 2934.73 2927.68 2927.77 2922.46 2898.83 2877.70 2864.31 2851.01 2826.53 2808.65 2798.53 2780.32 2763.12 2756.26 2746.49 2723.46 2710.90 2715.53 2721.32 2728.87 2724.08 2716.76 2706.24 2694.04 2681.32 2671.96 2660.05 2651.84 2643.87 2632.40 2626.36 2622.71 2618.87 2613.80 2606.92 2597.64 2590.94 2584.16 2579.36 2576.35 2573.36 2572.43 2567.34 2564.69 2561.20 2562.44 2559.35 2557.68 2556.92 2551.28 2547.18 2550.69 2552.66 2552.98 2546.38 2539.58 2532.78
3089.75 3094.78 3099.98 3105.31 3111.38 3117.77 3135.28 3138.62 3142.40 3147.53 3153.72 3160.07 3166.49 3173.42 3183.52 3211.67 3221.34 3231.10 3240.57 3242.24 3232.72 3223.55 3214.30 3206.76 3199.38 3190.77 3184.34 3178.08 3171.63 3165.27 3159.27 3153.18 3147.84 3142.76 3138.21 3134.21 3130.21 3126.69 3123.68 3120.14 3116.58 3112.72 3113.02 3108.99 3105.44 3102.93 3100.42 3099.36 3097.55 3095.52 3093.38 3091.19 3088.97 3086.72 3084.47 3082.18 3079.88 3077.53 3075.22 3072.86 3070.56 3068.28 3066.00 3063.90 3061.44 3058.95 3056.58 3054.17 3052.22 3050.38 3048.46 3046.55 3045.22 3043.93 3042.51 3040.73 3038.94 3037.61 3036.22 3034.82 3033.40 3031.95 3030.45 3028.86 3027.13 3025.39 3023.65 3022.39 3020.63 3018.76 3016.84 3014.99 3013.13 3011.46 3009.85 3008.26 3006.67 3004.90 3003.44 3002.50 3001.16 2999.82 2998.92 2997.71 2996.24 2994.72 2993.04 2991.31 2989.71 2987.82 2985.92 2984.55 2982.97 2981.35 2979.45 2978.12 2976.80 2975.60 2974.40 2973.22 2972.11 2971.06 2970.03 2969.00 2967.95 2966.76 2965.57 2964.59 2963.37 2961.94 2960.66 2959.38 2957.56 2956.00 2954.37 2952.74 2951.20 2949.71 2948.04 2945.74 2943.52 2941.35 2939.27 2938.12 2935.68 2934.71 2933.74 2933.05 2932.29 2931.46 2930.90 2931.22 2931.48 2931.07 2932.32 2931.93 2931.54 2931.61 2931.70 2931.67 2931.48 2931.35 2931.15 2930.50 2928.92 2928.04 2928.02 2928.65 2928.60 2928.33 2928.04 2927.75 2928.20 2927.96 2930.45 2930.69 2930.93 2933.54 2935.81 2936.37 2937.75 2939.28 2941.10 2955.12 2962.83 2965.82 2967.04 2967.15 2966.87 2965.05 2964.31 2964.07 2957.17 2958.23 2952.50 2948.96 2941.16 2949.85 2948.58 2942.99 2937.71 2933.43 2927.89 2924.09 2914.04 2918.76 2890.84 2875.37 2866.25 2852.49 2828.74 2807.08 2790.10 2771.41 2753.51 2746.26 2735.23 2724.67 2707.40 2702.60 2704.01 2710.31 2719.28 2715.88 2712.62 2701.34 2691.23 2679.85 2670.46 2657.81 2649.55 2641.85 2633.05 2622.30 2615.86 2608.03 2601.88 2597.16 2591.32 2584.26 2576.88 2572.43 2568.73 2565.78 2563.91 2560.52 2556.19 2552.67 2553.17 2547.84 2545.46 2545.20 2542.24 2538.91 2540.53 2543.84 2545.22 2542.65 2535.34 2529.12
3090.29 3095.28 3101.86 3106.21 3112.12 3121.25 3131.52 3136.28 3140.17 3146.58 3151.24 3157.36 3163.81 3170.04 3177.23 3197.77 3216.20 3224.05 3231.52 3239.31 3238.36 3230.92 3221.03 3213.38 3203.65 3194.91 3188.24 3181.90 3175.29 3169.08 3162.73 3157.11 3151.08 3146.04 3141.51 3137.10 3133.17 3129.24 3125.59 3122.31 3118.45 3114.97 3114.70 3110.57 3106.58 3103.62 3101.81 3101.41 3099.11 3096.83 3094.44 3092.03 3089.68 3087.43 3085.28 3083.13 3080.96 3078.72 3076.52 3074.07 3071.82 3069.64 3067.49 3065.42 3063.26 3061.11 3059.05 3057.00 3055.06 3052.72 3050.61 3048.74 3047.24 3045.82 3044.29 3042.57 3040.87 3039.40 3037.98 3036.58 3035.15 3033.70 3032.19 3030.60 3028.83 3027.05 3025.34 3023.83 3022.08 3020.35 3018.40 3016.42 3014.47 3012.82 3011.26 3009.77 3008.38 3007.09 3005.71 3004.36 3003.06 3001.93 3001.13 2999.90 2998.34 2996.93 2995.28 2993.44 2992.08 2990.13 2988.24 2986.67 2985.17 2983.89 2982.05 2980.53 2979.19 2978.04 2976.86 2975.62 2974.46 2973.37 2972.28 2971.16 2970.01 2968.78 2967.58 2966.51 2965.38 2964.14 2962.87 2961.49 2959.85 2958.63 2957.03 2955.38 2953.77 2952.25 2950.92 2948.28 2946.31 2944.47 2942.36 2941.20 2939.06 2937.57 2936.70 2936.02 2935.33 2934.43 2934.62 2934.28 2934.11 2933.79 2935.30 2935.47 2935.08 2934.89 2934.89 2934.89 2934.56 2934.37 2934.17 2933.72 2932.95 2932.39 2932.18 2932.12 2931.82 2930.43 2930.76 2930.89 2931.17 2931.28 2933.15 2934.97 2936.28 2938.76 2941.20 2941.76 2943.13 2945.02 2951.54 2961.50 2969.30 2972.68 2974.61 2976.14 2976.48 2975.89 2976.33 2976.40 2974.34 2970.79 2967.13 2965.22 2953.94 2947.10 2940.23 2933.14 2927.96 2922.22 2915.65 2913.85 2901.31 2881.61 2874.62 2863.01 2846.12 2828.06 2797.90 2779.89 2762.39 2753.25 2736.05 2724.83 2719.80 2707.12 2697.72 2694.18 2693.50 2704.28 2705.45 2701.23 2701.98 2698.46 2689.93 2679.21 2670.98 2658.87 2649.21 2639.90 2628.69 2620.84 2613.51 2603.52 2591.64 2584.84 2580.41 2575.47 2570.87 2565.86 2561.66 2558.04 2556.35 2553.15 2550.06 2541.20 2538.91 2533.34 2534.09 2536.32 2533.71 2530.88 2532.85 2535.07 2537.04 2537.95 2531.24 2524.58
3090.80 3095.32 3100.59 3106.17 3113.38 3122.01 3129.03 3133.40 3138.83 3145.69 3149.38 3155.36 3161.43 3167.59 3174.02 3188.34 3205.29 3215.21 3228.26 3239.76 3249.06 3242.00 3233.25 3222.05 3213.07 3200.89 3192.98 3186.51 3179.83 3173.46 3167.03 3160.95 3155.23 3150.04 3145.79 3141.10 3136.96 3133.41 3128.83 3124.42 3120.97 3117.18 3116.58 3112.45 3108.13 3105.52 3102.91 3102.93 3100.64 3098.03 3095.29 3092.62 3090.13 3087.85 3085.79 3083.83 3081.89 3079.87 3077.67 3075.14 3073.05 3070.96 3068.91 3066.90 3064.92 3062.97 3061.07 3058.65 3056.71 3054.69 3052.76 3050.99 3049.41 3047.86 3046.24 3044.53 3042.85 3041.30 3039.82 3038.38 3036.92 3035.43 3033.90 3032.32 3030.50 3028.68 3026.98 3025.40 3023.80 3022.04 3019.95 3017.85 3015.80 3014.15 3012.57 3011.11 3009.76 3008.49 3007.11 3005.91 3004.73 3003.64 3002.64 3001.41 2999.90 2998.59 2997.27 2995.22 2993.86 2992.12 2990.39 2988.76 2987.16 2985.87 2984.32 2982.83 2981.44 2980.19 2979.02 2977.84 2976.71 2975.59 2974.45 2973.26 2972.01 2970.71 2969.43 2968.32 2967.34 2966.27 2965.09 2963.76 2962.31 2961.09 2959.56 2957.93 2956.32 2954.84 2953.50 2950.44 2949.11 2947.77 2945.29 2944.13 2942.42 2941.01 2939.96 2939.07 2938.37 2938.19 2937.69 2937.19 2937.13 2936.81 2938.72 2938.47 2938.23 2937.88 2937.86 2938.09 2937.76 2937.26 2937.03 2936.79 2936.58 2936.33 2936.15 2935.95 2935.66 2935.01 2935.42 2936.02 2936.20 2936.74 2936.97 2939.13 2941.19 2943.51 2945.56 2946.87 2948.27 2950.00 2953.67 2967.37 2975.23 2979.34 2982.46 2984.64 2987.45 2989.02 2988.69 2980.81 2975.61 2969.32 2963.27 2954.60 2949.79 2937.09 2931.50 2923.59 2918.66 2913.53 2906.20 2899.52 2882.45 2866.92 2851.15 2840.97 2820.95 2796.80 2771.96 2755.63 2747.88 2745.00 2720.51 2712.25 2704.88 2698.15 2690.64 2686.62 2684.11 2689.76 2687.78 2689.60 2690.38 2688.14 2683.22 2675.85 2670.36 2656.89 2648.89 2638.13 2628.01 2619.46 2608.93 2596.36 2586.14 2580.07 2574.84 2569.98 2566.42 2560.91 2554.67 2552.18 2549.41 2546.33 2542.00 2534.70 2521.82 2521.58 2525.47 2525.56 2525.00 2522.28 2525.22 2526.79 2527.36 2528.47 2525.62 2519.45
3089.93 3094.84 3101.23 3106.26 3111.84 3120.94 3125.65 3130.27 3135.93 3142.07 3147.80 3153.76 3159.58 3165.50 3172.01 3179.33 3196.61 3216.81 3231.52 3243.10 3260.89 3254.25 3241.45 3232.37 3222.64 3213.04 3202.67 3192.09 3185.31 3178.44 3171.86 3165.42 3159.77 3154.77 3151.34 3146.45 3141.88 3136.72 3132.40 3127.64 3123.63 3119.79 3118.65 3115.05 3110.88 3107.43 3105.17 3104.46 3102.16 3098.90 3095.83 3092.95 3090.32 3088.03 3086.08 3084.31 3082.65 3081.02 3078.82 3076.35 3074.27 3072.14 3070.22 3068.29 3066.39 3064.47 3062.56 3060.30 3058.36 3056.64 3054.92 3053.25 3051.64 3050.01 3048.31 3046.57 3044.86 3043.24 3041.69 3040.19 3038.69 3037.12 3035.44 3033.67 3031.85 3030.13 3028.45 3026.79 3025.10 3023.34 3021.33 3019.30 3017.13 3015.48 3013.78 3012.31 3010.98 3009.89 3008.51 3007.39 3006.25 3005.16 3004.15 3002.92 3001.65 3000.25 2999.03 2997.00 2995.64 2993.97 2992.44 2990.90 2989.14 2987.86 2986.46 2985.04 2983.62 2982.35 2981.17 2980.03 2978.91 2977.80 2976.62 2975.38 2974.07 2972.69 2971.32 2970.22 2969.41 2968.51 2967.40 2966.17 2964.78 2963.55 2962.04 2960.42 2958.77 2957.20 2956.09 2953.61 2951.90 2950.57 2948.22 2947.07 2945.66 2944.52 2943.40 2942.11 2941.42 2941.28 2940.77 2940.40 2940.14 2939.82 2941.06 2941.48 2940.82 2940.29 2940.09 2940.06 2939.87 2939.63 2939.76 2939.75 2940.08 2940.06 2940.00 2939.79 2939.50 2939.27 2940.09 2941.06 2941.34 2941.98 2942.68 2943.71 2945.97 2948.20 2949.92 2951.79 2953.39 2955.09 2966.13 2974.56 2981.19 2986.40 2990.46 2993.68 2997.48 2990.01 2984.25 2977.10 2969.56 2962.20 2954.04 2945.96 2937.97 2933.79 2921.05 2915.99 2908.58 2901.23 2892.70 2885.29 2866.46 2845.66 2831.99 2798.49 2792.82 2766.75 2754.61 2743.17 2736.54 2721.66 2710.75 2701.77 2695.23 2688.26 2683.88 2677.94 2674.18 2677.61 2674.14 2675.92 2675.80 2674.67 2673.75 2669.38 2664.63 2649.98 2641.89 2632.74 2623.60 2614.14 2605.51 2594.39 2582.76 2575.62 2570.15 2565.94 2558.79 2556.48 2550.10 2545.52 2540.10 2537.01 2534.73 2526.27 2513.57 2510.55 2515.83 2513.05 2512.97 2512.85 2515.99 2518.79 2517.54 2517.26 2516.65 2513.14
3089.73 3095.09 3100.05 3105.79 3111.30 3117.71 3123.29 3129.32 3135.18 3141.02 3146.70 3152.15 3157.72 3163.31 3169.60 3176.68 3188.41 3211.82 3230.44 3244.60 3255.34 3261.17 3250.75 3239.28 3228.82 3221.77 3215.69 3205.86 3193.94 3187.29 3176.55 3170.20 3164.56 3161.57 3157.25 3151.93 3146.65 3140.16 3135.42 3131.02 3126.89 3122.87 3121.44 3118.30 3114.07 3109.99 3106.58 3103.80 3100.93 3098.69 3095.95 3093.08 3090.38 3088.06 3086.23 3084.57 3082.89 3080.96 3078.86 3076.94 3074.98 3073.03 3071.40 3069.58 3067.83 3066.00 3064.05 3062.29 3060.58 3058.89 3057.20 3055.53 3053.89 3052.19 3050.41 3048.61 3046.85 3045.17 3043.54 3041.99 3040.45 3038.80 3037.00 3035.15 3033.33 3031.58 3029.86 3028.12 3026.33 3024.53 3022.59 3020.83 3018.62 3016.70 3014.87 3013.41 3011.95 3010.97 3009.69 3008.78 3007.63 3006.48 3005.56 3004.62 3003.69 3002.55 3001.41 2999.28 2997.44 2995.72 2994.47 2993.23 2991.49 2990.00 2988.59 2987.26 2985.77 2984.61 2983.41 2982.22 2981.12 2980.02 2978.82 2977.56 2976.25 2974.93 2973.65 2972.55 2971.73 2970.92 2969.82 2968.72 2967.33 2965.96 2964.48 2962.96 2961.37 2959.86 2958.65 2956.71 2955.51 2954.31 2952.11 2951.02 2949.05 2948.15 2947.25 2946.20 2945.49 2944.94 2944.39 2943.85 2943.48 2943.11 2943.37 2943.09 2942.82 2942.51 2942.31 2942.16 2942.11 2942.05 2942.76 2942.74 2943.75 2943.74 2943.72 2943.20 2943.23 2943.47 2944.44 2945.33 2946.34 2946.79 2948.26 2949.20 2950.88 2953.23 2954.33 2956.55 2958.22 2962.26 2974.17 2982.21 2988.12 2994.49 2998.45 3001.70 2992.65 2984.26 2977.08 2970.07 2961.08 2950.58 2945.20 2936.82 2929.67 2921.72 2915.00 2907.53 2899.93 2891.53 2878.65 2858.23 2812.06 2801.37 2791.01 2781.93 2772.20 2759.94 2747.38 2737.31 2727.08 2715.18 2704.61 2697.10 2688.06 2680.38 2675.24 2667.31 2665.98 2666.25 2662.64 2664.48 2662.85 2662.52 2662.57 2658.60 2656.00 2648.41 2636.89 2627.54 2619.52 2607.20 2598.33 2589.76 2579.73 2571.18 2565.26 2559.87 2555.56 2550.59 2545.70 2536.16 2529.27 2524.14 2520.43 2516.64 2505.75 2499.99 2504.32 2501.04 2500.98 2500.63 2507.52 2510.16 2507.02 2502.94 2507.87 2500.99
3089.79 3094.43 3100.42 3105.31 3110.87 3116.90 3122.45 3128.36 3134.16 3139.87 3145.46 3151.00 3156.59 3162.22 3168.40 3175.23 3183.31 3205.48 3228.57 3241.87 3252.25 3266.34 3257.86 3248.67 3238.50 3231.72 3224.71 3216.65 3206.21 3196.56 3182.82 3175.17 3170.15 3167.47 3162.72 3156.16 3149.38 3143.91 3139.32 3135.07 3130.71 3126.35 3121.72 3121.17 3117.25 3112.67 3108.39 3105.72 3102.86 3099.60 3096.45 3093.41 3090.58 3088.14 3086.53 3084.96 3083.43 3081.93 3079.83 3077.90 3075.95 3073.99 3072.38 3070.73 3069.30 3067.79 3066.10 3064.56 3062.99 3061.24 3059.49 3057.78 3056.09 3054.33 3052.47 3050.61 3048.80 3047.06 3045.33 3043.73 3042.16 3040.44 3038.51 3036.61 3034.77 3033.01 3031.28 3029.50 3027.54 3025.52 3023.76 3022.00 3019.80 3017.90 3016.03 3014.58 3013.12 3012.09 3010.81 3010.00 3008.85 3007.70 3006.92 3006.14 3005.25 3004.11 3002.97 3001.16 2999.26 2997.54 2996.30 2995.05 2993.55 2992.06 2990.66 2989.51 2987.87 2986.77 2985.65 2984.43 2983.32 2982.22 2981.06 2979.81 2978.52 2977.28 2976.09 2974.97 2974.07 2973.33 2972.23 2971.14 2969.77 2968.36 2966.94 2965.58 2964.06 2962.52 2961.19 2959.54 2958.34 2957.14 2955.04 2953.95 2952.09 2951.19 2950.29 2949.35 2948.65 2948.08 2947.53 2946.99 2946.59 2946.22 2946.46 2946.19 2945.92 2945.77 2945.56 2945.57 2945.51 2945.45 2946.42 2946.40 2947.59 2947.57 2947.56 2947.27 2947.30 2947.45 2948.72 2949.72 2951.19 2952.16 2953.96 2955.74 2956.77 2958.80 2960.60 2963.01 2966.14 2971.10 2983.45 2990.88 2999.08 3006.10 3004.97 2993.91 2986.18 2978.92 2972.02 2961.91 2952.88 2943.33 2936.56 2930.52 2921.96 2914.00 2906.07 2900.78 2886.74 2871.20 2852.42 2841.10 2814.10 2799.52 2782.48 2770.85 2761.88 2751.63 2744.63 2732.43 2722.25 2712.81 2704.33 2694.37 2682.95 2674.13 2667.18 2660.01 2657.98 2655.52 2652.69 2653.29 2651.80 2651.91 2653.40 2649.26 2647.74 2642.64 2635.04 2625.42 2616.35 2607.22 2595.52 2586.12 2576.91 2567.92 2560.99 2554.97 2549.58 2542.91 2534.10 2528.86 2519.73 2514.19 2509.57 2505.07 2498.53 2490.56 2488.80 2488.45 2490.17 2489.78 2500.33 2496.83 2493.34 2488.72 2492.49 2488.76
3088.30 3093.68 3099.01 3104.71 3110.26 3116.00 3121.83 3127.68 3133.38 3139.11 3144.78 3150.44 3156.01 3161.71 3168.01 3175.07 3182.57 3196.37 3225.58 3238.73 3251.01 3259.94 3270.05 3257.68 3248.88 3240.72 3231.27 3224.26 3211.41 3203.10 3193.11 3181.21 3175.44 3170.85 3164.01 3158.04 3153.26 3148.35 3143.93 3139.72 3135.29 3130.70 3125.97 3126.39 3121.36 3115.53 3108.94 3104.74 3102.45 3100.03 3097.09 3094.12 3091.31 3088.62 3087.34 3085.59 3083.76 3081.91 3079.72 3077.87 3075.79 3074.23 3073.12 3071.69 3070.71 3069.51 3067.98 3066.65 3065.24 3063.42 3061.64 3059.87 3058.10 3056.30 3054.37 3052.48 3050.65 3048.87 3046.98 3045.35 3043.73 3041.79 3039.86 3037.99 3036.16 3034.38 3032.66 3030.98 3029.13 3026.98 3024.96 3022.92 3020.71 3019.05 3017.01 3015.31 3013.91 3012.66 3011.36 3010.84 3010.16 3009.19 3008.40 3007.75 3007.09 3006.29 3004.94 3003.09 3001.26 3000.09 2998.47 2996.99 2995.55 2994.07 2992.66 2991.50 2990.16 2989.06 2988.01 2986.77 2985.62 2984.50 2983.38 2982.10 2980.81 2979.65 2978.51 2977.25 2976.08 2975.17 2974.27 2973.29 2972.09 2970.76 2969.40 2968.33 2966.96 2965.57 2964.25 2962.78 2961.46 2960.10 2958.44 2957.17 2955.89 2955.31 2954.35 2953.79 2953.09 2951.99 2951.41 2950.66 2950.06 2949.69 2949.57 2949.36 2949.16 2949.05 2948.98 2948.98 2949.00 2949.09 2949.50 2949.72 2950.76 2950.89 2951.26 2951.07 2951.28 2951.90 2953.45 2954.97 2958.41 2961.04 2962.21 2962.61 2964.84 2966.56 2968.39 2971.62 2976.04 2986.59 2993.88 3006.09 3011.24 3009.09 2999.49 2989.41 2980.02 2972.07 2963.75 2954.78 2944.52 2936.32 2928.97 2924.16 2916.46 2909.27 2900.24 2889.00 2883.37 2875.19 2862.52 2848.83 2820.74 2802.26 2783.87 2770.95 2757.09 2745.86 2740.78 2730.17 2719.54 2709.83 2701.85 2693.60 2682.64 2673.80 2663.76 2655.43 2648.54 2645.47 2642.46 2642.82 2641.40 2642.02 2644.96 2640.70 2638.42 2634.43 2629.50 2623.06 2614.30 2602.70 2591.50 2581.73 2573.01 2564.80 2557.98 2549.76 2541.63 2532.99 2526.13 2519.67 2512.52 2506.07 2498.42 2492.76 2490.04 2483.61 2478.22 2478.25 2480.47 2481.36 2488.87 2487.16 2480.82 2474.01 2469.60 2477.03
3088.39 3093.71 3099.25 3105.33 3110.44 3116.51 3122.01 3127.62 3133.23 3138.76 3144.42 3149.75 3155.57 3161.55 3167.92 3174.71 3182.07 3198.07 3225.85 3235.73 3247.55 3258.21 3270.86 3265.29 3255.75 3248.44 3237.25 3228.52 3218.17 3206.77 3197.00 3188.21 3179.91 3174.05 3168.51 3162.85 3158.08 3153.28 3148.96 3146.73 3144.77 3142.71 3136.76 3132.26 3126.23 3120.14 3111.33 3107.64 3103.71 3101.50 3098.36 3095.48 3093.43 3090.75 3089.31 3086.94 3084.57 3082.83 3080.64 3078.43 3076.51 3074.59 3073.79 3072.36 3071.89 3070.63 3069.25 3067.98 3066.56 3065.16 3063.58 3061.74 3059.63 3057.83 3056.01 3054.19 3052.35 3050.47 3048.58 3046.90 3045.15 3043.15 3041.24 3039.35 3037.48 3035.64 3033.83 3032.04 3030.20 3028.23 3026.20 3024.07 3021.91 3020.25 3017.97 3016.43 3014.89 3013.64 3012.35 3011.85 3011.45 3010.51 3009.73 3009.17 3008.60 3007.67 3006.74 3004.92 3002.94 3001.69 3000.22 2998.79 2997.52 2996.10 2994.71 2993.53 2992.33 2991.19 2990.14 2989.00 2987.88 2986.79 2985.75 2984.43 2983.08 2982.01 2980.93 2979.47 2978.04 2977.02 2976.31 2975.51 2974.50 2973.32 2972.06 2970.99 2969.86 2968.71 2967.51 2966.10 2964.69 2963.30 2961.82 2960.46 2959.19 2958.39 2957.59 2956.94 2956.24 2955.12 2954.54 2953.96 2953.18 2952.80 2952.66 2952.54 2952.45 2952.37 2952.49 2952.47 2952.61 2952.89 2953.30 2953.52 2954.68 2954.92 2955.17 2955.33 2955.53 2956.41 2960.32 2963.56 2968.06 2972.93 2974.12 2973.58 2973.41 2975.02 2977.19 2981.80 2990.04 2996.44 3003.23 3011.66 3013.21 3005.52 2993.54 2983.66 2974.32 2964.40 2956.98 2948.21 2940.49 2931.43 2922.49 2915.28 2910.00 2902.57 2892.26 2883.05 2874.92 2867.46 2858.36 2843.27 2821.54 2804.75 2785.99 2770.08 2753.70 2740.69 2733.39 2723.39 2713.91 2706.45 2698.13 2687.87 2678.14 2666.31 2655.02 2647.12 2642.69 2633.77 2632.82 2631.81 2630.74 2630.81 2633.87 2630.96 2629.41 2628.02 2622.35 2617.11 2610.12 2600.16 2590.60 2579.55 2570.42 2560.87 2552.81 2545.74 2538.17 2527.23 2518.74 2509.55 2499.67 2496.31 2487.16 2482.83 2479.50 2477.03 2469.42 2468.22 2471.18 2473.06 2478.40 2473.99 2465.62 2454.10 2459.75 2466.89
3087.92 3095.42 3100.81 3107.89 3113.06 3118.12 3122.25 3127.78 3133.31 3138.69 3144.21 3149.70 3155.49 3161.63 3168.04 3174.91 3182.88 3198.30 3221.02 3235.72 3244.55 3256.85 3268.75 3265.41 3258.53 3251.24 3246.42 3233.76 3222.65 3212.51 3203.08 3195.23 3189.72 3185.01 3174.20 3169.12 3163.31 3159.37 3154.70 3152.27 3150.03 3147.77 3144.73 3139.81 3134.49 3129.18 3121.67 3115.78 3110.58 3105.14 3100.54 3096.62 3093.20 3092.87 3090.80 3088.30 3085.65 3083.76 3081.57 3078.32 3077.22 3075.62 3074.47 3073.03 3072.87 3071.74 3070.52 3069.30 3067.89 3066.99 3065.65 3063.83 3061.16 3059.35 3057.64 3055.92 3054.12 3052.07 3050.18 3048.63 3046.87 3044.88 3042.78 3040.75 3038.78 3036.83 3034.92 3033.10 3031.26 3029.48 3027.53 3025.42 3023.10 3021.44 3019.16 3017.56 3016.01 3014.62 3013.33 3012.57 3011.90 3011.46 3010.73 3010.36 3009.93 3009.04 3008.35 3006.82 3005.01 3003.46 3001.92 3000.48 2999.49 2998.07 2996.67 2995.56 2994.49 2993.35 2992.25 2991.17 2990.11 2989.06 2988.02 2986.78 2985.50 2984.37 2983.06 2981.71 2980.50 2979.48 2978.69 2977.95 2977.10 2976.05 2974.91 2973.86 2972.80 2971.78 2970.75 2969.31 2967.89 2966.53 2965.20 2963.85 2962.56 2961.48 2960.87 2960.09 2959.39 2958.41 2957.68 2956.93 2956.30 2955.92 2955.74 2955.78 2955.84 2955.76 2956.24 2955.96 2956.18 2956.58 2957.10 2957.32 2958.44 2958.95 2956.45 2957.85 2961.41 2968.44 2974.41 2978.07 2980.70 2983.45 2986.26 2988.72 2987.06 2987.70 2987.95 2993.12 2998.71 3005.21 3013.48 3018.49 3008.88 2999.68 2969.85 2979.30 2969.07 2959.41 2951.63 2942.99 2933.12 2927.85 2919.93 2910.26 2899.65 2891.43 2883.95 2875.10 2866.48 2858.56 2849.91 2835.74 2816.97 2797.73 2781.52 2759.30 2743.65 2740.32 2723.47 2715.18 2708.15 2702.84 2692.09 2682.44 2672.32 2661.20 2653.69 2644.99 2636.69 2630.17 2624.90 2620.10 2616.17 2618.73 2621.26 2619.92 2619.83 2620.28 2615.62 2610.26 2603.49 2596.66 2586.97 2577.80 2567.94 2559.70 2549.53 2541.33 2532.24 2522.99 2513.11 2499.38 2490.89 2483.06 2478.58 2471.33 2469.02 2469.40 2461.38 2458.40 2461.03 2466.52 2470.39 2458.28 2451.83 2443.04 2450.04 2455.31
3089.69 3095.77 3101.29 3107.04 3114.21 3117.01 3121.96 3127.64 3133.47 3138.93 3144.28 3149.78 3155.35 3161.49 3168.18 3174.87 3183.33 3197.13 3218.32 3230.39 3241.88 3254.56 3270.46 3259.91 3250.44 3244.43 3238.76 3234.45 3229.16 3219.12 3212.43 3206.04 3198.21 3191.76 3189.94 3182.24 3174.96 3169.23 3162.89 3158.89 3154.23 3151.04 3147.96 3144.40 3138.54 3132.99 3126.10 3120.20 3115.83 3109.30 3106.80 3103.32 3098.00 3094.49 3091.77 3088.52 3085.72 3082.72 3080.29 3076.50 3075.94 3075.21 3073.54 3070.63 3070.49 3072.66 3071.79 3071.22 3070.37 3069.29 3067.91 3066.53 3063.79 3061.38 3059.39 3057.77 3056.42 3055.16 3053.19 3050.92 3048.82 3046.73 3044.35 3042.15 3040.06 3037.95 3035.85 3033.81 3032.15 3030.69 3028.89 3027.09 3025.62 3023.98 3020.47 3018.72 3016.96 3014.95 3013.51 3013.00 3011.97 3012.03 3011.37 3011.45 3011.47 3010.86 3010.24 3008.74 3007.01 3005.34 3003.71 3002.23 3001.25 2999.91 2998.50 2997.57 2996.64 2995.47 2994.33 2993.31 2992.32 2991.31 2990.26 2989.08 2987.75 2986.42 2985.04 2983.85 2982.79 2981.87 2981.12 2980.49 2979.82 2978.85 2977.74 2976.74 2975.74 2974.51 2973.44 2972.18 2970.90 2969.68 2968.55 2967.26 2966.10 2965.32 2964.53 2963.54 2962.62 2961.51 2960.49 2959.48 2958.48 2958.21 2958.58 2959.08 2959.72 2960.61 2960.75 2959.44 2959.69 2959.95 2960.00 2960.57 2962.01 2962.74 2961.48 2965.06 2973.56 2980.34 2985.43 2989.49 2992.02 2993.63 2998.16 2998.01 2998.27 2998.46 2999.92 3003.74 3010.61 3015.33 3021.40 3016.16 2986.15 2951.68 2959.68 2970.45 2965.60 2955.53 2946.66 2937.78 2929.18 2919.81 2911.98 2902.13 2893.92 2884.32 2874.66 2866.37 2858.36 2843.70 2837.87 2832.86 2788.12 2772.12 2747.89 2731.35 2733.64 2717.95 2712.41 2703.75 2698.55 2695.28 2688.69 2678.54 2671.25 2663.67 2655.00 2643.23 2635.41 2626.99 2619.43 2611.80 2608.44 2605.44 2606.21 2608.42 2608.61 2608.86 2606.42 2601.81 2594.55 2588.10 2582.81 2574.93 2566.64 2556.11 2545.85 2536.30 2528.34 2518.61 2504.35 2491.42 2481.84 2474.48 2467.42 2462.36 2459.52 2459.14 2454.57 2447.97 2449.31 2459.72 2458.25 2446.29 2436.22 2430.38 2438.01 2443.73
3092.78 3096.10 3100.42 3105.25 3110.59 3116.13 3121.68 3127.26 3132.89 3138.42 3143.87 3149.45 3155.26 3161.23 3167.55 3174.22 3181.96 3200.54 3221.37 3234.10 3245.75 3256.44 3268.84 3256.33 3245.88 3236.49 3230.50 3225.61 3224.09 3219.48 3215.71 3210.83 3199.26 3192.48 3181.24 3179.85 3171.66 3168.90 3169.85 3151.70 3144.93 3137.92 3140.37 3138.98 3128.94 3120.07 3118.11 3118.17 3111.69 3107.87 3109.44 3097.51 3100.37 3093.27 3089.03 3089.78 3087.31 3085.07 3083.85 3079.33 3077.01 3074.12 3073.60 3069.79 3069.92 3069.37 3072.65 3072.50 3071.53 3070.63 3069.25 3067.87 3065.78 3063.02 3060.78 3059.23 3058.09 3056.83 3054.87 3052.57 3050.48 3048.39 3045.83 3043.64 3041.18 3039.08 3036.97 3034.45 3033.05 3031.72 3029.86 3026.85 3026.44 3024.97 3021.79 3020.04 3018.28 3016.03 3014.59 3013.72 3012.70 3011.75 3012.14 3012.33 3012.61 3012.00 3011.22 3010.28 3008.81 3007.20 3005.61 3004.17 3003.01 3001.86 3000.50 2999.57 2998.63 2997.52 2996.37 2995.46 2994.54 2993.57 2992.54 2991.43 2990.01 2988.56 2987.07 2986.05 2985.11 2984.24 2983.50 2983.01 2982.58 2981.62 2980.42 2979.41 2978.41 2977.19 2976.06 2974.91 2973.76 2972.67 2971.78 2970.41 2969.10 2968.32 2967.53 2966.71 2965.81 2964.48 2963.36 2962.41 2961.61 2961.35 2961.65 2962.25 2962.93 2964.12 2964.26 2963.19 2963.44 2963.70 2964.06 2964.63 2966.77 2967.50 2967.73 2976.56 2985.47 2989.89 2995.58 3000.63 3002.90 3006.46 3007.98 3007.43 3008.61 3009.82 3012.24 3016.81 3022.16 3027.70 3021.64 2976.60 2933.71 2941.45 2951.97 2959.99 2962.27 2953.35 2944.09 2932.92 2922.98 2911.80 2899.08 2892.92 2886.65 2879.00 2868.41 2858.58 2845.73 2820.81 2808.32 2774.97 2765.47 2754.49 2717.45 2722.49 2719.32 2707.44 2700.38 2688.86 2688.96 2694.70 2686.52 2679.08 2675.48 2668.03 2657.91 2644.41 2633.59 2625.21 2617.21 2608.78 2602.95 2597.17 2595.45 2597.14 2597.92 2598.42 2596.52 2592.31 2587.32 2579.16 2573.09 2573.36 2562.45 2553.89 2544.32 2532.82 2524.58 2513.23 2499.30 2486.96 2475.93 2466.65 2457.06 2452.92 2447.56 2445.88 2440.27 2432.79 2438.80 2449.74 2449.60 2435.68 2426.43 2421.55 2428.33 2412.13
3090.44 3095.05 3100.68 3104.81 3109.95 3115.39 3120.88 3126.46 3132.08 3137.81 3143.47 3148.93 3154.47 3160.75 3167.22 3174.04 3182.37 3199.52 3221.68 3234.94 3249.50 3259.83 3267.48 3255.17 3242.65 3232.71 3222.13 3215.15 3214.31 3209.91 3206.79 3203.42 3206.19 3183.56 3172.12 3167.99 3162.02 3154.04 3161.06 3149.66 3132.20 3126.47 3122.82 3124.34 3114.88 3109.47 3106.05 3105.72 3102.94 3094.38 3092.42 3087.05 3085.78 3085.23 3079.60 3081.21 3079.90 3078.11 3079.67 3074.09 3066.86 3063.53 3062.66 3073.45 3071.24 3071.09 3074.25 3073.69 3073.01 3072.80 3071.82 3069.27 3067.75 3064.20 3061.76 3060.31 3059.59 3058.51 3056.95 3054.98 3052.71 3050.09 3047.08 3044.46 3042.26 3040.08 3038.32 3035.30 3034.95 3035.19 3031.91 3029.21 3027.55 3026.63 3025.06 3022.51 3020.62 3018.74 3016.04 3013.47 3011.53 3010.19 3011.25 3012.35 3013.15 3012.97 3012.39 3011.79 3010.48 3008.97 3007.48 3006.08 3004.83 3003.98 3002.59 3001.59 3000.68 2999.67 2998.62 2997.70 2996.82 2995.89 2994.89 2993.93 2992.38 2991.04 2989.69 2988.67 2987.61 2986.71 2985.84 2985.35 2985.09 2984.13 2982.98 2981.90 2980.82 2979.68 2978.62 2977.59 2976.55 2975.53 2974.64 2973.29 2971.79 2970.52 2969.90 2969.60 2969.02 2967.30 2966.21 2965.34 2964.06 2963.89 2964.58 2965.31 2965.49 2966.72 2967.33 2967.26 2967.57 2968.04 2968.75 2969.62 2970.95 2971.95 2977.12 2989.07 2995.94 3001.52 3005.90 3011.50 3014.06 3015.80 3017.52 3018.76 3019.28 3021.99 3026.18 3031.02 3033.50 3027.77 2976.95 2926.64 2924.85 2930.41 2940.71 2952.57 2959.58 2950.80 2940.28 2928.71 2918.91 2905.68 2877.64 2864.71 2866.97 2865.08 2860.34 2833.06 2796.83 2780.68 2766.42 2756.70 2724.39 2695.77 2701.65 2706.98 2694.05 2691.56 2680.84 2676.72 2676.36 2680.36 2681.74 2671.93 2675.50 2667.75 2659.79 2647.01 2633.89 2624.15 2615.25 2606.63 2598.69 2592.19 2587.78 2585.28 2584.14 2585.94 2584.58 2582.71 2579.39 2574.89 2564.10 2558.44 2552.68 2547.97 2538.20 2531.09 2521.52 2512.80 2502.56 2488.83 2474.76 2462.46 2451.12 2439.02 2431.70 2433.00 2423.06 2422.42 2428.50 2437.43 2440.03 2429.52 2420.21 2412.25 2419.60 2403.49
3090.77 3095.44 3099.74 3104.67 3109.29 3114.52 3119.84 3125.62 3130.98 3136.59 3142.57 3148.11 3154.04 3160.71 3167.64 3175.21 3184.51 3201.99 3220.20 3236.18 3249.28 3264.02 3262.93 3252.76 3240.80 3228.84 3219.01 3208.57 3201.82 3200.36 3192.84 3191.53 3190.19 3176.03 3166.20 3158.84 3151.99 3143.11 3138.92 3130.21 3122.76 3118.12 3111.93 3106.80 3103.09 3097.77 3090.57 3088.49 3090.67 3084.38 3079.31 3076.45 3072.75 3074.73 3071.48 3067.16 3068.69 3065.14 3063.54 3053.97 3042.62 3033.33 3044.84 3078.09 3075.27 3073.65 3073.51 3073.82 3073.79 3073.54 3069.26 3068.22 3069.94 3065.41 3064.61 3063.26 3061.79 3060.56 3059.52 3058.02 3055.69 3052.73 3049.15 3046.35 3044.35 3041.60 3041.02 3037.86 3034.79 3030.47 3024.59 3020.85 3016.27 3033.13 3029.47 3027.37 3025.02 3022.79 3020.39 3016.93 3012.61 3011.81 3011.89 3012.99 3014.21 3014.24 3013.55 3012.55 3011.89 3010.58 3009.31 3008.03 3006.72 3005.87 3004.43 3003.60 3002.77 3001.84 3000.90 3000.05 2999.20 2998.32 2997.38 2996.42 2994.72 2993.70 2992.68 2991.29 2990.32 2989.45 2988.55 2987.64 2987.31 2986.39 2985.40 2984.33 2983.22 2982.14 2981.21 2980.31 2979.41 2978.49 2977.54 2976.26 2974.72 2973.50 2972.88 2972.67 2972.09 2969.92 2969.41 2968.90 2967.38 2967.21 2967.87 2968.74 2968.92 2969.85 2970.72 2971.27 2971.77 2972.31 2973.02 2973.88 2975.23 2976.42 2982.05 2991.95 3002.19 3009.30 3012.60 3017.74 3021.96 3025.43 3027.52 3028.59 3030.05 3033.95 3038.46 3035.92 3029.92 2992.94 2923.47 2910.89 2911.79 2920.22 2934.40 2944.47 2940.81 2928.57 2921.19 2924.71 2915.32 2893.74 2852.59 2851.62 2828.31 2814.35 2803.86 2784.22 2771.60 2762.08 2743.66 2710.18 2696.60 2690.46 2680.40 2677.32 2678.28 2668.62 2668.64 2667.82 2664.96 2668.96 2669.39 2659.12 2656.84 2657.45 2657.52 2644.62 2634.06 2623.62 2614.44 2606.12 2597.99 2589.30 2579.67 2574.04 2572.51 2571.33 2571.21 2572.84 2571.75 2565.30 2558.07 2545.76 2538.80 2534.98 2532.83 2526.25 2518.32 2511.86 2501.36 2488.22 2476.59 2460.97 2447.71 2428.97 2421.94 2415.30 2411.56 2415.10 2422.69 2430.54 2430.47 2423.97 2413.96 2404.67 2406.01 2391.46
3090.18 3095.11 3099.65 3104.17 3108.75 3113.93 3119.32 3124.81 3130.34 3136.05 3141.90 3147.93 3154.35 3161.40 3168.75 3176.65 3186.52 3204.61 3219.90 3237.36 3249.71 3263.34 3260.74 3252.22 3239.32 3225.86 3214.95 3205.80 3195.94 3188.06 3184.25 3181.11 3183.57 3171.03 3161.02 3151.35 3143.38 3134.23 3128.32 3123.66 3115.61 3110.56 3100.72 3094.13 3089.40 3084.97 3079.94 3076.02 3077.38 3071.97 3068.55 3069.76 3057.94 3061.95 3058.95 3055.84 3057.02 3052.03 3047.78 3039.00 3025.64 3013.17 3035.15 3058.83 3065.05 3067.89 3070.11 3078.41 3080.51 3083.47 3078.12 3068.39 3072.09 3069.35 3065.49 3064.98 3065.31 3064.06 3062.85 3061.99 3059.88 3057.10 3053.49 3052.47 3043.03 3036.19 3031.30 3025.94 3019.29 3017.60 3012.31 3009.53 3002.36 3025.57 3034.80 3030.83 3023.61 3018.70 3013.27 3008.76 3005.79 3015.28 3014.20 3014.51 3015.87 3015.75 3014.84 3013.96 3013.29 3012.12 3011.18 3010.11 3008.60 3007.75 3006.31 3005.61 3004.63 3003.93 3003.13 3002.43 3001.64 3000.80 2999.88 2998.91 2997.51 2996.37 2995.33 2993.99 2993.02 2992.25 2991.25 2990.46 2989.87 2988.95 2987.95 2986.88 2985.80 2984.87 2983.95 2983.12 2982.30 2981.47 2980.58 2979.41 2977.68 2976.62 2976.04 2975.75 2975.17 2973.45 2972.61 2971.76 2970.71 2970.53 2971.05 2971.71 2972.12 2973.16 2974.35 2975.33 2975.97 2976.55 2977.29 2978.15 2980.20 2981.15 2983.68 2993.26 3004.97 3011.87 3019.43 3023.07 3027.45 3032.22 3035.93 3038.36 3040.78 3041.51 3036.52 3030.71 2949.03 2923.20 2914.00 2900.89 2902.77 2913.10 2926.06 2926.25 2916.62 2897.62 2905.20 2916.80 2911.41 2866.12 2841.55 2827.21 2803.75 2797.30 2781.85 2765.17 2753.89 2736.21 2708.29 2698.89 2690.46 2684.00 2666.65 2660.66 2656.72 2656.28 2659.76 2657.10 2655.56 2656.25 2655.37 2649.04 2645.35 2647.92 2655.86 2644.99 2633.58 2623.07 2614.09 2606.56 2597.94 2589.91 2580.88 2566.38 2560.68 2556.83 2560.28 2569.61 2559.50 2550.24 2541.61 2532.68 2525.68 2520.57 2516.56 2514.45 2508.82 2501.98 2494.34 2481.14 2456.71 2450.75 2434.39 2422.29 2411.16 2404.82 2404.41 2411.55 2422.25 2422.01 2415.28 2410.44 2405.44 2399.14 2385.12 2381.08
3088.84 3093.88 3098.79 3103.39 3107.90 3113.37 3118.77 3124.48 3130.22 3136.25 3142.06 3148.12 3155.45 3162.16 3170.06 3178.83 3192.59 3208.73 3222.36 3234.01 3246.76 3256.10 3251.41 3246.80 3238.18 3229.32 3215.75 3203.01 3193.03 3182.91 3174.32 3170.50 3170.65 3177.68 3160.58 3147.86 3136.61 3129.36 3122.67 3113.81 3104.59 3096.67 3090.27 3084.77 3078.61 3073.02 3072.36 3065.07 3060.71 3061.58 3055.30 3049.00 3037.16 3017.77 3001.75 3029.37 3036.37 3030.11 3023.36 2992.06 2991.02 3025.72 3042.51 3040.86 3047.36 3053.94 3056.68 3045.08 3042.04 3045.17 3062.93 3060.63 3057.96 3057.46 3057.47 3073.98 3073.04 3071.94 3069.48 3068.28 3065.87 3065.46 3037.51 3029.81 3022.40 3021.48 3015.73 3011.38 3006.08 3003.81 3000.38 2997.20 2992.23 2989.14 3007.71 3018.69 3012.12 3006.81 3004.71 2999.92 2999.20 3007.04 3017.60 3016.70 3016.46 3016.97 3016.23 3016.26 3015.41 3013.95 3013.18 3012.42 3010.44 3009.62 3007.68 3006.92 3006.17 3006.01 3005.31 3004.87 3004.08 3003.30 3002.31 3001.39 3000.30 2999.32 2998.34 2997.37 2996.37 2995.48 2994.46 2993.43 2992.55 2991.61 2990.61 2989.60 2988.58 2987.61 2986.82 2986.03 2985.21 2984.40 2983.59 2982.67 2980.38 2979.58 2978.98 2978.43 2977.65 2976.19 2975.27 2974.57 2973.97 2974.01 2974.44 2974.96 2975.27 2976.58 2978.09 2979.46 2980.16 2980.87 2982.16 2983.07 2986.64 2988.03 2989.43 2995.69 3006.10 3012.81 3020.64 3028.10 3032.94 3037.55 3042.78 3044.68 3041.49 3036.61 3029.58 2956.89 2941.91 2915.87 2902.05 2890.78 2896.66 2899.50 2905.53 2902.60 2875.86 2879.84 2880.26 2897.43 2903.55 2829.87 2826.21 2795.06 2781.41 2775.49 2755.44 2743.32 2728.79 2718.49 2703.26 2696.10 2683.28 2669.54 2656.58 2651.94 2647.37 2646.08 2644.77 2645.19 2647.58 2644.14 2641.72 2638.84 2632.08 2636.44 2648.75 2638.81 2634.23 2622.78 2613.86 2604.88 2596.12 2588.20 2579.41 2566.62 2555.58 2547.67 2549.90 2554.81 2540.15 2533.34 2527.97 2517.56 2506.48 2506.14 2498.92 2502.91 2492.92 2488.02 2475.31 2468.89 2450.64 2439.95 2424.48 2414.00 2404.29 2397.76 2398.54 2403.82 2405.79 2400.14 2398.20 2395.83 2393.63 2388.18 2378.32 2369.98
3087.12 3092.28 3097.34 3102.24 3107.79 3114.06 3119.41 3124.29 3130.12 3136.00 3142.12 3148.59 3155.63 3162.99 3171.16 3182.23 3199.63 3210.69 3223.69 3235.21 3249.72 3247.50 3239.55 3237.07 3232.26 3224.96 3212.90 3200.92 3189.72 3180.74 3168.97 3161.11 3159.62 3159.60 3151.38 3144.13 3135.81 3124.28 3114.47 3104.06 3094.60 3087.76 3081.81 3075.13 3068.96 3060.85 3060.01 3055.77 3049.79 3046.84 3035.39 2995.01 2986.02 2974.23 2966.79 2962.39 2966.26 2974.02 2976.03 2970.43 2971.70 3023.62 3007.54 3020.59 3022.91 3030.90 3024.96 3006.45 3024.04 3019.10 3023.10 3019.85 3034.42 3027.97 3036.38 3071.24 3072.59 3073.13 3059.39 3051.72 3047.56 3041.75 3024.23 3015.81 3011.07 3009.46 3004.67 3000.98 2996.48 2992.73 2989.35 2985.60 2981.60 2978.76 2974.04 2984.03 2999.45 2994.55 2989.75 2991.96 2991.07 2999.90 3011.60 3021.28 3020.73 3018.70 3017.51 3017.55 3017.40 3017.21 3014.98 3014.22 3012.45 3011.63 3009.79 3009.03 3008.28 3008.31 3007.60 3007.35 3006.56 3005.78 3004.92 3004.00 3002.95 3001.97 3000.99 3000.12 2999.13 2998.16 2997.14 2996.11 2995.24 2994.32 2993.32 2992.41 2991.57 2990.76 2989.90 2989.00 2988.10 2987.20 2986.24 2985.32 2983.19 2982.38 2981.91 2981.10 2980.29 2978.57 2977.88 2977.66 2977.45 2977.50 2978.20 2978.75 2979.07 2980.34 2981.87 2983.38 2984.09 2984.79 2986.24 2987.15 2990.76 2992.15 2993.55 2998.37 3009.48 3016.37 3022.49 3029.53 3036.31 3041.97 3043.01 3040.21 3036.00 3031.22 3008.55 2955.39 2949.48 2907.68 2886.13 2884.15 2888.53 2886.24 2889.33 2874.67 2864.44 2858.20 2849.29 2840.59 2822.47 2814.51 2816.46 2808.06 2759.69 2747.85 2740.95 2722.74 2711.67 2702.28 2690.62 2684.27 2674.23 2663.23 2652.11 2644.14 2639.43 2636.34 2632.04 2634.17 2633.67 2630.79 2632.53 2628.46 2624.68 2626.13 2627.68 2629.53 2624.50 2621.81 2612.47 2603.04 2594.63 2585.71 2576.97 2566.56 2556.82 2543.23 2533.41 2528.77 2524.00 2520.71 2512.04 2501.26 2486.72 2476.34 2480.09 2476.20 2480.78 2472.26 2457.90 2456.13 2436.40 2432.00 2425.07 2409.15 2401.21 2392.23 2389.07 2390.85 2393.05 2389.98 2389.54 2387.03 2384.39 2376.08 2368.66 2356.64
3084.73 3090.01 3095.30 3100.98 3107.41 3112.79 3118.40 3124.79 3130.69 3136.19 3142.60 3149.25 3156.43 3164.31 3174.79 3189.03 3203.35 3216.36 3232.95 3240.78 3248.85 3241.08 3231.29 3226.68 3225.29 3212.88 3208.73 3201.42 3188.90 3178.06 3167.01 3155.45 3148.84 3152.48 3143.53 3132.58 3123.48 3114.10 3106.08 3097.30 3089.44 3079.91 3071.75 3064.22 3059.38 3049.65 3051.80 3044.19 3020.85 2997.14 2986.75 2975.97 2967.28 2960.50 2956.18 2949.23 2955.13 2962.16 2966.59 2955.13 2959.34 2973.36 2985.76 2994.01 3005.23 2999.17 2990.66 2995.34 3009.25 2998.38 2996.33 2998.99 3002.28 2986.08 2978.57 3059.81 3060.96 3060.99 3045.36 3040.08 3033.54 3026.66 3010.93 3005.00 2999.97 2997.79 2995.46 2990.61 2985.88 2982.81 2979.05 2973.56 2967.26 2964.66 2956.02 2952.90 2961.92 2972.78 2978.06 2979.86 2984.45 2994.47 3004.50 3015.17 3025.96 3023.78 3022.94 3016.86 3016.01 3018.11 3018.04 3017.02 3015.39 3014.77 3013.07 3012.00 3011.28 3011.05 3010.48 3010.54 3010.19 3009.39 3008.92 3008.14 3006.75 3005.65 3004.83 3004.32 3003.30 3001.71 3000.32 2999.17 2998.09 2997.08 2996.01 2995.20 2994.51 2993.87 2992.92 2991.93 2990.99 2990.06 2989.14 2988.22 2987.09 2986.72 2985.54 2983.97 2983.45 2980.88 2980.81 2981.55 2982.61 2982.95 2982.99 2983.41 2983.60 2984.48 2985.61 2986.92 2988.06 2989.26 2991.75 2992.78 2996.32 2998.67 2999.75 3002.48 3009.32 3020.23 3026.61 3033.73 3039.33 3040.60 3037.79 3034.09 3029.52 3012.61 2989.72 2973.63 2942.62 2895.33 2879.32 2873.41 2876.63 2874.48 2868.55 2863.42 2851.66 2830.66 2820.98 2814.36 2805.51 2803.10 2799.80 2785.30 2740.39 2736.39 2726.69 2725.18 2716.69 2706.63 2699.01 2691.54 2687.84 2676.05 2658.66 2645.04 2633.34 2627.03 2623.26 2618.51 2617.47 2621.47 2619.33 2616.87 2616.35 2609.13 2612.13 2614.71 2613.36 2613.35 2611.12 2603.31 2594.12 2585.53 2575.93 2567.33 2555.50 2538.94 2525.74 2511.67 2507.04 2505.40 2493.08 2486.05 2471.67 2460.54 2457.37 2457.61 2463.02 2452.12 2440.79 2432.66 2423.94 2425.07 2409.39 2403.21 2397.08 2390.22 2381.18 2381.78 2383.51 2380.84 2380.02 2379.03 2375.66 2364.65 2355.13 2340.37
3081.97 3087.16 3094.66 3101.53 3105.71 3111.30 3119.06 3122.93 3129.50 3136.00 3142.52 3149.77 3157.20 3166.33 3179.27 3193.47 3206.67 3219.16 3233.85 3248.01 3239.42 3230.61 3223.94 3215.03 3214.86 3203.88 3197.52 3196.07 3185.08 3174.29 3162.01 3148.67 3137.65 3132.77 3127.57 3124.68 3114.78 3106.96 3098.36 3089.52 3081.38 3072.48 3062.57 3053.66 3047.51 3035.24 3018.60 3003.46 2992.42 2980.56 2969.00 2962.18 2956.44 2952.03 2944.22 2939.76 2940.37 2939.00 2944.18 2942.32 2947.38 2948.93 2958.68 2957.43 2955.85 2970.09 2982.78 2996.16 2988.46 2983.05 2980.06 2980.60 2978.13 2967.42 2961.20 3009.39 3043.02 3034.36 3031.09 3025.32 3019.46 3006.76 2999.96 2995.05 2991.18 2986.69 2985.68 2980.25 2976.17 2972.58 2968.37 2959.79 2955.77 2948.84 2945.78 2948.56 2956.16 2964.09 2965.67 2973.59 2979.48 2982.34 2985.46 3006.09 3022.81 3020.39 3016.05 3022.73 3019.51 3020.73 3020.02 3019.55 3017.63 3017.01 3015.88 3014.97 3014.22 3013.66 3013.08 3013.57 3012.94 3012.31 3011.82 3011.04 3010.16 3009.24 3008.30 3007.30 3006.27 3004.87 3003.43 3002.26 3000.91 2999.72 2998.65 2997.88 2997.18 2996.43 2995.47 2994.66 2993.82 2992.93 2992.02 2991.11 2990.21 2989.60 2988.98 2987.01 2986.50 2984.39 2984.32 2985.50 2986.71 2987.05 2987.36 2987.82 2988.29 2989.06 2989.71 2990.87 2992.30 2993.36 2996.04 2997.07 3001.51 3002.91 3004.31 3007.65 3013.92 3021.95 3030.57 3036.98 3037.10 3034.89 3031.81 3028.03 3022.99 3011.25 2995.55 2979.61 2918.44 2897.74 2875.33 2863.86 2868.77 2867.22 2858.85 2838.64 2819.98 2811.83 2807.03 2801.23 2794.19 2790.53 2771.60 2743.08 2733.14 2725.72 2722.88 2725.11 2714.30 2699.68 2694.56 2683.97 2678.83 2657.73 2652.24 2645.08 2634.14 2622.71 2614.46 2609.39 2606.47 2607.28 2605.38 2606.03 2602.48 2595.36 2596.03 2601.55 2603.05 2601.50 2599.74 2599.60 2591.97 2584.31 2576.43 2565.94 2550.15 2535.32 2516.20 2498.33 2490.67 2490.04 2483.56 2471.12 2462.33 2452.12 2445.70 2449.53 2443.91 2435.15 2424.64 2416.18 2411.42 2409.10 2402.87 2396.38 2390.19 2383.80 2375.63 2371.91 2373.44 2369.76 2369.55 2369.21 2368.23 2356.30 2340.35 2330.90
3081.15 3088.92 3094.50 3099.94 3105.10 3110.00 3116.23 3122.77 3129.28 3135.98 3143.01 3150.24 3159.53 3171.10 3183.45 3197.80 3212.25 3223.13 3232.97 3241.37 3231.05 3221.63 3213.97 3205.03 3201.35 3199.46 3187.91 3182.07 3176.64 3173.64 3159.65 3147.87 3134.06 3122.18 3116.42 3111.16 3105.63 3099.84 3091.40 3082.31 3072.56 3061.96 3052.97 3044.22 3026.09 3012.62 3002.52 2983.87 2974.27 2967.33 2959.98 2954.84 2949.27 2940.55 2935.94 2931.60 2929.08 2927.21 2929.11 2934.00 2936.14 2936.18 2933.84 2934.66 2942.48 2951.54 2955.33 2976.33 2976.31 2972.09 2967.62 2962.39 2959.51 2952.28 2951.41 2978.45 3025.79 3023.37 3019.44 3012.90 3004.92 2996.59 2989.05 2985.51 2981.46 2976.81 2975.18 2969.77 2965.05 2960.68 2956.26 2948.03 2942.16 2937.88 2937.64 2943.19 2950.17 2955.68 2960.38 2969.03 2968.61 2962.45 2970.98 2998.84 3007.44 3003.34 3005.13 3010.73 3023.32 3022.70 3022.00 3021.52 3019.87 3019.26 3018.54 3017.96 3017.20 3016.26 3015.69 3016.20 3015.69 3015.35 3014.72 3013.94 3013.58 3012.85 3011.82 3010.28 3009.25 3008.08 3006.46 3005.29 3003.79 3002.60 3001.52 3000.62 2999.81 2998.99 2998.03 2997.43 2996.65 2995.79 2994.88 2993.98 2993.14 2992.47 2992.04 2991.01 2990.64 2990.37 2990.40 2990.63 2990.81 2991.15 2992.80 2992.24 2994.61 2994.96 2997.62 3002.59 3002.67 3000.75 3002.51 3003.66 3006.30 3007.15 3009.30 3013.14 3022.50 3029.20 3035.48 3034.35 3031.73 3028.34 3025.04 3021.08 3017.38 3008.92 3005.67 2972.74 2913.76 2890.55 2869.23 2853.78 2857.32 2855.73 2846.36 2827.99 2809.07 2801.70 2796.93 2791.21 2778.18 2766.62 2746.05 2735.34 2727.37 2721.66 2712.81 2710.92 2709.22 2691.08 2683.58 2676.72 2668.13 2660.32 2643.89 2637.24 2631.30 2622.90 2612.35 2603.27 2598.06 2594.30 2594.88 2592.12 2590.97 2587.39 2587.48 2592.49 2590.80 2591.19 2589.55 2590.08 2582.44 2580.74 2573.15 2558.62 2542.75 2531.02 2511.43 2492.18 2472.36 2471.88 2467.07 2461.93 2451.83 2445.36 2433.53 2431.69 2432.14 2419.77 2413.57 2405.79 2402.52 2400.82 2396.49 2389.87 2383.40 2374.90 2366.54 2359.91 2359.41 2358.24 2358.48 2358.10 2355.97 2345.35 2330.60 2321.13
3079.55 3087.22 3092.11 3096.50 3102.68 3108.89 3115.39 3122.38 3129.81 3136.80 3144.25 3152.26 3164.77 3178.62 3193.97 3201.02 3212.83 3223.39 3235.33 3230.34 3224.87 3215.59 3205.51 3196.89 3188.75 3188.56 3180.06 3171.90 3164.70 3162.21 3157.51 3145.94 3132.08 3118.52 3105.15 3093.62 3090.66 3088.11 3083.03 3072.77 3066.42 3056.01 3039.62 3024.72 3011.99 2997.36 2981.91 2976.02 2967.95 2961.27 2953.44 2948.39 2940.91 2934.48 2928.85 2924.50 2921.65 2920.45 2921.08 2927.43 2927.08 2926.29 2926.32 2926.41 2928.88 2934.88 2953.51 2965.31 2966.42 2961.27 2957.43 2954.53 2950.54 2944.70 2940.38 2962.98 3010.66 3013.28 3007.67 3001.06 2994.30 2987.88 2981.58 2976.26 2971.52 2968.27 2966.19 2959.74 2953.35 2949.17 2943.90 2934.86 2930.57 2929.26 2932.10 2936.90 2942.72 2943.53 2948.16 2951.71 2954.91 2946.35 2964.24 2985.12 2995.61 2991.02 2991.24 3003.65 3027.47 3025.95 3024.96 3024.73 3023.76 3023.36 3021.68 3021.24 3020.80 3020.68 3020.22 3020.17 3019.67 3019.16 3018.84 3018.17 3017.54 3016.65 3015.76 3014.08 3013.02 3012.07 3010.83 3009.60 3006.98 3005.68 3004.45 3003.37 3002.42 3001.54 3000.77 3000.31 2999.47 2998.62 2997.72 2996.88 2996.16 2995.80 2995.43 2994.88 2994.90 2996.49 2997.01 2997.53 3000.80 3001.50 3003.24 3003.79 3004.34 3002.60 3002.80 3007.32 3010.42 3007.70 3007.62 3009.56 3012.25 3013.56 3014.88 3019.59 3029.69 3033.19 3032.05 3028.98 3025.98 3012.14 3006.64 3014.43 3009.90 2994.79 2971.52 2925.09 2907.66 2892.48 2869.32 2848.92 2845.91 2843.54 2831.52 2817.50 2799.16 2792.73 2783.37 2770.83 2759.89 2748.45 2737.04 2726.42 2719.46 2714.61 2707.53 2700.48 2692.06 2688.25 2679.54 2668.90 2661.43 2647.32 2633.83 2627.52 2623.91 2616.64 2607.98 2597.20 2588.89 2584.26 2583.97 2582.93 2580.22 2578.44 2577.56 2582.53 2580.60 2577.54 2575.11 2569.88 2575.48 2573.11 2570.36 2558.00 2535.45 2521.79 2505.49 2486.09 2468.32 2452.75 2449.97 2450.09 2439.51 2429.81 2428.52 2418.14 2411.85 2410.06 2406.14 2401.87 2392.84 2390.59 2387.03 2382.00 2373.89 2363.69 2356.87 2351.27 2347.76 2346.46 2347.20 2344.17 2341.50 2334.50 2317.88 2307.34
3077.82 3083.64 3089.52 3095.49 3101.77 3108.65 3115.93 3124.12 3131.03 3139.02 3146.71 3158.88 3167.71 3178.45 3187.61 3196.82 3206.98 3218.90 3229.26 3219.89 3215.31 3205.23 3197.64 3188.35 3177.97 3174.76 3173.19 3163.76 3152.48 3147.36 3143.16 3138.86 3129.14 3114.74 3102.07 3080.73 3075.89 3072.99 3076.42 3063.40 3052.62 3031.04 3018.59 3003.94 2986.88 2979.07 2973.00 2966.13 2959.08 2952.69 2946.30 2939.82 2934.25 2928.58 2923.85 2919.15 2915.95 2913.76 2913.58 2917.30 2917.71 2918.80 2918.18 2918.93 2920.84 2922.20 2926.09 2938.92 2946.87 2954.75 2949.00 2945.10 2941.46 2935.05 2931.11 2937.93 2952.63 2998.45 2997.80 2993.36 2983.92 2978.60 2973.79 2968.65 2963.79 2959.26 2953.25 2948.49 2941.82 2937.76 2932.68 2926.24 2922.24 2921.59 2925.01 2930.49 2934.20 2937.33 2940.51 2942.48 2939.66 2935.07 2952.11 2974.66 2983.28 2979.87 2981.71 3002.85 3029.44 3028.77 3027.43 3027.20 3026.26 3025.85 3024.31 3023.87 3023.44 3023.62 3023.16 3023.20 3022.69 3022.19 3022.03 3021.37 3020.76 3019.87 3018.98 3017.39 3016.33 3015.35 3014.12 3012.89 3010.11 3008.81 3007.40 3006.12 3005.04 3004.02 3003.22 3002.90 3002.06 3001.21 3000.46 2999.76 2999.07 2998.70 2998.34 2998.09 2998.11 3000.10 3000.62 3001.14 3004.95 3005.65 3007.79 3008.35 3008.90 3007.92 3008.55 3011.76 3015.66 3017.16 3017.28 3014.95 3016.13 3017.72 3020.82 3029.02 3030.01 3028.58 3026.40 3023.25 3019.59 2998.62 2997.02 3004.10 2998.25 2964.22 2953.20 2922.44 2909.63 2896.78 2856.23 2840.34 2827.49 2826.67 2816.02 2803.43 2789.27 2782.62 2777.90 2770.45 2758.37 2743.91 2734.51 2725.35 2715.63 2705.54 2701.95 2694.63 2681.58 2678.67 2676.64 2660.69 2650.17 2643.96 2631.32 2619.50 2612.83 2613.62 2605.30 2589.35 2580.83 2577.84 2577.16 2574.31 2570.37 2570.36 2567.99 2571.99 2573.01 2569.60 2562.66 2562.62 2559.98 2560.43 2562.57 2550.69 2533.18 2513.85 2498.32 2479.57 2460.19 2443.15 2434.98 2429.22 2422.30 2412.32 2416.62 2404.06 2402.19 2401.52 2397.88 2394.09 2387.06 2377.37 2376.93 2372.15 2365.96 2355.01 2346.67 2339.54 2335.22 2332.62 2332.95 2330.12 2327.99 2317.32 2305.28 2290.92
3078.06 3083.93 3090.24 3097.19 3103.91 3113.93 3119.42 3125.95 3133.63 3141.18 3151.21 3161.27 3176.56 3179.61 3190.72 3201.14 3213.06 3223.09 3218.20 3211.56 3203.09 3197.12 3189.53 3182.56 3170.81 3162.97 3161.27 3155.89 3145.57 3135.36 3128.07 3121.63 3103.11 3085.75 3075.21 3064.08 3059.60 3060.94 3061.80 3045.97 3035.36 3003.81 2989.00 2984.46 2971.98 2967.42 2962.61 2957.65 2952.93 2946.44 2940.25 2934.70 2929.31 2924.32 2919.78 2914.94 2910.83 2908.10 2906.88 2907.06 2907.39 2911.19 2912.39 2914.66 2913.52 2914.85 2916.09 2915.94 2915.35 2920.39 2931.79 2931.06 2928.32 2922.63 2916.64 2917.06 2941.08 2978.11 2989.79 2984.83 2974.79 2968.30 2964.19 2959.73 2955.18 2949.77 2942.52 2937.77 2931.98 2927.58 2923.19 2917.26 2914.29 2915.57 2918.51 2925.19 2928.21 2929.00 2933.09 2931.70 2929.05 2927.40 2935.03 2961.51 2970.79 2970.23 2976.58 2997.18 3016.32 3033.74 3031.38 3030.54 3029.20 3028.82 3028.14 3027.54 3027.24 3027.36 3026.95 3027.06 3026.95 3026.24 3025.91 3025.47 3024.59 3023.77 3022.97 3021.78 3020.67 3019.04 3017.48 3016.14 3013.82 3012.30 3010.54 3009.04 3007.86 3006.57 3005.40 3004.96 3004.10 3003.53 3003.16 3002.82 3002.32 3001.90 3001.62 3001.57 3001.91 3003.06 3003.29 3004.61 3008.85 3011.88 3014.75 3016.22 3016.64 3016.33 3017.04 3018.79 3024.88 3027.39 3023.27 3021.51 3021.96 3021.46 3025.37 3025.42 3024.92 3022.56 3019.03 3016.01 3009.59 2990.00 2990.59 2998.07 2982.21 2959.63 2941.49 2919.15 2902.15 2874.14 2854.94 2833.95 2819.32 2803.55 2792.88 2784.92 2782.35 2776.83 2771.71 2767.79 2762.57 2758.98 2732.98 2718.78 2708.60 2698.39 2696.38 2690.02 2679.46 2667.25 2663.40 2652.29 2646.62 2631.15 2615.91 2611.91 2604.96 2603.94 2598.48 2584.08 2576.38 2570.25 2570.15 2568.45 2562.14 2557.84 2559.09 2561.47 2559.79 2556.33 2553.69 2551.36 2549.52 2547.06 2549.56 2540.58 2525.68 2506.25 2490.41 2469.60 2443.46 2431.59 2416.80 2409.42 2400.93 2397.37 2393.56 2394.16 2395.20 2392.77 2388.71 2382.83 2378.29 2369.72 2364.22 2362.09 2356.64 2345.01 2338.02 2330.83 2319.39 2317.17 2316.05 2317.26 2311.46 2307.80 2292.77 2272.83
3079.75 3086.70 3092.70 3098.92 3105.81 3112.85 3119.78 3126.74 3136.77 3145.12 3159.61 3170.87 3177.40 3187.87 3197.27 3209.70 3220.36 3229.18 3220.66 3209.02 3189.78 3182.50 3178.50 3170.33 3165.43 3156.95 3148.65 3148.47 3140.09 3131.64 3120.15 3110.02 3110.99 3101.52 3088.40 3073.32 3046.86 3047.13 3042.70 3036.31 3015.53 2995.23 2976.74 2971.50 2966.43 2961.52 2956.87 2952.66 2947.90 2940.84 2935.06 2930.00 2925.17 2920.48 2915.37 2911.27 2906.99 2903.43 2901.01 2900.33 2900.88 2904.01 2906.29 2908.25 2908.31 2908.94 2908.64 2908.59 2909.82 2908.80 2913.09 2914.71 2913.07 2909.15 2905.08 2904.30 2919.59 2983.28 2980.33 2971.96 2965.77 2960.69 2955.30 2950.21 2945.83 2940.65 2934.07 2927.72 2922.79 2918.48 2915.23 2909.97 2906.71 2911.27 2913.99 2918.86 2922.00 2920.97 2925.71 2923.93 2920.67 2919.86 2919.99 2947.99 2961.61 2961.77 2972.94 2982.30 3017.08 3021.82 3038.31 3035.37 3033.77 3032.87 3032.76 3031.66 3031.09 3030.53 3030.11 3030.71 3030.42 3030.13 3029.93 3029.49 3028.66 3028.10 3027.41 3025.91 3024.80 3022.98 3021.65 3020.33 3017.86 3016.34 3014.20 3012.69 3011.18 3009.73 3008.56 3007.88 3007.04 3006.20 3006.03 3006.00 3005.60 3005.18 3005.01 3005.10 3005.44 3006.79 3006.12 3009.56 3013.68 3018.01 3021.73 3023.91 3026.04 3026.60 3026.24 3025.39 3026.84 3024.84 3023.74 3022.38 3021.83 3021.27 3020.07 3019.11 3017.83 3014.79 3011.85 3008.51 2993.39 2976.59 2984.44 2990.94 2976.77 2970.19 2962.24 2957.76 2899.05 2880.21 2854.21 2824.26 2805.80 2788.05 2780.69 2774.77 2774.40 2770.71 2766.96 2761.84 2758.23 2748.43 2729.90 2719.21 2701.91 2691.81 2688.21 2678.57 2668.55 2656.10 2652.34 2642.47 2630.04 2620.66 2610.34 2602.00 2590.54 2590.55 2589.98 2581.12 2571.67 2562.97 2560.44 2556.40 2552.23 2545.20 2543.12 2552.02 2546.37 2550.56 2546.20 2541.98 2541.28 2535.07 2528.02 2526.37 2517.18 2499.49 2477.42 2452.61 2434.50 2419.94 2409.01 2399.21 2394.68 2389.57 2385.15 2386.93 2387.12 2384.26 2377.78 2368.74 2363.59 2360.73 2352.83 2350.49 2342.48 2337.27 2329.29 2318.65 2305.51 2301.74 2299.98 2299.57 2298.10 2287.51 2271.97 2258.60
3079.03 3086.32 3093.02 3099.65 3105.83 3112.90 3121.06 3131.67 3138.71 3147.39 3158.85 3171.69 3185.38 3193.49 3202.03 3217.74 3228.23 3226.24 3214.97 3204.47 3191.83 3180.94 3167.73 3159.46 3154.22 3148.88 3140.36 3138.16 3133.29 3124.44 3114.02 3105.16 3094.54 3093.31 3088.41 3084.29 3061.26 3032.62 3026.83 3023.30 3001.95 2985.52 2973.62 2967.79 2962.41 2956.99 2951.90 2947.89 2944.50 2937.47 2931.02 2927.32 2921.05 2918.57 2915.98 2907.05 2902.89 2899.30 2896.43 2894.91 2895.60 2899.45 2900.09 2901.99 2903.75 2902.42 2901.05 2900.75 2898.39 2896.58 2900.50 2900.64 2900.35 2897.21 2896.38 2897.01 2903.33 2975.47 2970.85 2963.85 2958.14 2952.19 2946.77 2941.38 2936.08 2930.10 2922.57 2916.97 2912.05 2909.91 2905.96 2900.87 2900.11 2904.24 2909.19 2915.86 2916.29 2914.00 2918.88 2916.24 2913.18 2913.00 2913.50 2931.32 2948.02 2952.58 2963.64 2982.41 2996.87 3008.82 3029.99 3042.28 3040.87 3038.63 3038.36 3036.11 3035.51 3034.83 3034.22 3034.65 3034.58 3035.04 3035.52 3035.22 3033.49 3034.93 3033.58 3030.28 3029.24 3027.35 3025.84 3024.82 3021.90 3020.38 3018.80 3016.34 3014.06 3012.90 3011.72 3010.91 3009.98 3009.36 3009.01 3008.96 3008.56 3008.41 3008.42 3008.32 3008.94 3012.19 3014.31 3018.05 3020.89 3023.11 3022.72 3022.52 3022.14 3021.41 3020.50 3019.37 3018.32 3017.32 3016.48 3015.60 3015.33 3014.61 3013.33 3012.01 3010.11 3007.58 3003.81 2995.20 2963.16 2969.11 2979.29 2985.09 2978.31 2972.37 2964.32 2932.73 2884.01 2864.12 2836.72 2803.70 2790.44 2776.37 2770.08 2767.19 2765.67 2764.11 2760.74 2756.47 2751.11 2747.50 2731.30 2712.14 2699.25 2688.16 2675.34 2665.80 2655.32 2652.19 2643.35 2630.37 2622.04 2615.81 2609.38 2597.32 2582.88 2576.95 2571.36 2576.49 2569.61 2556.44 2548.08 2547.84 2545.40 2530.55 2532.47 2530.92 2541.30 2543.99 2538.16 2533.11 2528.44 2521.50 2513.70 2514.90 2506.15 2490.96 2453.16 2438.62 2424.57 2411.35 2403.93 2397.81 2392.52 2387.09 2381.43 2378.52 2378.72 2373.76 2366.47 2354.26 2351.03 2348.42 2340.50 2332.21 2325.22 2311.08 2306.65 2306.48 2294.69 2287.89 2284.97 2285.19 2275.77 2264.70 2257.24 2251.08
3079.30 3086.27 3093.44 3100.59 3107.33 3114.86 3124.78 3133.90 3143.64 3151.67 3163.77 3176.82 3191.13 3205.31 3214.06 3224.66 3228.77 3217.57 3207.46 3198.15 3187.24 3175.97 3163.21 3150.57 3142.31 3141.86 3134.81 3124.19 3123.11 3116.26 3108.55 3097.87 3086.52 3081.16 3078.92 3071.02 3061.84 3042.31 3014.59 3009.50 2988.35 2980.14 2972.62 2965.66 2959.55 2954.14 2948.66 2945.16 2937.81 2932.76 2927.94 2922.23 2918.51 2915.71 2911.14 2903.98 2898.95 2895.41 2892.26 2890.65 2890.18 2890.61 2893.38 2898.67 2897.84 2895.44 2893.15 2890.67 2889.10 2887.43 2889.45 2893.09 2891.55 2889.70 2888.48 2887.57 2891.63 2963.50 2959.98 2956.38 2949.51 2945.34 2940.80 2933.36 2926.25 2918.38 2911.70 2907.05 2903.28 2901.48 2898.08 2893.48 2894.07 2898.38 2902.39 2908.20 2910.99 2907.28 2910.36 2907.73 2906.40 2906.53 2907.88 2923.27 2935.06 2941.14 2951.91 2977.97 2991.70 3008.60 3024.14 3032.11 3043.31 3046.79 3044.39 3043.09 3043.32 3042.63 3042.46 3043.22 3043.94 3045.17 3044.89 3044.69 3044.36 3044.57 3044.25 3043.13 3041.70 3040.99 3040.71 3034.65 3027.74 3024.29 3025.06 3019.98 3017.31 3017.89 3016.44 3014.86 3013.65 3012.89 3012.06 3011.56 3011.42 3012.17 3014.56 3014.05 3014.25 3016.83 3016.70 3015.82 3015.60 3015.43 3014.68 3014.26 3013.69 3013.32 3012.42 3011.44 3009.85 3009.43 3008.84 3008.24 3007.27 3006.71 3005.10 3003.16 3001.24 2998.91 2992.14 2966.56 2951.24 2959.76 2954.74 2968.42 2969.94 2960.41 2947.86 2901.51 2873.94 2856.59 2820.74 2797.32 2784.91 2773.27 2763.55 2761.07 2757.76 2755.13 2753.03 2749.93 2743.65 2735.79 2728.55 2711.45 2701.07 2690.41 2673.81 2659.63 2648.70 2643.46 2633.82 2624.14 2614.19 2609.15 2597.04 2584.54 2578.52 2564.35 2560.92 2566.02 2563.80 2555.89 2536.73 2535.42 2527.24 2522.52 2519.20 2528.32 2531.47 2535.71 2523.39 2522.05 2519.33 2506.81 2497.50 2499.38 2495.71 2466.01 2448.04 2437.67 2420.26 2413.20 2405.55 2397.58 2389.34 2382.73 2376.17 2369.44 2367.60 2362.66 2352.33 2343.00 2338.11 2334.31 2330.65 2314.06 2304.22 2297.66 2291.86 2283.79 2278.13 2269.73 2271.63 2268.46 2257.34 2249.63 2245.96 2242.13
3078.80 3085.88 3092.40 3100.19 3108.01 3118.87 3127.25 3136.59 3149.19 3158.90 3169.82 3183.21 3193.95 3207.27 3222.42 3230.07 3223.49 3213.30 3200.08 3190.07 3180.47 3170.29 3158.18 3144.95 3131.52 3130.75 3124.29 3118.23 3112.00 3108.54 3100.55 3090.63 3079.16 3070.39 3065.27 3058.14 3045.80 3038.49 3026.36 3006.91 2984.62 2977.45 2970.22 2963.30 2956.74 2951.03 2946.67 2939.68 2934.83 2930.90 2925.61 2918.98 2914.61 2911.65 2907.07 2902.34 2895.76 2892.21 2889.15 2887.22 2886.48 2886.71 2888.06 2892.26 2891.42 2889.02 2886.44 2884.58 2883.26 2881.99 2880.74 2881.42 2883.40 2882.07 2880.57 2876.87 2881.06 2945.69 2948.05 2944.51 2943.10 2937.56 2931.00 2916.79 2912.32 2908.42 2902.66 2899.01 2898.25 2894.00 2890.24 2886.92 2887.75 2892.79 2895.63 2902.41 2904.01 2900.34 2903.15 2902.09 2900.91 2901.87 2902.46 2907.17 2922.15 2930.22 2933.08 2967.75 2987.79 3006.00 3016.74 3028.97 3037.77 3044.41 3053.46 3053.41 3051.69 3051.44 3051.09 3050.93 3050.55 3050.06 3048.94 3048.17 3048.81 3050.35 3051.48 3052.27 3053.64 3052.37 3051.28 3048.76 3045.93 3042.68 3039.83 3022.01 3021.87 3021.36 3020.22 3018.95 3018.00 3016.76 3016.11 3016.18 3017.39 3019.91 3020.51 3015.57 3011.30 3010.43 3007.56 3006.99 3006.98 3006.36 3006.04 3005.41 3005.09 3004.98 3003.96 3002.78 3001.81 3001.64 3001.09 2999.89 2998.95 2998.17 2996.79 2993.60 2992.70 2990.46 2977.72 2958.35 2945.78 2938.02 2937.44 2947.81 2954.34 2947.97 2921.75 2882.81 2861.72 2832.07 2806.73 2790.95 2777.56 2766.79 2758.92 2754.97 2750.20 2745.33 2742.68 2738.98 2729.89 2724.33 2717.52 2715.49 2712.48 2692.21 2672.14 2658.53 2647.30 2634.03 2624.53 2612.88 2605.78 2589.55 2582.17 2575.55 2566.24 2557.32 2551.33 2554.83 2553.69 2545.31 2535.64 2525.78 2515.88 2510.79 2512.08 2520.02 2519.89 2517.80 2512.55 2509.33 2502.76 2488.58 2486.55 2487.90 2483.16 2463.87 2441.32 2429.21 2423.72 2416.24 2406.37 2397.21 2389.36 2381.89 2371.70 2360.60 2353.50 2347.15 2336.86 2331.75 2326.96 2323.73 2309.45 2299.96 2288.09 2279.03 2274.29 2269.33 2262.32 2256.67 2254.43 2251.18 2243.65 2236.16 2231.02 2223.33
3078.85 3086.18 3093.53 3102.63 3112.06 3122.80 3135.77 3144.46 3156.43 3166.66 3178.36 3189.16 3205.06 3219.27 3230.41 3229.36 3219.15 3207.07 3195.44 3184.53 3172.92 3162.57 3151.69 3138.86 3127.05 3119.66 3116.82 3107.50 3102.20 3098.45 3091.01 3077.57 3066.39 3051.84 3046.80 3038.86 3033.75 3028.02 3018.02 2992.53 2977.69 2972.89 2966.15 2959.74 2953.57 2947.51 2943.34 2937.71 2931.89 2929.17 2924.08 2917.83 2912.11 2906.78 2902.86 2896.59 2893.06 2889.23 2886.15 2884.37 2883.60 2883.06 2883.58 2887.32 2884.94 2883.04 2880.14 2878.20 2878.04 2874.93 2874.68 2874.08 2874.31 2875.42 2871.18 2867.66 2871.72 2875.32 2932.97 2922.22 2917.84 2914.86 2910.04 2903.13 2904.02 2900.64 2898.46 2894.65 2892.78 2886.41 2881.90 2881.02 2881.88 2887.73 2891.62 2896.34 2898.16 2894.36 2897.20 2895.24 2894.09 2895.21 2897.13 2900.64 2912.75 2921.76 2925.41 2951.41 2987.10 3001.20 3012.73 3020.99 3028.21 3036.39 3043.83 3049.31 3054.12 3057.83 3056.53 3054.94 3053.01 3049.60 3048.45 3047.75 3048.13 3053.31 3054.00 3054.70 3053.26 3051.77 3050.00 3045.77 3042.49 3039.49 3036.86 3034.08 3029.37 3025.86 3025.51 3026.15 3025.87 3023.30 3020.98 3017.18 3014.99 3010.17 3009.01 3005.51 3001.87 3000.06 2997.91 2998.28 2997.50 2997.42 2997.05 2996.70 2996.23 2995.94 2994.11 2993.71 2992.85 2992.99 2992.32 2990.81 2989.42 2989.61 2987.64 2985.86 2984.37 2981.68 2979.39 2967.54 2949.05 2934.70 2918.13 2925.69 2927.52 2928.60 2900.25 2871.73 2850.17 2816.96 2796.89 2782.58 2772.11 2762.46 2754.75 2747.62 2743.17 2736.09 2731.85 2727.90 2721.67 2716.18 2713.06 2709.62 2706.72 2697.74 2670.79 2656.00 2641.18 2631.14 2616.50 2611.80 2596.29 2587.41 2578.95 2569.87 2559.42 2551.59 2544.58 2543.14 2549.61 2537.90 2527.38 2514.43 2505.00 2500.17 2502.91 2509.58 2504.22 2503.72 2500.15 2487.25 2478.72 2475.65 2476.58 2471.50 2465.20 2461.44 2444.24 2435.97 2441.75 2429.13 2413.27 2401.39 2392.65 2384.02 2372.01 2358.29 2340.60 2330.22 2325.26 2320.11 2308.94 2296.74 2287.15 2278.58 2270.52 2265.04 2260.49 2254.79 2248.77 2245.34 2239.78 2233.46 2227.88 2223.99 2215.59 2208.93
3080.28 3087.33 3097.85 3106.16 3116.57 3129.08 3139.69 3151.73 3161.74 3174.62 3183.98 3194.96 3209.44 3222.24 3236.66 3224.80 3212.81 3201.44 3190.33 3179.26 3167.93 3156.72 3146.72 3135.23 3122.33 3113.07 3106.61 3101.58 3093.23 3088.01 3077.60 3057.45 3047.46 3040.33 3033.81 3030.69 3026.06 3016.21 3003.64 2987.72 2973.74 2966.36 2961.25 2955.38 2949.65 2944.60 2940.82 2933.61 2926.89 2923.68 2919.03 2914.58 2908.76 2904.05 2897.55 2893.49 2889.78 2886.43 2883.55 2881.80 2880.67 2879.53 2881.12 2881.91 2878.12 2876.01 2872.76 2868.79 2865.34 2863.84 2864.36 2869.33 2868.49 2865.48 2862.62 2860.73 2865.72 2867.35 2872.83 2896.04 2901.95 2897.74 2894.45 2890.06 2891.30 2891.77 2889.18 2888.15 2884.52 2879.37 2875.70 2875.09 2876.24 2883.33 2888.76 2891.20 2890.88 2887.92 2889.19 2888.10 2887.51 2888.15 2891.29 2893.49 2899.85 2908.85 2916.60 2941.75 2976.55 2995.15 3004.16 3011.28 3017.02 3028.83 3035.71 3039.74 3040.25 3053.05 3053.92 3051.56 3047.69 3043.13 3041.28 3040.71 3039.84 3048.53 3046.13 3049.40 3048.62 3046.58 3041.31 3037.51 3032.19 3029.91 3028.03 3028.91 3025.40 3022.74 3020.02 3019.24 3016.85 3012.51 3009.43 3005.98 3002.83 3000.54 2998.25 2994.78 2991.65 2989.96 2988.31 2988.56 2988.36 2988.34 2988.03 2987.70 2986.76 2986.55 2985.77 2985.26 2984.79 2984.10 2983.08 2982.16 2980.84 2980.58 2978.84 2977.23 2976.04 2973.66 2970.49 2967.47 2961.68 2933.76 2915.31 2902.24 2909.80 2908.84 2872.90 2851.25 2823.43 2802.40 2787.79 2777.67 2766.48 2759.09 2752.07 2742.53 2734.06 2727.73 2723.21 2718.52 2710.75 2707.14 2706.56 2702.18 2703.43 2681.58 2668.16 2644.48 2625.60 2613.07 2604.42 2601.79 2596.89 2588.31 2579.91 2567.85 2560.40 2547.16 2538.61 2534.09 2535.41 2532.94 2518.56 2502.75 2489.50 2494.60 2495.65 2493.61 2494.63 2494.52 2474.09 2472.13 2463.68 2462.33 2460.52 2458.89 2455.55 2453.22 2451.50 2447.73 2438.96 2423.74 2412.81 2404.52 2397.67 2388.97 2374.64 2359.73 2340.08 2325.36 2309.66 2293.43 2285.65 2277.88 2266.68 2264.38 2258.81 2252.39 2248.40 2242.89 2239.27 2231.32 2223.27 2220.86 2218.36 2211.10 2203.70 2195.70
3083.99 3093.08 3101.57 3111.65 3120.46 3131.57 3141.82 3152.80 3164.01 3175.38 3186.86 3196.28 3208.02 3222.67 3231.28 3221.19 3208.30 3196.95 3182.90 3171.34 3161.10 3150.31 3141.37 3130.56 3119.24 3107.29 3096.77 3095.13 3085.67 3080.07 3066.74 3047.32 3035.83 3031.46 3026.85 3022.17 3012.58 3003.08 2987.35 2974.20 2968.43 2963.40 2955.76 2951.96 2947.40 2938.08 2933.51 2928.37 2924.10 2920.31 2915.01 2910.20 2904.82 2898.93 2895.29 2891.60 2887.38 2883.98 2881.42 2879.36 2877.85 2876.32 2877.27 2876.56 2872.77 2871.71 2867.53 2862.25 2859.16 2857.58 2856.32 2861.74 2861.50 2858.39 2854.24 2853.82 2857.35 2861.16 2863.36 2874.95 2882.16 2882.74 2882.51 2883.45 2882.05 2882.08 2880.67 2880.62 2876.50 2870.72 2869.43 2869.24 2870.40 2878.12 2882.53 2884.66 2882.36 2882.07 2881.76 2881.96 2881.15 2882.84 2884.29 2887.55 2892.51 2900.75 2907.07 2930.59 2972.10 2988.91 2996.31 3001.28 3008.90 3021.01 3027.74 3029.16 3034.03 3042.77 3048.06 3043.11 3039.94 3036.46 3034.05 3032.48 3031.09 3037.02 3037.31 3040.15 3039.33 3035.91 3030.42 3027.40 3024.53 3021.73 3019.40 3018.74 3016.56 3014.56 3010.73 3008.67 3004.55 3001.42 2999.51 2997.53 2993.73 2989.74 2988.38 2985.31 2982.85 2979.97 2980.01 2979.29 2979.33 2978.74 2978.46 2978.51 2977.74 2977.14 2976.61 2976.01 2975.10 2974.70 2973.94 2973.07 2972.15 2972.23 2970.56 2968.75 2967.42 2964.93 2962.17 2958.56 2955.34 2939.86 2909.28 2889.01 2897.69 2883.33 2856.23 2829.65 2806.58 2794.38 2784.80 2769.19 2759.75 2752.78 2745.64 2736.93 2727.40 2721.32 2715.82 2710.42 2704.11 2698.95 2698.88 2698.15 2685.06 2673.81 2656.50 2638.06 2620.67 2610.32 2597.81 2594.06 2592.02 2587.72 2579.24 2565.41 2548.94 2543.02 2535.22 2526.51 2524.08 2523.99 2517.44 2489.60 2484.27 2487.82 2485.01 2486.44 2484.10 2477.71 2460.30 2456.26 2452.17 2449.55 2444.64 2445.22 2446.75 2446.96 2442.87 2443.63 2435.90 2427.73 2410.34 2398.78 2390.06 2378.26 2368.27 2358.45 2345.69 2319.32 2300.43 2282.02 2267.46 2260.25 2255.26 2252.14 2248.79 2241.77 2237.37 2232.98 2227.47 2217.15 2213.66 2211.79 2206.85 2202.50 2192.91 2185.38
3087.73 3095.99 3104.03 3114.67 3125.30 3133.47 3146.25 3156.85 3167.13 3176.91 3190.13 3200.92 3213.91 3225.22 3224.09 3212.23 3206.95 3192.38 3180.41 3166.69 3154.53 3143.72 3131.34 3121.44 3114.81 3103.72 3086.60 3082.55 3079.40 3069.16 3061.44 3038.22 3026.49 3023.16 3012.91 3004.92 3003.09 2987.28 2976.68 2970.64 2964.12 2959.09 2954.15 2948.32 2941.97 2934.09 2929.70 2926.57 2918.98 2915.38 2910.31 2904.85 2901.37 2895.86 2892.10 2889.19 2885.25 2881.88 2878.99 2876.93 2875.27 2873.49 2871.20 2869.47 2866.77 2861.72 2859.80 2857.09 2854.63 2852.52 2849.68 2849.42 2849.74 2849.38 2847.22 2847.14 2851.96 2853.56 2857.13 2860.33 2867.10 2871.72 2874.48 2876.83 2876.02 2874.82 2874.11 2873.80 2869.84 2865.39 2863.96 2863.64 2863.58 2874.43 2877.92 2876.88 2876.29 2875.48 2874.34 2875.78 2876.52 2877.84 2879.41 2883.02 2886.80 2893.10 2898.81 2918.79 2932.80 2979.86 2987.24 2994.14 3001.12 3013.09 3018.22 3021.11 3025.81 3037.64 3039.10 3036.42 3033.10 3029.47 3026.79 3023.60 3023.23 3024.42 3030.26 3027.00 3027.57 3027.03 3022.12 3019.41 3017.09 3013.93 3011.17 3009.06 3006.63 3003.80 3000.81 2998.05 2995.59 2993.21 2987.07 2985.92 2983.32 2980.67 2979.04 2976.05 2974.20 2971.55 2971.17 2970.55 2970.23 2969.61 2969.62 2968.78 2968.00 2967.38 2966.53 2966.15 2965.70 2965.43 2964.74 2964.45 2963.88 2963.64 2961.74 2960.30 2957.89 2954.93 2952.72 2949.78 2946.86 2935.75 2901.50 2876.78 2878.43 2866.82 2844.46 2821.50 2801.21 2787.43 2774.44 2765.48 2755.92 2746.83 2738.88 2730.15 2722.78 2714.34 2708.19 2701.66 2697.44 2689.61 2689.72 2687.15 2680.23 2673.72 2654.47 2630.84 2618.25 2607.19 2593.03 2586.76 2586.67 2580.10 2568.37 2552.49 2542.42 2540.01 2531.99 2524.03 2515.12 2513.49 2505.54 2497.81 2478.54 2477.26 2478.46 2478.36 2467.83 2456.44 2447.60 2442.51 2437.48 2431.57 2428.57 2435.60 2439.83 2439.93 2433.74 2430.02 2421.79 2408.52 2396.79 2387.51 2377.73 2367.97 2358.95 2351.53 2342.48 2328.60 2299.45 2277.59 2257.13 2251.84 2246.15 2241.58 2237.89 2231.69 2226.14 2219.43 2215.12 2208.86 2204.77 2203.28 2194.18 2187.94 2184.03 2178.35
3090.03 3099.91 3110.28 3118.86 3128.20 3137.87 3150.20 3161.78 3170.04 3180.45 3190.18 3202.73 3215.54 3225.46 3214.33 3204.44 3194.12 3184.97 3176.33 3165.09 3151.94 3138.37 3127.17 3113.27 3102.70 3093.10 3071.12 3071.59 3069.47 3060.56 3052.06 3028.07 3018.98 3003.90 2999.81 2997.50 2986.82 2974.92 2969.11 2962.54 2959.11 2954.20 2948.98 2943.19 2934.93 2931.42 2926.09 2922.65 2918.35 2913.96 2908.22 2903.62 2898.76 2893.75 2889.31 2886.80 2883.94 2879.29 2876.85 2874.71 2872.99 2871.18 2868.88 2865.97 2862.69 2859.29 2856.25 2853.38 2850.42 2848.02 2844.85 2841.57 2838.82 2839.15 2840.23 2841.28 2845.04 2848.63 2852.06 2855.32 2860.97 2863.54 2869.28 2869.13 2869.03 2868.94 2868.09 2865.88 2862.22 2860.35 2858.78 2858.13 2858.93 2869.33 2872.04 2871.12 2869.90 2868.97 2868.88 2869.44 2871.56 2874.96 2876.43 2879.26 2880.91 2888.51 2892.56 2905.58 2916.24 2963.02 2977.81 2986.03 2994.50 3002.28 3007.97 3012.57 3018.41 3030.23 3032.17 3029.54 3026.47 3023.03 3019.47 3015.50 3014.93 3015.82 3019.66 3018.58 3017.16 3017.47 3014.99 3012.62 3009.81 3006.27 3002.33 2998.66 2996.75 2992.95 2990.71 2989.55 2986.73 2980.71 2977.96 2976.20 2974.06 2971.59 2970.39 2967.29 2964.96 2963.40 2960.96 2961.53 2961.32 2960.82 2959.96 2959.14 2957.45 2957.55 2956.78 2956.79 2956.25 2955.77 2955.26 2955.65 2955.44 2954.75 2953.10 2951.58 2949.29 2946.68 2943.93 2940.31 2938.20 2924.85 2904.34 2887.85 2854.37 2832.75 2830.93 2815.22 2798.91 2784.87 2769.92 2761.91 2752.95 2743.46 2733.55 2724.45 2716.50 2708.41 2700.10 2694.35 2687.23 2681.61 2679.65 2677.46 2672.41 2665.62 2650.89 2627.56 2617.06 2606.59 2589.32 2576.19 2577.31 2571.65 2555.08 2548.79 2539.98 2531.55 2527.86 2520.83 2502.45 2493.10 2493.37 2489.36 2470.13 2471.50 2465.86 2458.95 2454.38 2437.72 2437.65 2427.48 2421.30 2418.64 2421.99 2428.85 2432.44 2432.67 2427.88 2420.00 2408.50 2396.82 2385.57 2375.79 2368.14 2358.70 2351.43 2343.59 2328.77 2316.63 2303.14 2266.33 2249.99 2244.27 2237.92 2233.26 2227.96 2220.87 2213.87 2207.65 2202.85 2195.25 2191.08 2186.84 2182.92 2179.03 2175.67 2172.50
